; generated by Slic3r Prusa Edition 1.39.1-prusa3d on 2018-04-02 at 09:44:13

; 

; external perimeters extrusion width = 0.45mm
; perimeters extrusion width = 0.45mm
; infill extrusion width = 0.45mm
; solid infill extrusion width = 0.45mm
; top infill extrusion width = 0.40mm
; first layer extrusion width = 0.42mm

M107
M115 U3.1.1-RC5 ; tell printer latest fw version
M201 X1000 Y1000 Z200 E5000 ; sets maximum accelerations, mm/sec^2
M203 X200 Y200 Z12 E120 ; sets maximum feedrates, mm/sec
M204 S1250 T1250 ; sets acceleration (S) and retract acceleration (T)
M205 X10 Y10 Z0.4 E2.5 ; sets the jerk limits, mm/sec
M205 S0 T0 ; sets the minimum extruding and travel feed rate, mm/sec
M83  ; extruder relative mode
M104 S215 ; set extruder temp
M140 S60 ; set bed temp
M190 S60 ; wait for bed temp
M109 S215 ; wait for extruder temp
G28 W ; home all without mesh bed level
G80 ; mesh bed leveling
G1 Y-3.0 F1000.0 ; go outside print area
G92 E0.0
G1 X60.0 E9.0  F1000.0 ; intro line
G1 X100.0 E12.5  F1000.0 ; intro line
G92 E0.0
M221 S95
M900 K30; Filament gcode
G21 ; set units to millimeters
G90 ; use absolute coordinates
M83 ; use relative distances for extrusion
;BEFORE_LAYER_CHANGE
;0.2


G1 E-0.80000 F2100.00000
G1 Z0.600 F10200.000
;AFTER_LAYER_CHANGE
;0.2
G1 X83.657 Y47.833 F10200.000
G1 Z0.200 F10200.000
G1 E0.80000 F2100.00000
M204 S1000
G1 F1800
G1 X84.846 Y46.958 E0.04629
G1 X86.189 Y46.389 E0.04574
G1 X86.954 Y46.210 E0.02464
G1 X87.793 Y46.127 E0.02643
G1 X162.006 Y46.123 E2.32689
G1 X163.164 Y46.230 E0.03646
G1 X164.319 Y46.561 E0.03768
G1 X165.364 Y47.084 E0.03664
G1 X166.362 Y47.852 E0.03949
G1 X167.247 Y48.882 E0.04257
G1 X167.827 Y49.915 E0.03716
G1 X168.219 Y51.094 E0.03896
G1 X168.371 Y52.241 E0.03628
G1 X168.377 Y157.552 E3.30192
G1 X168.299 Y158.494 E0.02966
G1 X168.092 Y159.381 E0.02856
G1 X167.740 Y160.271 E0.03000
G1 X167.351 Y160.965 E0.02494
G1 X166.889 Y161.594 E0.02447
G1 X166.331 Y162.179 E0.02535
G1 X165.124 Y163.059 E0.04683
G1 X164.348 Y163.429 E0.02696
G1 X163.594 Y163.671 E0.02482
G1 X162.127 Y163.875 E0.04645
G1 X87.931 Y163.877 E2.32635
G1 X87.000 Y163.798 E0.02930
G1 X86.113 Y163.590 E0.02856
G1 X85.224 Y163.238 E0.03000
G1 X84.535 Y162.851 E0.02477
G1 X83.902 Y162.386 E0.02464
G1 X83.317 Y161.827 E0.02537
G1 X82.436 Y160.614 E0.04700
G1 X82.067 Y159.837 E0.02697
G1 X81.824 Y159.078 E0.02499
G1 X81.624 Y157.598 E0.04681
G1 X81.623 Y52.448 E3.29690
G1 X81.701 Y51.506 E0.02966
G1 X81.908 Y50.619 E0.02855
G1 X82.260 Y49.729 E0.03001
G1 X82.649 Y49.035 E0.02494
G1 X83.618 Y47.879 E0.04729
G1 F8160
G1 X84.846 Y46.958 E-0.37522
G1 F8160
G1 X86.189 Y46.389 E-0.35665
G1 F8160
G1 X86.301 Y46.362 E-0.02813
G1 E-0.04000 F2100.00000
G1 Z0.800 F10200.000
G1 X84.620 Y48.868 F10200.000
G1 Z0.200 F10200.000
G1 E0.80000 F2100.00000
G1 F1800
G1 X85.698 Y48.105 E0.04142
G1 X86.274 Y47.851 E0.01975
G1 X86.865 Y47.671 E0.01935
G1 X87.898 Y47.541 E0.03267
G1 X162.106 Y47.541 E2.32673
G1 X163.040 Y47.652 E0.02950
G1 X163.948 Y47.939 E0.02985
G1 X164.468 Y48.199 E0.01822
G1 X164.964 Y48.523 E0.01859
G1 X165.567 Y49.055 E0.02521
G1 X166.144 Y49.777 E0.02898
G1 X166.579 Y50.596 E0.02907
G1 X166.853 Y51.479 E0.02898
G1 X166.959 Y52.405 E0.02925
G1 X166.959 Y157.577 E3.29758
G1 X166.899 Y158.269 E0.02181
G1 X166.748 Y158.940 E0.02155
G1 X166.172 Y160.186 E0.04304
G1 X165.808 Y160.677 E0.01917
G1 X165.380 Y161.132 E0.01956
G1 X164.302 Y161.895 E0.04142
G1 X163.726 Y162.149 E0.01974
G1 X163.135 Y162.329 E0.01936
G1 X162.101 Y162.459 E0.03268
G1 X87.923 Y162.459 E2.32580
G1 X87.231 Y162.399 E0.02180
G1 X86.560 Y162.248 E0.02155
G1 X85.314 Y161.672 E0.04305
G1 X84.822 Y161.307 E0.01919
G1 X84.368 Y160.880 E0.01956
G1 X83.605 Y159.802 E0.04140
G1 X83.351 Y159.226 E0.01975
G1 X83.171 Y158.635 E0.01935
G1 X83.041 Y157.602 E0.03267
G1 X83.041 Y52.423 E3.29780
G1 X83.101 Y51.730 E0.02181
G1 X83.252 Y51.060 E0.02154
G1 X83.828 Y49.814 E0.04305
G1 X84.192 Y49.323 E0.01917
G1 X84.579 Y48.912 E0.01768
G1 X84.853 Y49.171 F10200.000
G1 F1800
G1 X85.868 Y48.442 E0.03918
G1 X86.395 Y48.208 E0.01808
G1 X86.959 Y48.037 E0.01848
G1 X87.910 Y47.918 E0.03006
G1 X162.095 Y47.918 E2.32601
G1 X162.978 Y48.024 E0.02788
G1 X163.792 Y48.282 E0.02680
G1 X164.289 Y48.531 E0.01741
G1 X164.745 Y48.831 E0.01711
G1 X165.304 Y49.326 E0.02342
G1 X165.838 Y49.997 E0.02688
G1 X166.236 Y50.755 E0.02686
G1 X166.487 Y51.572 E0.02678
G1 X166.582 Y52.416 E0.02662
G1 X166.582 Y157.569 E3.29700
G1 X166.528 Y158.199 E0.01984
G1 X166.384 Y158.837 E0.02051
G1 X165.857 Y159.977 E0.03936
G1 X165.511 Y160.443 E0.01821
G1 X165.119 Y160.859 E0.01792
G1 X164.132 Y161.558 E0.03792
G1 X163.605 Y161.792 E0.01807
G1 X163.041 Y161.963 E0.01848
G1 X162.090 Y162.082 E0.03007
G1 X87.931 Y162.082 E2.32518
G1 X87.301 Y162.028 E0.01984
G1 X86.663 Y161.884 E0.02051
G1 X85.523 Y161.357 E0.03937
G1 X85.056 Y161.011 E0.01822
G1 X84.641 Y160.619 E0.01792
G1 X83.942 Y159.632 E0.03790
G1 X83.708 Y159.105 E0.01808
G1 X83.537 Y158.541 E0.01848
G1 X83.418 Y157.590 E0.03006
G1 X83.418 Y52.431 E3.29718
G1 X83.472 Y51.801 E0.01984
G1 X83.616 Y51.162 E0.02051
G1 X84.143 Y50.023 E0.03936
G1 X84.489 Y49.557 E0.01821
G1 X84.812 Y49.214 E0.01475
G1 F8160
G1 X85.868 Y48.442 E-0.31994
G1 F8160
G1 X86.395 Y48.208 E-0.14099
G1 F8160
G1 X86.959 Y48.037 E-0.14406
G1 F8160
G1 X87.588 Y47.958 E-0.15501
G1 E-0.04000 F2100.00000
G1 Z0.800 F10200.000
G1 X83.979 Y51.266 F10200.000
G1 Z0.200 F10200.000
G1 E0.80000 F2100.00000
G1 F1800
G1 X84.458 Y50.231 E0.03574
G1 X84.771 Y49.807 E0.01654
G1 X85.142 Y49.413 E0.01698
G1 X86.038 Y48.779 E0.03440
G1 X86.537 Y48.558 E0.01712
G1 X87.052 Y48.403 E0.01687
G1 X87.922 Y48.295 E0.02747
G1 X162.084 Y48.295 E2.32531
G1 X162.882 Y48.389 E0.02519
G1 X163.638 Y48.627 E0.02486
G1 X164.091 Y48.852 E0.01587
G1 X164.526 Y49.138 E0.01631
G1 X165.041 Y49.597 E0.02163
G1 X165.513 Y50.189 E0.02375
G1 X165.882 Y50.885 E0.02468
G1 X166.114 Y51.633 E0.02457
G1 X166.205 Y52.426 E0.02505
G1 X166.205 Y157.560 E3.29640
G1 X166.154 Y158.153 E0.01866
G1 X166.021 Y158.734 E0.01868
G1 X165.543 Y159.769 E0.03574
G1 X165.229 Y160.193 E0.01654
G1 X164.858 Y160.587 E0.01698
G1 X163.962 Y161.221 E0.03441
G1 X163.463 Y161.442 E0.01711
G1 X162.948 Y161.597 E0.01688
G1 X162.078 Y161.705 E0.02748
G1 X87.940 Y161.705 E2.32456
G1 X87.347 Y161.654 E0.01866
G1 X86.766 Y161.521 E0.01868
G1 X85.731 Y161.043 E0.03574
G1 X85.307 Y160.729 E0.01655
G1 X84.913 Y160.357 E0.01697
G1 X84.279 Y159.463 E0.03439
G1 X84.058 Y158.963 E0.01711
G1 X83.903 Y158.448 E0.01687
G1 X83.795 Y157.578 E0.02748
G1 X83.795 Y52.439 E3.29656
G1 X83.846 Y51.846 E0.01866
G1 X83.965 Y51.324 E0.01679
G1 X84.333 Y51.409 F10200.000
G1 F1800
G1 X84.772 Y50.440 E0.03337
G1 X85.067 Y50.040 E0.01557
G1 X85.403 Y49.686 E0.01530
G1 X86.208 Y49.116 E0.03095
G1 X86.657 Y48.915 E0.01541
G1 X87.145 Y48.768 E0.01598
G1 X87.933 Y48.672 E0.02488
G1 X162.073 Y48.672 E2.32462
G1 X162.787 Y48.754 E0.02253
G1 X163.484 Y48.971 E0.02288
G1 X163.913 Y49.184 E0.01502
G1 X164.306 Y49.445 E0.01478
G1 X164.777 Y49.866 E0.01983
G1 X165.206 Y50.409 E0.02167
G1 X165.540 Y51.044 E0.02249
G1 X165.749 Y51.726 E0.02237
G1 X165.828 Y52.437 E0.02243
G1 X165.828 Y157.552 E3.29582
G1 X165.779 Y158.107 E0.01746
G1 X165.658 Y158.630 E0.01683
G1 X165.228 Y159.560 E0.03213
G1 X164.933 Y159.960 E0.01557
G1 X164.597 Y160.314 E0.01530
G1 X163.792 Y160.884 E0.03095
G1 X163.343 Y161.084 E0.01540
G1 X162.855 Y161.232 E0.01599
G1 X162.067 Y161.328 E0.02489
G1 X87.948 Y161.328 E2.32395
G1 X87.393 Y161.279 E0.01746
G1 X86.870 Y161.158 E0.01683
G1 X85.940 Y160.728 E0.03214
G1 X85.540 Y160.433 E0.01558
G1 X85.186 Y160.097 E0.01530
G1 X84.616 Y159.292 E0.03094
G1 X84.416 Y158.843 E0.01541
G1 X84.268 Y158.355 E0.01598
G1 X84.172 Y157.567 E0.02488
G1 X84.172 Y52.448 E3.29594
G1 X84.221 Y51.893 E0.01746
G1 X84.319 Y51.468 E0.01369
G1 X84.686 Y51.553 F10200.000
G1 F1800
G1 X84.705 Y51.474 E0.00253
G1 X85.088 Y50.648 E0.02856
G1 X85.349 Y50.291 E0.01386
G1 X85.664 Y49.959 E0.01435
G1 X86.379 Y49.452 E0.02748
G1 X86.799 Y49.265 E0.01443
G1 X87.237 Y49.134 E0.01433
G1 X87.944 Y49.049 E0.02232
G1 X162.062 Y49.049 E2.32392
G1 X162.726 Y49.127 E0.02094
G1 X163.331 Y49.316 E0.01987
G1 X163.715 Y49.506 E0.01344
G1 X164.086 Y49.751 E0.01395
G1 X164.512 Y50.135 E0.01799
G1 X164.898 Y50.627 E0.01959
G1 X165.197 Y51.202 E0.02033
G1 X165.376 Y51.786 E0.01914
G1 X165.451 Y52.448 E0.02088
G1 X165.451 Y157.544 E3.29523
G1 X165.409 Y158.035 E0.01545
G1 X165.295 Y158.526 E0.01580
G1 X164.913 Y159.352 E0.02855
G1 X164.651 Y159.709 E0.01386
G1 X164.336 Y160.041 E0.01434
G1 X163.621 Y160.548 E0.02749
G1 X163.201 Y160.735 E0.01443
G1 X162.763 Y160.866 E0.01433
G1 X162.056 Y160.951 E0.02233
G1 X87.956 Y160.951 E2.32335
G1 X87.465 Y160.909 E0.01545
G1 X86.974 Y160.795 E0.01580
G1 X86.148 Y160.413 E0.02856
G1 X85.791 Y160.151 E0.01387
G1 X85.459 Y159.836 E0.01434
G1 X84.952 Y159.121 E0.02747
G1 X84.765 Y158.701 E0.01443
G1 X84.634 Y158.263 E0.01433
G1 X84.549 Y157.556 E0.02233
G1 X84.549 Y52.456 E3.29535
G1 X84.591 Y51.965 E0.01545
G1 X84.673 Y51.611 E0.01138
G1 X85.067 Y51.579 F10200.000
G1 F1800
G1 X85.403 Y50.856 E0.02501
G1 X85.646 Y50.524 E0.01288
G1 X85.924 Y50.233 E0.01263
G1 X86.551 Y49.789 E0.02409
G1 X86.919 Y49.623 E0.01268
G1 X87.329 Y49.500 E0.01341
G1 X87.955 Y49.426 E0.01976
G1 X162.052 Y49.426 E2.32325
G1 X162.632 Y49.492 E0.01830
G1 X163.177 Y49.661 E0.01790
G1 X163.537 Y49.838 E0.01257
G1 X163.865 Y50.057 E0.01236
G1 X164.246 Y50.403 E0.01616
G1 X164.589 Y50.844 E0.01750
G1 X164.853 Y51.358 E0.01815
G1 X165.010 Y51.877 E0.01699
G1 X165.074 Y52.458 E0.01831
G1 X165.074 Y157.536 E3.29465
G1 X165.034 Y157.988 E0.01424
G1 X164.933 Y158.421 E0.01392
G1 X164.597 Y159.144 E0.02501
G1 X164.354 Y159.476 E0.01288
G1 X164.076 Y159.767 E0.01263
G1 X163.449 Y160.211 E0.02410
G1 X163.081 Y160.377 E0.01267
G1 X162.671 Y160.500 E0.01341
G1 X162.045 Y160.574 E0.01977
G1 X87.964 Y160.574 E2.32274
G1 X87.512 Y160.534 E0.01424
G1 X87.079 Y160.433 E0.01392
G1 X86.356 Y160.097 E0.02501
G1 X86.024 Y159.854 E0.01289
G1 X85.733 Y159.576 E0.01263
G1 X85.289 Y158.949 E0.02408
G1 X85.123 Y158.581 E0.01268
G1 X85.000 Y158.171 E0.01341
G1 X84.926 Y157.545 E0.01976
G1 X84.926 Y52.464 E3.29474
G1 X84.966 Y52.011 E0.01424
G1 X85.053 Y51.638 E0.01204
G1 X85.420 Y51.724 F10200.000
G1 F1800
G1 X85.718 Y51.062 E0.02275
G1 X85.927 Y50.775 E0.01112
G1 X86.184 Y50.507 E0.01166
G1 X86.722 Y50.125 E0.02068
G1 X87.062 Y49.972 E0.01169
G1 X87.420 Y49.867 E0.01169
G1 X87.966 Y49.803 E0.01724
G1 X162.042 Y49.803 E2.32260
G1 X162.539 Y49.858 E0.01570
G1 X163.026 Y50.006 E0.01595
G1 X163.338 Y50.159 E0.01091
G1 X163.643 Y50.362 E0.01149
G1 X163.979 Y50.670 E0.01427
G1 X164.279 Y51.059 E0.01540
G1 X164.509 Y51.513 E0.01596
G1 X164.643 Y51.967 E0.01485
G1 X164.697 Y52.467 E0.01578
G1 X164.697 Y157.528 E3.29411
G1 X164.664 Y157.916 E0.01220
G1 X164.570 Y158.316 E0.01288
G1 X164.282 Y158.938 E0.02150
G1 X164.073 Y159.225 E0.01112
G1 X163.816 Y159.493 E0.01166
G1 X163.278 Y159.875 E0.02069
G1 X162.938 Y160.028 E0.01168
G1 X162.580 Y160.133 E0.01169
G1 X162.034 Y160.197 E0.01725
G1 X87.972 Y160.197 E2.32217
G1 X87.584 Y160.164 E0.01220
G1 X87.184 Y160.070 E0.01288
G1 X86.562 Y159.782 E0.02150
G1 X86.275 Y159.573 E0.01113
G1 X86.006 Y159.316 E0.01166
G1 X85.625 Y158.778 E0.02067
G1 X85.472 Y158.438 E0.01169
G1 X85.367 Y158.080 E0.01169
G1 X85.303 Y157.534 E0.01724
G1 X85.303 Y52.472 E3.29416
G1 X85.336 Y52.084 E0.01220
G1 X85.407 Y51.782 E0.00972
G1 X85.792 Y51.791 F10200.000
G1 F1800
G1 X86.034 Y51.269 E0.01803
G1 X86.224 Y51.008 E0.01013
G1 X86.443 Y50.781 E0.00988
G1 X86.895 Y50.460 E0.01738
G1 X87.182 Y50.330 E0.00988
G1 X87.510 Y50.233 E0.01074
G1 X87.976 Y50.180 E0.01471
G1 X162.031 Y50.180 E2.32193
G1 X162.479 Y50.231 E0.01415
G1 X162.874 Y50.352 E0.01293
G1 X163.161 Y50.492 E0.01002
G1 X163.420 Y50.667 E0.00980
G1 X163.711 Y50.935 E0.01240
G1 X163.968 Y51.273 E0.01332
G1 X164.153 Y51.638 E0.01284
G1 X164.270 Y52.026 E0.01270
G1 X164.320 Y52.478 E0.01425
G1 X164.320 Y157.520 E3.29352
G1 X164.290 Y157.869 E0.01098
G1 X164.208 Y158.209 E0.01097
G1 X163.966 Y158.731 E0.01803
G1 X163.776 Y158.992 E0.01013
G1 X163.557 Y159.219 E0.00988
G1 X163.105 Y159.540 E0.01738
G1 X162.819 Y159.670 E0.00987
G1 X162.490 Y159.767 E0.01074
G1 X162.024 Y159.820 E0.01471
G1 X87.980 Y159.820 E2.32158
G1 X87.631 Y159.790 E0.01098
G1 X87.291 Y159.708 E0.01097
G1 X86.769 Y159.466 E0.01803
G1 X86.508 Y159.276 E0.01014
G1 X86.281 Y159.057 E0.00988
G1 X85.960 Y158.605 E0.01737
G1 X85.830 Y158.318 E0.00987
G1 X85.733 Y157.990 E0.01074
G1 X85.680 Y157.524 E0.01471
G1 X85.680 Y52.480 E3.29358
G1 X85.710 Y52.131 E0.01098
G1 X85.778 Y51.849 E0.00908
G1 X86.144 Y51.939 F10200.000
G1 F1800
G1 X86.351 Y51.475 E0.01596
G1 X86.505 Y51.260 E0.00830
G1 X86.702 Y51.056 E0.00889
G1 X87.068 Y50.796 E0.01405
G1 X87.325 Y50.679 E0.00886
G1 X87.598 Y50.600 E0.00892
G1 X87.986 Y50.557 E0.01224
G1 X162.021 Y50.557 E2.32131
G1 X162.388 Y50.597 E0.01158
G1 X162.724 Y50.698 E0.01099
G1 X162.962 Y50.813 E0.00827
G1 X163.197 Y50.971 E0.00888
G1 X163.441 Y51.198 E0.01046
G1 X163.655 Y51.485 E0.01122
G1 X163.808 Y51.791 E0.01072
G1 X163.904 Y52.115 E0.01062
G1 X163.943 Y52.487 E0.01173
G1 X163.943 Y157.512 E3.29296
G1 X163.915 Y157.821 E0.00973
G1 X163.847 Y158.101 E0.00904
G1 X163.649 Y158.525 E0.01469
G1 X163.495 Y158.740 E0.00830
G1 X163.298 Y158.944 E0.00889
G1 X162.932 Y159.204 E0.01406
G1 X162.675 Y159.321 E0.00885
G1 X162.402 Y159.400 E0.00893
G1 X162.013 Y159.443 E0.01225
G1 X87.988 Y159.443 E2.32100
G1 X87.679 Y159.415 E0.00973
G1 X87.399 Y159.347 E0.00904
G1 X86.975 Y159.149 E0.01469
G1 X86.760 Y158.994 E0.00831
G1 X86.555 Y158.798 E0.00889
G1 X86.296 Y158.432 E0.01405
G1 X86.179 Y158.175 E0.00886
G1 X86.100 Y157.902 E0.00892
G1 X86.057 Y157.514 E0.01224
G1 X86.057 Y52.488 E3.29300
G1 X86.085 Y52.179 E0.00973
G1 X86.129 Y51.998 E0.00587
G1 X86.495 Y52.088 F10200.000
G1 F1800
G1 X86.515 Y52.007 E0.00259
G1 X86.667 Y51.680 E0.01131
G1 X86.803 Y51.492 E0.00728
G1 X86.960 Y51.331 E0.00703
G1 X87.240 Y51.132 E0.01080
G1 X87.467 Y51.028 E0.00782
G1 X87.684 Y50.968 E0.00705
G1 X87.996 Y50.934 E0.00984
G1 X162.012 Y50.935 E2.32072
G1 X162.300 Y50.964 E0.00908
G1 X162.575 Y51.045 E0.00899
G1 X162.785 Y51.146 E0.00730
G1 X162.971 Y51.273 E0.00706
G1 X163.169 Y51.460 E0.00853
G1 X163.341 Y51.693 E0.00910
G1 X163.461 Y51.940 E0.00859
G1 X163.536 Y52.202 E0.00854
G1 X163.566 Y52.496 E0.00928
G1 X163.566 Y157.504 E3.29245
G1 X163.546 Y157.746 E0.00760
G1 X163.485 Y157.993 E0.00798
G1 X163.333 Y158.320 E0.01130
G1 X163.197 Y158.508 E0.00728
G1 X163.040 Y158.669 E0.00703
G1 X162.759 Y158.868 E0.01081
G1 X162.533 Y158.972 E0.00781
G1 X162.316 Y159.032 E0.00706
G1 X162.004 Y159.066 E0.00985
G1 X87.996 Y159.066 E2.32047
G1 X87.754 Y159.046 E0.00760
G1 X87.507 Y158.985 E0.00798
G1 X87.180 Y158.833 E0.01130
G1 X86.992 Y158.697 E0.00729
G1 X86.831 Y158.540 E0.00703
G1 X86.632 Y158.260 E0.01080
G1 X86.528 Y158.033 E0.00782
G1 X86.468 Y157.816 E0.00705
G1 X86.434 Y157.504 E0.00984
G1 X86.434 Y52.496 E3.29247
G1 X86.481 Y52.146 E0.01106
G1 X87.084 Y51.744 F10200.000
G1 F1800
G1 X87.218 Y51.607 E0.00601
G1 X87.416 Y51.466 E0.00764
G1 X87.585 Y51.387 E0.00584
G1 X87.769 Y51.335 E0.00602
G1 X88.005 Y51.311 E0.00742
G1 X162.004 Y51.312 E2.32018
G1 X162.215 Y51.332 E0.00664
G1 X162.430 Y51.393 E0.00702
G1 X162.585 Y51.466 E0.00539
G1 X162.744 Y51.575 E0.00604
G1 X162.894 Y51.719 E0.00650
G1 X163.024 Y51.899 E0.00697
G1 X163.113 Y52.085 E0.00646
G1 X163.168 Y52.285 E0.00649
G1 X163.189 Y52.504 E0.00693
G1 X163.189 Y157.496 E3.29193
G1 X163.171 Y157.697 E0.00633
G1 X163.124 Y157.882 E0.00597
G1 X163.015 Y158.117 E0.00813
G1 X162.916 Y158.256 E0.00534
G1 X162.782 Y158.393 E0.00601
G1 X162.584 Y158.534 E0.00764
G1 X162.415 Y158.613 E0.00583
G1 X162.230 Y158.665 E0.00602
G1 X161.995 Y158.689 E0.00743
G1 X88.004 Y158.689 E2.31993
G1 X87.803 Y158.671 E0.00633
G1 X87.619 Y158.624 E0.00597
G1 X87.383 Y158.515 E0.00814
G1 X87.244 Y158.416 E0.00535
G1 X87.107 Y158.282 E0.00601
G1 X86.966 Y158.084 E0.00763
