; generated by Slic3r Prusa Edition 1.39.1-prusa3d on 2018-04-01 at 09:08:12

; 

; external perimeters extrusion width = 0.45mm
; perimeters extrusion width = 0.45mm
; infill extrusion width = 0.45mm
; solid infill extrusion width = 0.45mm
; top infill extrusion width = 0.40mm
; first layer extrusion width = 0.42mm

M107
M115 U3.1.1-RC5 ; tell printer latest fw version
M201 X1000 Y1000 Z200 E5000 ; sets maximum accelerations, mm/sec^2
M203 X200 Y200 Z12 E120 ; sets maximum feedrates, mm/sec
M204 S1250 T1250 ; sets acceleration (S) and retract acceleration (T)
M205 X10 Y10 Z0.4 E2.5 ; sets the jerk limits, mm/sec
M205 S0 T0 ; sets the minimum extruding and travel feed rate, mm/sec
M83  ; extruder relative mode
M104 S215 ; set extruder temp
M140 S60 ; set bed temp
M190 S60 ; wait for bed temp
M109 S215 ; wait for extruder temp
G28 W ; home all without mesh bed level
G80 ; mesh bed leveling
G1 Y-3.0 F1000.0 ; go outside print area
G92 E0.0
G1 X60.0 E9.0  F1000.0 ; intro line
G1 X100.0 E12.5  F1000.0 ; intro line
G92 E0.0
M221 S95
M900 K30; Filament gcode
G21 ; set units to millimeters
G90 ; use absolute coordinates
M83 ; use relative distances for extrusion
;BEFORE_LAYER_CHANGE
;0.2


G1 E-0.80000 F2100.00000
G1 Z0.600 F10200.000
;AFTER_LAYER_CHANGE
;0.2
G1 X40.516 Y47.400 F10200.000
G1 Z0.200 F10200.000
G1 E0.80000 F2100.00000
M204 S1000
G1 F1800
G1 X41.550 Y46.665 E0.03978
G1 X42.722 Y46.193 E0.03960
G1 X43.977 Y46.008 E0.03978
G1 X122.534 Y46.006 E2.46309
G1 X200.494 Y47.212 E2.44468
G1 X201.995 Y47.453 E0.04764
G1 X203.263 Y47.964 E0.04289
G1 X204.414 Y48.754 E0.04377
G1 X205.385 Y49.806 E0.04487
G1 X205.880 Y50.591 E0.02910
G1 X206.294 Y51.548 E0.03270
G1 X206.539 Y52.526 E0.03162
G1 X206.628 Y53.566 E0.03272
G1 X206.628 Y158.635 E3.29437
G1 X206.548 Y159.589 E0.03001
G1 X206.333 Y160.498 E0.02928
G1 X205.969 Y161.402 E0.03054
G1 X205.560 Y162.111 E0.02566
G1 X204.548 Y163.294 E0.04882
G1 X203.340 Y164.162 E0.04664
G1 X202.578 Y164.521 E0.02643
G1 X201.823 Y164.761 E0.02483
G1 X200.361 Y164.960 E0.04627
G1 X122.537 Y166.160 E2.44040
G1 X44.065 Y166.160 E2.46042
G1 X43.284 Y166.094 E0.02459
G1 X42.515 Y165.913 E0.02477
G1 X41.781 Y165.621 E0.02477
G1 X41.098 Y165.225 E0.02477
G1 X40.130 Y164.378 E0.04032
G1 X39.391 Y163.326 E0.04032
G1 X38.921 Y162.123 E0.04050
G1 X38.752 Y160.848 E0.04032
G1 X38.751 Y51.337 E3.43364
G1 X38.816 Y50.550 E0.02477
G1 X38.997 Y49.776 E0.02494
G1 X39.288 Y49.041 E0.02477
G1 X39.687 Y48.353 E0.02494
G1 X40.477 Y47.445 E0.03772
G1 F8160
G1 X41.550 Y46.665 E-0.32449
G1 F8160
G1 X42.722 Y46.193 E-0.30882
G1 F8160
G1 X43.235 Y46.118 E-0.12669
G1 E-0.04000 F2100.00000
G1 Z0.800 F10200.000
G1 X125.426 Y48.704 F10200.000
G1 Z0.200 F10200.000
G1 E0.80000 F2100.00000
G1 F1800
G1 X126.152 Y48.625 E0.02290
G1 X200.360 Y48.625 E2.32672
G1 X201.386 Y48.755 E0.03243
G1 X202.009 Y48.947 E0.02044
G1 X202.621 Y49.228 E0.02113
G1 X203.244 Y49.630 E0.02325
G1 X203.826 Y50.146 E0.02438
G1 X204.375 Y50.830 E0.02751
G1 X204.797 Y51.602 E0.02758
G1 X205.076 Y52.435 E0.02753
G1 X205.210 Y53.485 E0.03318
G1 X205.210 Y158.661 E3.29772
G1 X205.150 Y159.353 E0.02177
G1 X204.999 Y160.024 E0.02157
G1 X204.419 Y161.276 E0.04327
G1 X204.057 Y161.763 E0.01903
G1 X203.626 Y162.221 E0.01971
G1 X202.553 Y162.979 E0.04120
G1 X201.977 Y163.233 E0.01973
G1 X201.386 Y163.412 E0.01936
G1 X200.352 Y163.543 E0.03267
G1 X126.173 Y163.543 E2.32584
G1 X125.411 Y163.478 E0.02399
G1 X124.800 Y164.062 E0.02650
G1 X124.128 Y164.441 E0.02418
G1 X122.990 Y164.743 E0.03691
G1 X43.722 Y164.743 E2.48541
G1 X42.859 Y164.570 E0.02758
G1 X42.022 Y164.177 E0.02899
G1 X40.777 Y162.957 E0.05465
G1 X40.434 Y162.289 E0.02354
G1 X40.169 Y161.246 E0.03376
G1 X40.169 Y50.977 E3.45741
G1 X40.342 Y50.114 E0.02758
G1 X40.735 Y49.277 E0.02899
G1 X41.955 Y48.032 E0.05465
G1 X42.622 Y47.689 E0.02354
G1 X43.666 Y47.424 E0.03376
G1 X122.982 Y47.428 E2.48691
G1 X123.873 Y47.623 E0.02861
G1 X124.698 Y48.034 E0.02887
G1 X125.382 Y48.663 E0.02916
G1 X125.295 Y49.098 F10200.000
G1 F1800
G1 X126.163 Y49.002 E0.02739
G1 X200.348 Y49.002 E2.32602
G1 X201.290 Y49.120 E0.02978
G1 X201.886 Y49.304 E0.01953
G1 X202.451 Y49.564 E0.01952
G1 X203.026 Y49.938 E0.02152
G1 X203.562 Y50.417 E0.02253
G1 X204.070 Y51.052 E0.02549
G1 X204.457 Y51.767 E0.02549
G1 X204.712 Y52.536 E0.02540
G1 X204.833 Y53.496 E0.03036
G1 X204.833 Y158.653 E3.29710
G1 X204.779 Y159.282 E0.01981
G1 X204.636 Y159.921 E0.02054
G1 X204.105 Y161.066 E0.03958
G1 X203.761 Y161.529 E0.01807
G1 X203.365 Y161.948 E0.01808
G1 X202.383 Y162.642 E0.03771
G1 X201.856 Y162.876 E0.01806
G1 X201.292 Y163.047 E0.01848
G1 X200.341 Y163.166 E0.03006
G1 X126.181 Y163.166 E2.32522
G1 X125.541 Y163.111 E0.02015
G1 X125.301 Y163.058 E0.00771
G1 X124.592 Y163.746 E0.03097
G1 X123.964 Y164.101 E0.02264
G1 X122.966 Y164.366 E0.03237
G1 X43.741 Y164.366 E2.48403
G1 X42.958 Y164.205 E0.02506
G1 X42.213 Y163.850 E0.02587
G1 X41.097 Y162.755 E0.04901
G1 X40.793 Y162.173 E0.02061
G1 X40.546 Y161.221 E0.03082
G1 X40.546 Y50.996 E3.45603
G1 X40.706 Y50.213 E0.02506
G1 X41.061 Y49.468 E0.02587
G1 X42.156 Y48.352 E0.04901
G1 X42.739 Y48.048 E0.02061
G1 X43.691 Y47.801 E0.03083
G1 X122.961 Y47.805 E2.48547
G1 X123.767 Y47.986 E0.02590
G1 X124.502 Y48.357 E0.02583
G1 X125.251 Y49.057 E0.03212
G1 X125.193 Y49.523 F10200.000
G1 F1800
G1 X125.403 Y49.466 E0.00681
G1 X126.174 Y49.379 E0.02433
G1 X200.336 Y49.379 E2.32532
G1 X201.196 Y49.486 E0.02717
G1 X201.740 Y49.652 E0.01781
G1 X202.280 Y49.901 E0.01866
G1 X202.807 Y50.246 E0.01976
G1 X203.298 Y50.686 E0.02068
G1 X203.764 Y51.273 E0.02348
G1 X204.117 Y51.930 E0.02340
G1 X204.348 Y52.635 E0.02327
G1 X204.456 Y53.508 E0.02757
G1 X204.456 Y158.645 E3.29649
G1 X204.405 Y159.237 E0.01863
G1 X204.272 Y159.818 E0.01870
G1 X203.790 Y160.858 E0.03594
G1 X203.479 Y161.278 E0.01640
G1 X203.104 Y161.675 E0.01713
G1 X202.213 Y162.305 E0.03421
G1 X201.714 Y162.526 E0.01710
G1 X201.199 Y162.681 E0.01688
G1 X200.329 Y162.789 E0.02748
G1 X126.190 Y162.789 E2.32459
G1 X125.589 Y162.736 E0.01892
G1 X125.187 Y162.643 E0.01293
G1 X124.348 Y163.457 E0.03667
G1 X123.802 Y163.759 E0.01957
G1 X122.941 Y163.988 E0.02794
G1 X43.761 Y163.988 E2.48263
G1 X43.059 Y163.841 E0.02249
G1 X42.406 Y163.525 E0.02276
G1 X41.416 Y162.553 E0.04349
G1 X41.151 Y162.054 E0.01771
G1 X40.923 Y161.196 E0.02783
G1 X40.923 Y51.016 E3.45462
G1 X41.070 Y50.314 E0.02249
G1 X41.387 Y49.661 E0.02276
G1 X42.359 Y48.671 E0.04349
G1 X42.858 Y48.406 E0.01771
G1 X43.716 Y48.178 E0.02783
G1 X122.940 Y48.182 E2.48404
G1 X123.618 Y48.333 E0.02177
G1 X124.307 Y48.681 E0.02421
G1 X125.150 Y49.482 E0.03644
G1 X125.010 Y49.974 F10200.000
G1 F1800
G1 X125.464 Y49.838 E0.01488
G1 X126.185 Y49.756 E0.02273
G1 X200.325 Y49.756 E2.32462
G1 X201.102 Y49.851 E0.02455
G1 X201.617 Y50.008 E0.01687
G1 X202.108 Y50.237 E0.01699
G1 X202.588 Y50.552 E0.01800
G1 X203.033 Y50.955 E0.01883
G1 X203.457 Y51.492 E0.02145
G1 X203.776 Y52.092 E0.02130
G1 X203.983 Y52.734 E0.02114
G1 X204.079 Y53.519 E0.02481
G1 X204.079 Y158.636 E3.29587
G1 X204.030 Y159.190 E0.01743
G1 X203.910 Y159.714 E0.01685
G1 X203.476 Y160.649 E0.03233
G1 X203.183 Y161.045 E0.01543
G1 X202.843 Y161.402 E0.01545
G1 X202.042 Y161.968 E0.03077
G1 X201.594 Y162.168 E0.01540
G1 X201.106 Y162.315 E0.01598
G1 X200.318 Y162.412 E0.02489
G1 X126.198 Y162.412 E2.32397
G1 X125.637 Y162.362 E0.01768
G1 X124.992 Y162.207 E0.02079
G1 X124.853 Y162.442 E0.00855
G1 X124.140 Y163.142 E0.03131
G1 X123.679 Y163.402 E0.01662
G1 X122.915 Y163.611 E0.02482
G1 X43.782 Y163.611 E2.48118
G1 X43.162 Y163.478 E0.01986
G1 X42.600 Y163.201 E0.01965
G1 X41.734 Y162.348 E0.03811
G1 X41.509 Y161.932 E0.01483
G1 X41.300 Y161.170 E0.02477
G1 X41.300 Y51.037 E3.45316
G1 X41.434 Y50.417 E0.01986
G1 X41.711 Y49.855 E0.01965
G1 X42.564 Y48.989 E0.03811
G1 X42.980 Y48.764 E0.01483
G1 X43.742 Y48.555 E0.02477
G1 X122.918 Y48.559 E2.48254
G1 X123.509 Y48.695 E0.01901
G1 X124.110 Y49.004 E0.02117
G1 X124.796 Y49.657 E0.02970
G1 X124.976 Y49.924 E0.01010
G1 X124.846 Y50.420 F10200.000
G1 F1800
G1 X125.526 Y50.210 E0.02230
G1 X126.196 Y50.133 E0.02113
G1 X200.314 Y50.133 E2.32393
G1 X201.008 Y50.217 E0.02193
G1 X201.494 Y50.365 E0.01591
G1 X201.935 Y50.572 E0.01528
G1 X202.367 Y50.858 E0.01625
G1 X202.767 Y51.223 E0.01697
G1 X203.149 Y51.711 E0.01943
G1 X203.434 Y52.252 E0.01920
G1 X203.619 Y52.830 E0.01902
G1 X203.702 Y53.530 E0.02209
G1 X203.702 Y158.628 E3.29528
G1 X203.660 Y159.118 E0.01542
G1 X203.547 Y159.610 E0.01581
G1 X203.161 Y160.440 E0.02870
G1 X202.887 Y160.811 E0.01445
G1 X202.584 Y161.128 E0.01377
G1 X201.872 Y161.632 E0.02734
G1 X201.452 Y161.819 E0.01442
G1 X201.014 Y161.949 E0.01433
G1 X200.307 Y162.035 E0.02233
G1 X126.207 Y162.035 E2.32335
G1 X125.685 Y161.988 E0.01642
G1 X125.183 Y161.865 E0.01620
G1 X124.818 Y161.704 E0.01250
G1 X124.562 Y162.200 E0.01748
G1 X123.929 Y162.829 E0.02797
G1 X123.552 Y163.047 E0.01367
G1 X122.888 Y163.234 E0.02163
G1 X43.801 Y163.234 E2.47972
G1 X43.308 Y163.129 E0.01581
G1 X42.795 Y162.876 E0.01795
G1 X42.050 Y162.141 E0.03280
G1 X41.865 Y161.807 E0.01197
G1 X41.677 Y161.143 E0.02162
G1 X41.677 Y51.056 E3.45171
G1 X41.782 Y50.563 E0.01581
G1 X42.036 Y50.050 E0.01795
G1 X42.771 Y49.305 E0.03280
G1 X43.105 Y49.120 E0.01197
G1 X43.768 Y48.932 E0.02163
G1 X122.896 Y48.936 E2.48098
G1 X123.398 Y49.056 E0.01618
G1 X123.910 Y49.324 E0.01813
G1 X124.517 Y49.911 E0.02648
G1 X124.814 Y50.370 E0.01713
G1 X124.600 Y50.973 F10200.000
G1 F1800
G1 X125.194 Y50.698 E0.02054
G1 X125.613 Y50.577 E0.01366
G1 X126.206 Y50.510 E0.01872
G1 X200.303 Y50.510 E2.32325
G1 X200.916 Y50.583 E0.01935
G1 X201.346 Y50.713 E0.01410
G1 X201.762 Y50.907 E0.01438
G1 X202.145 Y51.163 E0.01444
G1 X202.500 Y51.489 E0.01512
G1 X202.840 Y51.928 E0.01740
G1 X203.092 Y52.411 E0.01709
G1 X203.253 Y52.926 E0.01691
G1 X203.325 Y53.541 E0.01942
G1 X203.325 Y158.620 E3.29469
G1 X203.286 Y159.072 E0.01422
G1 X203.184 Y159.504 E0.01394
G1 X202.846 Y160.232 E0.02516
G1 X202.606 Y160.559 E0.01271
G1 X202.324 Y160.854 E0.01281
G1 X201.700 Y161.295 E0.02395
G1 X201.332 Y161.461 E0.01267
G1 X200.922 Y161.583 E0.01341
G1 X200.296 Y161.658 E0.01976
G1 X126.215 Y161.658 E2.32276
G1 X125.760 Y161.618 E0.01430
G1 X125.291 Y161.503 E0.01514
G1 X124.638 Y161.204 E0.02254
G1 X124.270 Y161.958 E0.02630
G1 X123.715 Y162.518 E0.02472
G1 X123.421 Y162.692 E0.01072
G1 X122.860 Y162.857 E0.01832
G1 X43.822 Y162.857 E2.47818
G1 X43.414 Y162.767 E0.01311
G1 X42.992 Y162.553 E0.01483
G1 X42.364 Y161.931 E0.02771
G1 X42.220 Y161.678 E0.00916
G1 X42.054 Y161.115 E0.01838
G1 X42.054 Y51.077 E3.45016
G1 X42.145 Y50.669 E0.01311
G1 X42.358 Y50.247 E0.01483
G1 X42.980 Y49.619 E0.02771
G1 X43.234 Y49.475 E0.00916
G1 X43.796 Y49.309 E0.01838
G1 X122.874 Y49.313 E2.47942
G1 X123.244 Y49.401 E0.01192
G1 X123.709 Y49.645 E0.01648
G1 X124.236 Y50.164 E0.02321
G1 X124.416 Y50.444 E0.01043
G1 X124.580 Y50.916 E0.01566
G1 X124.234 Y51.725 F10200.000
G1 F1800
G1 X124.912 Y51.244 E0.02604
G1 X125.313 Y51.056 E0.01390
G1 X125.702 Y50.944 E0.01267
G1 X126.216 Y50.887 E0.01624
G1 X200.292 Y50.887 E2.32260
G1 X200.823 Y50.949 E0.01676
G1 X201.224 Y51.069 E0.01311
G1 X201.586 Y51.241 E0.01259
G1 X201.921 Y51.467 E0.01265
G1 X202.232 Y51.755 E0.01327
G1 X202.530 Y52.143 E0.01537
G1 X202.749 Y52.568 E0.01498
G1 X202.888 Y53.019 E0.01480
G1 X202.948 Y53.551 E0.01678
G1 X202.948 Y158.612 E3.29412
G1 X202.915 Y158.999 E0.01217
G1 X202.821 Y159.399 E0.01289
G1 X202.531 Y160.024 E0.02160
G1 X202.310 Y160.325 E0.01172
G1 X202.065 Y160.579 E0.01107
G1 X201.529 Y160.959 E0.02059
G1 X201.189 Y161.112 E0.01168
G1 X200.831 Y161.217 E0.01169
G1 X200.285 Y161.281 E0.01724
G1 X126.223 Y161.281 E2.32215
G1 X125.809 Y161.244 E0.01304
G1 X125.401 Y161.142 E0.01319
G1 X124.841 Y160.882 E0.01936
G1 X124.223 Y160.440 E0.02380
G1 X124.222 Y161.109 E0.02098
G1 X124.179 Y161.308 E0.00638
G1 X123.981 Y161.715 E0.01417
G1 X123.465 Y162.235 E0.02298
G1 X123.288 Y162.339 E0.00643
G1 X122.831 Y162.480 E0.01500
G1 X43.842 Y162.480 E2.47663
G1 X43.562 Y162.419 E0.00898
G1 X43.189 Y162.231 E0.01312
G1 X42.676 Y161.718 E0.02273
G1 X42.573 Y161.543 E0.00639
G1 X42.431 Y161.086 E0.01500
G1 X42.431 Y51.097 E3.44861
G1 X42.492 Y50.817 E0.00898
G1 X42.681 Y50.444 E0.01312
G1 X43.193 Y49.931 E0.02273
G1 X43.369 Y49.828 E0.00639
G1 X43.826 Y49.686 E0.01500
G1 X122.852 Y49.690 E2.47780
G1 X123.095 Y49.747 E0.00782
G1 X123.468 Y49.936 E0.01312
G1 X123.931 Y50.387 E0.02026
G1 X124.085 Y50.627 E0.00894
G1 X124.216 Y51.026 E0.01317
G1 X124.233 Y51.665 E0.02005
G1 X123.848 Y52.583 F10200.000
G1 F1800
G1 X124.141 Y52.650 E0.00941
G1 X124.284 Y52.354 E0.01030
G1 X124.475 Y52.092 E0.01016
G1 X124.720 Y51.842 E0.01098
G1 X125.116 Y51.562 E0.01521
G1 X125.433 Y51.413 E0.01099
G1 X125.761 Y51.317 E0.01071
G1 X126.227 Y51.264 E0.01471
G1 X200.282 Y51.264 E2.32193
G1 X200.731 Y51.315 E0.01417
G1 X201.100 Y51.426 E0.01209
G1 X201.409 Y51.575 E0.01075
G1 X201.696 Y51.770 E0.01087
G1 X201.962 Y52.019 E0.01141
G1 X202.219 Y52.357 E0.01333
G1 X202.404 Y52.723 E0.01286
G1 X202.521 Y53.111 E0.01271
G1 X202.571 Y53.561 E0.01421
G1 X202.571 Y158.604 E3.29355
G1 X202.541 Y158.952 E0.01096
G1 X202.459 Y159.293 E0.01098
G1 X202.215 Y159.817 E0.01815
G1 X202.029 Y160.073 E0.00992
G1 X201.805 Y160.305 E0.01009
G1 X201.356 Y160.623 E0.01728
G1 X201.069 Y160.754 E0.00987
G1 X200.741 Y160.851 E0.01074
G1 X200.275 Y160.904 E0.01471
G1 X126.231 Y160.904 E2.32158
G1 X125.882 Y160.874 E0.01098
G1 X125.542 Y160.792 E0.01097
G1 X125.017 Y160.548 E0.01814
G1 X124.762 Y160.362 E0.00992
G1 X124.530 Y160.139 E0.01007
G1 X124.112 Y159.539 E0.02293
G1 X123.848 Y159.621 E0.00867
G1 X123.845 Y161.085 E0.04589
G1 X123.817 Y161.202 E0.00378
G1 X123.688 Y161.475 E0.00946
G1 X123.245 Y161.928 E0.01988
G1 X123.146 Y161.989 E0.00366
G1 X122.799 Y162.103 E0.01144
G1 X43.861 Y162.103 E2.47505
G1 X43.710 Y162.071 E0.00484
G1 X43.387 Y161.908 E0.01134
G1 X42.985 Y161.501 E0.01795
G1 X42.922 Y161.401 E0.00371
G1 X42.809 Y161.054 E0.01144
G1 X42.809 Y51.116 E3.44703
G1 X42.840 Y50.965 E0.00484
G1 X43.003 Y50.642 E0.01134
G1 X43.411 Y50.240 E0.01795
G1 X43.511 Y50.177 E0.00371
G1 X43.858 Y50.064 E0.01144
G1 X122.830 Y50.067 E2.47613
G1 X122.945 Y50.094 E0.00369
G1 X123.270 Y50.259 E0.01144
G1 X123.651 Y50.639 E0.01687
G1 X123.735 Y50.768 E0.00484
G1 X123.848 Y51.113 E0.01136
G1 X123.848 Y52.523 E0.04421
G1 X124.404 Y52.983 F10200.000
G1 F1800
G1 X124.602 Y52.558 E0.01469
G1 X124.757 Y52.343 E0.00831
G1 X124.953 Y52.139 E0.00889
G1 X125.319 Y51.880 E0.01405
G1 X125.576 Y51.763 E0.00886
G1 X125.849 Y51.684 E0.00892
G1 X126.237 Y51.641 E0.01224
G1 X200.272 Y51.641 E2.32131
G1 X200.639 Y51.681 E0.01159
G1 X200.977 Y51.783 E0.01104
G1 X201.231 Y51.907 E0.00889
G1 X201.449 Y52.056 E0.00826
G1 X201.692 Y52.282 E0.01042
G1 X201.906 Y52.568 E0.01121
G1 X202.059 Y52.875 E0.01073
G1 X202.155 Y53.200 E0.01062
G1 X202.194 Y53.570 E0.01169
G1 X202.194 Y158.596 E3.29299
G1 X202.167 Y158.904 E0.00971
G1 X202.098 Y159.184 E0.00905
G1 X201.899 Y159.610 E0.01473
G1 X201.732 Y159.840 E0.00891
G1 X201.548 Y160.029 E0.00829
G1 X201.183 Y160.288 E0.01401
G1 X200.926 Y160.405 E0.00886
G1 X200.653 Y160.484 E0.00892
G1 X200.264 Y160.526 E0.01225
G1 X126.240 Y160.527 E2.32100
G1 X125.930 Y160.499 E0.00973
G1 X125.650 Y160.430 E0.00904
G1 X125.224 Y160.232 E0.01473
G1 X124.995 Y160.065 E0.00891
G1 X124.806 Y159.881 E0.00828
G1 X124.547 Y159.516 E0.01401
G1 X124.430 Y159.259 E0.00885
G1 X124.351 Y158.986 E0.00893
G1 X124.308 Y158.597 E0.01225
G1 X124.308 Y53.572 E3.29298
G1 X124.336 Y53.263 E0.00973
G1 X124.390 Y53.041 E0.00716
G1 X124.756 Y53.132 F10200.000
G1 F1800
G1 X124.918 Y52.764 E0.01259
G1 X125.054 Y52.576 E0.00729
G1 X125.211 Y52.415 E0.00703
G1 X125.491 Y52.216 E0.01080
G1 X125.718 Y52.112 E0.00782
G1 X125.935 Y52.052 E0.00705
G1 X126.247 Y52.018 E0.00984
G1 X200.263 Y52.018 E2.32072
G1 X200.551 Y52.048 E0.00907
G1 X200.828 Y52.130 E0.00906
G1 X201.031 Y52.227 E0.00706
G1 X201.224 Y52.358 E0.00731
G1 X201.420 Y52.544 E0.00846
G1 X201.592 Y52.777 E0.00910
