; generated by Slic3r Prusa Edition 1.39.1-prusa3d on 2018-04-02 at 10:04:51

; 

; external perimeters extrusion width = 0.60mm
; perimeters extrusion width = 0.43mm
; infill extrusion width = 0.70mm
; solid infill extrusion width = 0.70mm
; top infill extrusion width = 0.43mm
; first layer extrusion width = 0.42mm

M107
M115 U3.1.0 ; tell printer latest fw version
M83  ; extruder relative mode
M104 S215 ; set extruder temp
M140 S60 ; set bed temp
M190 S60 ; wait for bed temp
M109 S215 ; wait for extruder temp
G28 W ; home all without mesh bed level
G80 ; mesh bed leveling
G1 Y-3.0 F1000.0 ; go outside print area
G92 E0.0
G1 X60.0 E9.0  F1000.0 ; intro line
G1 X100.0 E12.5  F1000.0 ; intro line
G92 E0.0
M900 K30; Filament gcode
G21 ; set units to millimeters
G90 ; use absolute coordinates
M83 ; use relative distances for extrusion
;BEFORE_LAYER_CHANGE
;0.2


G1 E-0.80000 F2100.00000
G1 Z0.600 F7200.000
;AFTER_LAYER_CHANGE
;0.2
G1 X43.963 Y64.821 F7200.000
G1 Z0.200 F7200.000
G1 E0.80000 F2100.00000
M204 S1000
G1 F1800
G1 X44.861 Y64.341 E0.03192
G1 X45.833 Y64.038 E0.03192
G1 X46.839 Y63.924 E0.03175
G1 X125.344 Y63.923 E2.46147
G1 X202.254 Y65.127 E2.41175
G1 X203.338 Y65.254 E0.03422
G1 X204.460 Y65.594 E0.03675
G1 X205.464 Y66.109 E0.03537
G1 X206.440 Y66.868 E0.03877
G1 X207.335 Y67.919 E0.04329
G1 X207.930 Y69.009 E0.03894
G1 X208.310 Y70.229 E0.04006
G1 X208.438 Y71.471 E0.03914
G1 X208.437 Y138.632 E2.10580
G1 X208.315 Y139.744 E0.03506
G1 X207.977 Y140.877 E0.03708
G1 X207.456 Y141.898 E0.03595
G1 X206.690 Y142.883 E0.03911
G1 X205.666 Y143.758 E0.04222
G1 X204.625 Y144.337 E0.03734
G1 X203.445 Y144.725 E0.03896
G1 X202.280 Y144.873 E0.03682
G1 X125.388 Y146.077 E2.41118
G1 X46.836 Y146.076 E2.46297
G1 X45.802 Y145.955 E0.03264
G1 X44.805 Y145.636 E0.03282
G1 X43.894 Y145.132 E0.03264
G1 X43.097 Y144.462 E0.03264
G1 X42.460 Y143.675 E0.03175
G1 X41.981 Y142.783 E0.03175
G1 X41.679 Y141.817 E0.03175
G1 X41.563 Y140.811 E0.03175
G1 X41.562 Y69.294 E2.24235
G1 X41.668 Y68.236 E0.03336
G1 X41.983 Y67.214 E0.03353
G1 X42.491 Y66.279 E0.03336
G1 X43.176 Y65.458 E0.03353
G1 X43.917 Y64.859 E0.02986
G1 F5760
G1 X44.861 Y64.341 E-0.37309
G1 F5760
G1 X45.833 Y64.038 E-0.35266
G1 F5760
G1 X45.931 Y64.027 E-0.03425
G1 E-0.04000 F2100.00000
G1 Z0.800 F7200.000
G1 X128.163 Y143.456 F7200.000
G1 Z0.200 F7200.000
G1 E0.80000 F2100.00000
G1 F1800
G1 X127.655 Y143.945 E0.02211
G1 X126.992 Y144.335 E0.02410
G1 X125.801 Y144.659 E0.03872
G1 X46.537 Y144.659 E2.48528
G1 X45.713 Y144.502 E0.02629
G1 X44.953 Y144.169 E0.02601
G1 X43.909 Y143.274 E0.04312
G1 X43.276 Y142.290 E0.03670
G1 X42.979 Y141.162 E0.03655
G1 X42.979 Y68.898 E2.26580
G1 X43.137 Y68.075 E0.02629
G1 X43.470 Y67.315 E0.02601
G1 X44.364 Y66.270 E0.04312
G1 X45.349 Y65.637 E0.03670
G1 X46.476 Y65.341 E0.03656
G1 X125.791 Y65.344 E2.48686
G1 X126.714 Y65.551 E0.02966
G1 X127.489 Y65.938 E0.02717
G1 X128.167 Y66.543 E0.02848
G1 X202.162 Y66.541 E2.32006
G1 X203.021 Y66.635 E0.02711
G1 X203.826 Y66.867 E0.02626
G1 X204.593 Y67.237 E0.02670
G1 X205.299 Y67.745 E0.02728
G1 X205.786 Y68.228 E0.02151
G1 X206.203 Y68.773 E0.02152
G1 X206.610 Y69.525 E0.02680
G1 X206.904 Y70.434 E0.02996
G1 X207.021 Y71.404 E0.03063
G1 X207.021 Y138.592 E2.10665
G1 X206.925 Y139.468 E0.02762
G1 X206.674 Y140.320 E0.02783
G1 X206.273 Y141.117 E0.02799
G1 X205.753 Y141.813 E0.02724
G1 X205.300 Y142.255 E0.01983
G1 X204.777 Y142.650 E0.02056
G1 X204.036 Y143.050 E0.02640
G1 X203.129 Y143.343 E0.02990
G1 X202.157 Y143.460 E0.03068
G1 X128.223 Y143.456 E2.31816
G1 X128.008 Y143.079 F7200.000
G1 F1800
G1 X127.443 Y143.632 E0.02479
G1 X126.823 Y143.997 E0.02257
G1 X125.776 Y144.282 E0.03402
G1 X46.554 Y144.282 E2.48394
G1 X45.845 Y144.147 E0.02264
G1 X45.131 Y143.835 E0.02442
G1 X44.176 Y143.008 E0.03962
G1 X43.632 Y142.163 E0.03149
G1 X43.356 Y141.137 E0.03331
G1 X43.356 Y68.916 E2.26446
G1 X43.491 Y68.206 E0.02264
G1 X43.803 Y67.492 E0.02442
G1 X44.631 Y66.538 E0.03962
G1 X45.475 Y65.994 E0.03149
G1 X46.502 Y65.718 E0.03332
G1 X125.771 Y65.721 E2.48543
G1 X126.566 Y65.898 E0.02556
G1 X127.297 Y66.264 E0.02561
G1 X128.020 Y66.921 E0.03064
G1 X202.151 Y66.918 E2.32433
G1 X202.963 Y67.008 E0.02561
G1 X203.705 Y67.224 E0.02422
G1 X204.413 Y67.569 E0.02470
G1 X205.045 Y68.023 E0.02440
G1 X205.495 Y68.467 E0.01982
G1 X205.895 Y68.990 E0.02062
G1 X206.270 Y69.688 E0.02484
G1 X206.539 Y70.531 E0.02777
G1 X206.644 Y71.415 E0.02790
G1 X206.644 Y138.582 E2.10598
G1 X206.552 Y139.410 E0.02612
G1 X206.329 Y140.166 E0.02472
G1 X205.960 Y140.906 E0.02592
G1 X205.479 Y141.554 E0.02531
G1 X205.046 Y141.977 E0.01897
G1 X204.563 Y142.340 E0.01896
G1 X203.874 Y142.709 E0.02450
G1 X203.031 Y142.978 E0.02772
G1 X202.146 Y143.083 E0.02795
G1 X128.068 Y143.079 E2.32267
G1 X127.854 Y142.702 F7200.000
G1 F1800
G1 X127.197 Y143.345 E0.02885
G1 X126.656 Y143.658 E0.01959
G1 X125.751 Y143.905 E0.02941
G1 X46.573 Y143.905 E2.48257
G1 X45.939 Y143.782 E0.02025
G1 X45.311 Y143.503 E0.02153
G1 X44.446 Y142.743 E0.03610
G1 X43.966 Y141.986 E0.02809
G1 X43.733 Y141.113 E0.02835
G1 X43.733 Y68.934 E2.26311
G1 X43.857 Y68.300 E0.02025
G1 X44.136 Y67.673 E0.02153
G1 X44.896 Y66.808 E0.03610
G1 X45.652 Y66.328 E0.02809
G1 X46.526 Y66.095 E0.02835
G1 X125.749 Y66.098 E2.48398
G1 X126.459 Y66.260 E0.02283
G1 X127.102 Y66.587 E0.02261
G1 X127.872 Y67.298 E0.03285
G1 X202.141 Y67.296 E2.32866
G1 X202.875 Y67.375 E0.02314
G1 X203.556 Y67.571 E0.02222
G1 X204.208 Y67.885 E0.02268
G1 X204.791 Y68.303 E0.02249
G1 X205.221 Y68.726 E0.01892
G1 X205.585 Y69.206 E0.01888
G1 X205.929 Y69.850 E0.02290
G1 X206.167 Y70.594 E0.02450
G1 X206.267 Y71.426 E0.02628
G1 X206.267 Y138.572 E2.10531
G1 X206.185 Y139.321 E0.02363
G1 X205.983 Y140.015 E0.02265
G1 X205.647 Y140.696 E0.02382
G1 X205.203 Y141.296 E0.02338
G1 X204.809 Y141.683 E0.01733
G1 X204.348 Y142.030 E0.01809
G1 X203.712 Y142.368 E0.02259
G1 X202.969 Y142.606 E0.02446
G1 X202.135 Y142.706 E0.02633
G1 X127.914 Y142.702 E2.32714
G1 X127.725 Y142.301 F7200.000
G1 F1800
G1 X126.951 Y143.058 E0.03394
G1 X126.491 Y143.318 E0.01657
G1 X125.725 Y143.528 E0.02489
G1 X46.592 Y143.528 E2.48118
G1 X46.035 Y143.417 E0.01781
G1 X45.494 Y143.172 E0.01861
G1 X44.717 Y142.479 E0.03264
G1 X44.322 Y141.859 E0.02306
G1 X44.111 Y141.087 E0.02510
G1 X44.111 Y68.953 E2.26170
G1 X44.222 Y68.396 E0.01781
G1 X44.467 Y67.855 E0.01861
G1 X45.159 Y67.078 E0.03264
G1 X45.780 Y66.684 E0.02306
G1 X46.552 Y66.472 E0.02510
G1 X125.728 Y66.476 E2.48251
G1 X126.309 Y66.607 E0.01867
G1 X126.906 Y66.911 E0.02102
G1 X127.610 Y67.569 E0.03020
G1 X127.707 Y67.703 E0.00520
G1 X127.997 Y67.672 E0.00913
G1 X202.131 Y67.673 E2.32444
G1 X202.788 Y67.743 E0.02071
G1 X203.409 Y67.919 E0.02023
G1 X204.003 Y68.202 E0.02064
G1 X204.538 Y68.583 E0.02059
G1 X204.929 Y68.966 E0.01716
G1 X205.275 Y69.421 E0.01795
G1 X205.587 Y70.011 E0.02091
G1 X205.802 Y70.690 E0.02234
G1 X205.889 Y71.437 E0.02358
G1 X205.889 Y138.561 E2.10464
G1 X205.812 Y139.263 E0.02212
G1 X205.627 Y139.892 E0.02058
G1 X205.333 Y140.486 E0.02078
G1 X204.928 Y141.037 E0.02144
G1 X204.554 Y141.405 E0.01644
G1 X204.134 Y141.719 E0.01643
G1 X203.551 Y142.026 E0.02067
G1 X202.873 Y142.241 E0.02232
G1 X202.124 Y142.329 E0.02363
G1 X127.998 Y142.329 E2.32418
G1 X127.785 Y142.307 E0.00672
G1 F5760
G1 X126.951 Y143.058 E-0.38858
G1 F5760
G1 X126.491 Y143.318 E-0.18306
G1 F5760
G1 X125.967 Y143.462 E-0.18836
G1 E-0.04000 F2100.00000
G1 Z0.800 F7200.000
G1 X127.492 Y68.108 F7200.000
G1 Z0.200 F7200.000
G1 E0.80000 F2100.00000
G1 F1800
G1 X128.008 Y68.050 E0.01627
G1 X202.122 Y68.050 E2.32379
G1 X202.703 Y68.110 E0.01831
G1 X203.263 Y68.267 E0.01824
G1 X203.800 Y68.520 E0.01861
G1 X204.285 Y68.863 E0.01864
G1 X204.655 Y69.225 E0.01622
G1 X204.965 Y69.636 E0.01614
G1 X205.245 Y70.170 E0.01892
G1 X205.437 Y70.785 E0.02018
G1 X205.512 Y71.447 E0.02091
G1 X205.512 Y138.552 E2.10401
G1 X205.445 Y139.174 E0.01963
G1 X205.280 Y139.742 E0.01854
G1 X205.018 Y140.278 E0.01872
G1 X204.652 Y140.780 E0.01949
G1 X204.317 Y141.111 E0.01474
G1 X203.921 Y141.408 E0.01553
G1 X203.392 Y141.684 E0.01871
G1 X202.778 Y141.876 E0.02017
G1 X202.114 Y141.952 E0.02096
G1 X128.008 Y141.952 E2.32352
G1 X127.512 Y141.899 E0.01566
G1 X127.361 Y142.131 E0.00870
G1 X126.740 Y142.745 E0.02736
G1 X126.364 Y142.963 E0.01363
G1 X125.699 Y143.151 E0.02169
G1 X46.612 Y143.151 E2.47971
G1 X46.134 Y143.052 E0.01531
G1 X45.679 Y142.842 E0.01569
G1 X44.989 Y142.217 E0.02920
G1 X44.677 Y141.729 E0.01818
G1 X44.488 Y141.060 E0.02179
G1 X44.488 Y68.973 E2.26023
G1 X44.587 Y68.495 E0.01531
G1 X44.796 Y68.041 E0.01569
G1 X45.421 Y67.350 E0.02920
G1 X45.910 Y67.038 E0.01818
G1 X46.579 Y66.849 E0.02179
G1 X125.706 Y66.853 E2.48097
G1 X126.199 Y66.968 E0.01588
G1 X126.708 Y67.233 E0.01800
G1 X127.323 Y67.817 E0.02660
G1 X127.462 Y68.056 E0.00868
G1 X127.275 Y68.513 F7200.000
G1 F1800
G1 X128.019 Y68.427 E0.02348
G1 X202.112 Y68.427 E2.32312
G1 X202.646 Y68.483 E0.01685
G1 X203.144 Y68.625 E0.01622
G1 X203.622 Y68.853 E0.01662
G1 X204.033 Y69.143 E0.01578
G1 X204.363 Y69.464 E0.01441
G1 X204.654 Y69.850 E0.01516
G1 X204.902 Y70.328 E0.01689
G1 X205.071 Y70.878 E0.01803
G1 X205.135 Y71.457 E0.01829
G1 X205.135 Y138.542 E2.10339
G1 X205.078 Y139.087 E0.01717
G1 X204.934 Y139.593 E0.01651
G1 X204.702 Y140.071 E0.01665
G1 X204.375 Y140.523 E0.01750
G1 X204.062 Y140.833 E0.01381
G1 X203.709 Y141.095 E0.01380
G1 X203.234 Y141.341 E0.01675
G1 X202.685 Y141.510 E0.01802
G1 X202.104 Y141.574 E0.01834
G1 X128.019 Y141.574 E2.32287
G1 X127.310 Y141.497 E0.02235
G1 X127.076 Y141.883 E0.01418
G1 X126.526 Y142.434 E0.02441
G1 X126.233 Y142.608 E0.01068
G1 X125.671 Y142.774 E0.01838
G1 X46.633 Y142.774 E2.47818
G1 X46.236 Y142.688 E0.01273
G1 X45.868 Y142.515 E0.01277
G1 X45.263 Y141.957 E0.02580
G1 X45.031 Y141.595 E0.01347
G1 X44.865 Y141.032 E0.01841
G1 X44.865 Y68.994 E2.25870
G1 X44.950 Y68.597 E0.01273
G1 X45.124 Y68.229 E0.01277
G1 X45.682 Y67.624 E0.02580
G1 X46.043 Y67.392 E0.01347
G1 X46.607 Y67.226 E0.01842
G1 X125.684 Y67.230 E2.47941
G1 X126.046 Y67.314 E0.01165
G1 X126.509 Y67.554 E0.01637
G1 X127.037 Y68.064 E0.02299
G1 X127.247 Y68.460 E0.01407
G1 X127.085 Y68.984 F7200.000
G1 F1800
G1 X127.528 Y68.857 E0.01445
G1 X128.028 Y68.804 E0.01578
G1 X202.102 Y68.804 E2.32254
G1 X202.561 Y68.851 E0.01446
G1 X202.998 Y68.973 E0.01423
G1 X203.420 Y69.172 E0.01461
G1 X203.781 Y69.425 E0.01384
G1 X204.089 Y69.724 E0.01345
G1 X204.342 Y70.062 E0.01326
G1 X204.559 Y70.484 E0.01486
G1 X204.705 Y70.969 E0.01587
G1 X204.758 Y71.467 E0.01572
G1 X204.758 Y138.532 E2.10276
G1 X204.705 Y139.029 E0.01569
G1 X204.576 Y139.471 E0.01442
G1 X204.371 Y139.891 E0.01464
G1 X204.099 Y140.266 E0.01454
G1 X203.807 Y140.555 E0.01288
G1 X203.498 Y140.782 E0.01203
G1 X203.078 Y140.998 E0.01479
G1 X202.594 Y141.144 E0.01587
G1 X202.094 Y141.197 E0.01576
G1 X128.029 Y141.197 E2.32225
G1 X127.522 Y141.142 E0.01598
G1 X127.057 Y141.007 E0.01520
G1 X126.894 Y141.462 E0.01516
G1 X126.790 Y141.636 E0.00633
G1 X126.307 Y142.126 E0.02160
G1 X126.096 Y142.256 E0.00775
G1 X125.641 Y142.397 E0.01494
G1 X46.652 Y142.397 E2.47664
G1 X46.377 Y142.338 E0.00882
G1 X46.056 Y142.187 E0.01111
G1 X45.538 Y141.699 E0.02233
G1 X45.382 Y141.458 E0.00898
G1 X45.242 Y141.002 E0.01495
G1 X45.242 Y69.014 E2.25716
G1 X45.301 Y68.738 E0.00882
G1 X45.452 Y68.418 E0.01111
G1 X45.940 Y67.899 E0.02233
G1 X46.181 Y67.744 E0.00898
G1 X46.636 Y67.603 E0.01495
G1 X125.663 Y67.607 E2.47782
G1 X125.899 Y67.662 E0.00761
G1 X126.269 Y67.846 E0.01297
G1 X126.749 Y68.311 E0.02096
G1 X127.058 Y68.930 E0.02168
G1 X126.658 Y69.614 F7200.000
G1 F1800
G1 X127.228 Y69.336 E0.01989
G1 X127.587 Y69.230 E0.01171
G1 X128.039 Y69.181 E0.01426
G1 X202.092 Y69.181 E2.32189
G1 X202.505 Y69.224 E0.01300
G1 X202.880 Y69.331 E0.01222
G1 X203.218 Y69.491 E0.01174
G1 X203.532 Y69.708 E0.01194
G1 X203.796 Y69.962 E0.01152
G1 X204.030 Y70.275 E0.01224
G1 X204.215 Y70.639 E0.01281
G1 X204.332 Y71.027 E0.01271
G1 X204.381 Y71.478 E0.01421
G1 X204.381 Y138.523 E2.10214
G1 X204.338 Y138.943 E0.01324
G1 X204.229 Y139.323 E0.01239
G1 X204.055 Y139.685 E0.01262
G1 X203.821 Y140.011 E0.01256
G1 X203.572 Y140.260 E0.01105
G1 X203.288 Y140.469 E0.01106
G1 X202.923 Y140.654 E0.01281
G1 X202.535 Y140.771 E0.01271
G1 X202.083 Y140.820 E0.01425
G1 X128.040 Y140.820 E2.32159
G1 X127.582 Y140.770 E0.01444
G1 X127.214 Y140.659 E0.01205
G1 X126.667 Y140.400 E0.01896
G1 X126.648 Y141.029 E0.01973
G1 X126.546 Y141.315 E0.00951
G1 X126.483 Y141.417 E0.00377
G1 X126.056 Y141.844 E0.01893
G1 X125.956 Y141.906 E0.00369
G1 X125.609 Y142.020 E0.01144
G1 X46.671 Y142.020 E2.47505
G1 X46.518 Y141.988 E0.00492
G1 X46.247 Y141.860 E0.00940
G1 X45.816 Y141.443 E0.01880
G1 X45.732 Y141.315 E0.00479
G1 X45.619 Y140.971 E0.01136
G1 X45.619 Y69.033 E2.25557
G1 X45.651 Y68.879 E0.00492
G1 X45.779 Y68.608 E0.00940
G1 X46.196 Y68.177 E0.01880
G1 X46.324 Y68.093 E0.00479
G1 X46.668 Y67.980 E0.01136
G1 X125.640 Y67.984 E2.47613
G1 X125.757 Y68.011 E0.00377
G1 X126.031 Y68.140 E0.00947
G1 X126.463 Y68.559 E0.01886
G1 X126.640 Y68.921 E0.01264
G1 X126.658 Y69.029 E0.00345
G1 X126.658 Y69.554 E0.01646
G1 F5760
G1 X127.228 Y69.336 E-0.21142
G1 F5760
G1 X127.587 Y69.230 E-0.12939
G1 F5760
G1 X128.039 Y69.181 E-0.15754
G1 F5760
G1 X128.794 Y69.181 E-0.26165
G1 E-0.04000 F2100.00000
G1 Z0.800 F7200.000
G1 X126.281 Y70.558 F7200.000
G1 Z0.200 F7200.000
G1 E0.80000 F2100.00000
G1 F1800
G1 X126.783 Y70.039 E0.02264
G1 X127.045 Y69.846 E0.01021
G1 X127.352 Y69.693 E0.01074
G1 X127.677 Y69.597 E0.01062
G1 X128.048 Y69.558 E0.01172
G1 X202.083 Y69.558 E2.32131
G1 X202.418 Y69.592 E0.01054
G1 X202.760 Y69.689 E0.01116
G1 X203.042 Y69.824 E0.00978
G1 X203.281 Y69.990 E0.00914
G1 X203.523 Y70.222 E0.01052
G1 X203.716 Y70.484 E0.01021
G1 X203.869 Y70.791 E0.01076
G1 X203.965 Y71.116 E0.01062
G1 X204.004 Y71.487 E0.01169
G1 X204.004 Y138.514 E2.10157
G1 X203.971 Y138.856 E0.01078
G1 X203.872 Y139.202 E0.01129
G1 X203.723 Y139.504 E0.01055
G1 X203.543 Y139.757 E0.00973
G1 X203.336 Y139.965 E0.00920
G1 X203.078 Y140.155 E0.01006
G1 X202.771 Y140.308 E0.01075
G1 X202.446 Y140.404 E0.01062
G1 X202.074 Y140.443 E0.01173
G1 X128.049 Y140.443 E2.32099
G1 X127.673 Y140.403 E0.01185
G1 X127.337 Y140.302 E0.01100
G1 X127.099 Y140.188 E0.00828
G1 X126.865 Y140.030 E0.00886
G1 X126.281 Y139.481 E0.02511
G1 X126.281 Y140.936 E0.04559
G1 X126.182 Y141.190 E0.00856
G1 X125.829 Y141.543 E0.01566
G1 X125.574 Y141.643 E0.00856
G1 X46.689 Y141.643 E2.47340
G1 X46.439 Y141.533 E0.00856
G1 X46.095 Y141.190 E0.01522
G1 X45.996 Y140.936 E0.00856
G1 X45.996 Y69.050 E2.25391
G1 X46.105 Y68.800 E0.00856
G1 X46.449 Y68.457 E0.01522
G1 X46.703 Y68.357 E0.00856
G1 X125.588 Y68.357 E2.47340
G1 X125.839 Y68.467 E0.00856
G1 X126.172 Y68.800 E0.01477
G1 X126.275 Y69.018 E0.00757
G1 X126.281 Y70.498 E0.04641
G1 X126.526 Y71.201 F7200.000
G1 F1800
G1 X126.606 Y70.926 E0.00899
G1 X126.707 Y70.715 E0.00731
G1 X126.834 Y70.530 E0.00706
G1 X127.021 Y70.332 E0.00853
G1 X127.255 Y70.160 E0.00909
G1 X127.501 Y70.039 E0.00860
G1 X127.763 Y69.964 E0.00854
G1 X128.057 Y69.935 E0.00928
G1 X202.073 Y69.935 E2.32072
G1 X202.361 Y69.965 E0.00907
G1 X202.638 Y70.046 E0.00906
G1 X202.841 Y70.144 E0.00706
G1 X203.034 Y70.275 E0.00731
G1 X203.230 Y70.460 E0.00846
G1 X203.402 Y70.694 E0.00910
G1 X203.523 Y70.941 E0.00861
G1 X203.598 Y71.203 E0.00855
G1 X203.627 Y71.496 E0.00924
G1 X203.627 Y138.504 E2.10099
G1 X203.597 Y138.800 E0.00932
G1 X203.515 Y139.078 E0.00910
G1 X203.393 Y139.321 E0.00853
G1 X203.262 Y139.504 E0.00705
G1 X203.099 Y139.671 E0.00731
G1 X202.868 Y139.841 E0.00899
G1 X202.622 Y139.962 E0.00861
G1 X202.360 Y140.037 E0.00854
G1 X202.065 Y140.066 E0.00928
G1 X128.058 Y140.066 E2.32044
G1 X127.761 Y140.036 E0.00935
G1 X127.486 Y139.956 E0.00899
G1 X127.276 Y139.854 E0.00731
G1 X127.090 Y139.727 E0.00705
G1 X126.893 Y139.541 E0.00853
G1 X126.721 Y139.308 E0.00909
G1 X126.600 Y139.061 E0.00860
G1 X126.525 Y138.799 E0.00855
G1 X126.496 Y138.504 E0.00929
G1 X126.496 Y71.497 E2.10096
