; generated by Slic3r Prusa Edition 1.39.1-prusa3d on 2018-03-28 at 17:35:53

; 

; external perimeters extrusion width = 0.45mm
; perimeters extrusion width = 0.45mm
; infill extrusion width = 0.45mm
; solid infill extrusion width = 0.45mm
; top infill extrusion width = 0.40mm
; first layer extrusion width = 0.42mm

M107
M115 U3.1.1-RC5 ; tell printer latest fw version
M201 X1000 Y1000 Z200 E5000 ; sets maximum accelerations, mm/sec^2
M203 X200 Y200 Z12 E120 ; sets maximum feedrates, mm/sec
M204 S1250 T1250 ; sets acceleration (S) and retract acceleration (T)
M205 X10 Y10 Z0.4 E2.5 ; sets the jerk limits, mm/sec
M205 S0 T0 ; sets the minimum extruding and travel feed rate, mm/sec
M83  ; extruder relative mode
M104 S215 ; set extruder temp
M140 S60 ; set bed temp
M190 S60 ; wait for bed temp
M109 S215 ; wait for extruder temp
G28 W ; home all without mesh bed level
G80 ; mesh bed leveling
G1 Y-3.0 F1000.0 ; go outside print area
G92 E0.0
G1 X60.0 E9.0  F1000.0 ; intro line
G1 X100.0 E12.5  F1000.0 ; intro line
G92 E0.0
M221 S95
M900 K30; Filament gcode
G21 ; set units to millimeters
G90 ; use absolute coordinates
M83 ; use relative distances for extrusion
;BEFORE_LAYER_CHANGE
;0.2


G1 E-0.80000 F2100.00000
G1 Z0.600 F10200.000
;AFTER_LAYER_CHANGE
;0.2
G1 X26.926 Y19.346 F10200.000
G1 Z0.200 F10200.000
G1 E0.80000 F2100.00000
M204 S1000
G1 F1800
G1 X27.595 Y18.885 E0.02548
G1 X28.331 Y18.527 E0.02566
G1 X29.113 Y18.285 E0.02566
G1 X29.922 Y18.165 E0.02566
G1 X108.502 Y16.912 E2.46413
G1 X136.940 Y16.911 E0.89165
G1 X216.158 Y17.897 E2.48403
G1 X216.959 Y18.035 E0.02548
G1 X217.725 Y18.290 E0.02530
G1 X218.448 Y18.660 E0.02548
G1 X219.104 Y19.131 E0.02530
G1 X224.187 Y24.187 E0.22480
G1 X225.019 Y25.327 E0.04424
G1 X225.497 Y26.533 E0.04067
G1 X225.673 Y27.812 E0.04050
G1 X226.323 Y107.809 E2.50832
G1 X226.323 Y136.200 E0.89017
G1 X226.157 Y176.499 E1.26357
G1 X226.094 Y177.246 E0.02351
G1 X225.927 Y177.978 E0.02351
G1 X225.660 Y178.678 E0.02351
G1 X225.296 Y179.340 E0.02369
G1 X224.620 Y180.184 E0.03389
G1 X219.467 Y185.287 E0.22740
G1 X218.753 Y185.764 E0.02691
G1 X217.978 Y186.120 E0.02674
G1 X217.156 Y186.348 E0.02674
G1 X216.303 Y186.444 E0.02691
G1 X30.653 Y186.478 E5.82095
G1 X29.888 Y186.421 E0.02405
G1 X29.139 Y186.254 E0.02405
G1 X28.427 Y185.986 E0.02387
G1 X27.755 Y185.616 E0.02405
G1 X26.915 Y184.945 E0.03371
G1 X21.816 Y179.796 E0.22720
G1 X21.343 Y179.094 E0.02656
G1 X20.986 Y178.326 E0.02656
G1 X20.755 Y177.517 E0.02638
G1 X20.653 Y176.676 E0.02656
G1 X20.339 Y136.528 E1.25884
G1 X20.280 Y28.161 E3.39779
G1 X20.337 Y27.396 E0.02405
G1 X20.502 Y26.647 E0.02405
G1 X20.772 Y25.929 E0.02405
G1 X21.142 Y25.257 E0.02405
G1 X21.813 Y24.417 E0.03371
G1 X26.883 Y19.389 E0.22389
G1 F8160
G1 X27.595 Y18.885 E-0.21315
G1 F8160
G1 X28.331 Y18.527 E-0.20009
G1 F8160
G1 X29.113 Y18.285 E-0.20009
G1 F8160
G1 X29.706 Y18.197 E-0.14666
G1 E-0.04000 F2100.00000
G1 Z0.800 F10200.000
G1 X140.879 Y22.996 F10200.000
G1 Z0.200 F10200.000
G1 E0.80000 F2100.00000
G1 F1800
G1 X142.414 Y23.032 E0.04814
G1 X143.039 Y23.220 E0.02046
G1 X143.649 Y23.522 E0.02134
G1 X143.660 Y22.465 E0.03315
G1 X143.843 Y21.651 E0.02617
G1 X144.399 Y20.620 E0.03673
G1 X145.086 Y19.908 E0.03103
G1 X145.858 Y19.397 E0.02901
G1 X147.142 Y19.029 E0.04190
G1 X176.680 Y19.064 E0.92614
G1 X177.502 Y19.300 E0.02681
G1 X178.285 Y19.738 E0.02814
G1 X179.179 Y20.619 E0.03934
G1 X179.580 Y21.268 E0.02394
G1 X179.894 Y22.253 E0.03240
G1 X179.921 Y23.683 E0.04484
G1 X181.194 Y23.695 E0.03992
G1 X181.835 Y23.831 E0.02055
G1 X182.131 Y23.953 E0.01006
G1 X183.321 Y23.942 E0.03731
G1 X183.331 Y22.725 E0.03817
G1 X183.546 Y21.825 E0.02901
G1 X183.998 Y20.979 E0.03007
G1 X184.749 Y20.176 E0.03446
G1 X185.579 Y19.635 E0.03107
G1 X186.812 Y19.290 E0.04014
G1 X216.056 Y19.290 E0.91692
G1 X216.986 Y19.487 E0.02983
G1 X217.831 Y19.910 E0.02962
G1 X218.874 Y20.910 E0.04531
G1 X219.271 Y21.572 E0.02419
G1 X219.555 Y22.455 E0.02909
G1 X219.589 Y23.949 E0.04686
G1 X220.858 Y23.955 E0.03978
G1 X221.729 Y24.173 E0.02815
G1 X222.707 Y24.724 E0.03520
G1 X223.349 Y25.352 E0.02818
G1 X223.730 Y25.847 E0.01955
G1 X224.256 Y27.415 E0.05187
G1 X224.241 Y56.830 E0.92231
G1 X224.016 Y57.717 E0.02868
G1 X223.542 Y58.585 E0.03100
G1 X222.697 Y59.449 E0.03791
G1 X222.016 Y59.874 E0.02518
G1 X221.032 Y60.188 E0.03237
G1 X219.608 Y60.214 E0.04467
G1 X219.597 Y61.424 E0.03795
G1 X219.888 Y62.473 E0.03413
G1 X219.896 Y63.688 E0.03809
G1 X221.111 Y63.698 E0.03810
G1 X221.967 Y63.897 E0.02756
G1 X222.856 Y64.366 E0.03152
G1 X223.659 Y65.117 E0.03446
G1 X224.176 Y65.895 E0.02931
G1 X224.545 Y67.179 E0.04189
G1 X224.524 Y96.626 E0.92329
G1 X224.273 Y97.543 E0.02980
G1 X223.850 Y98.300 E0.02719
G1 X222.959 Y99.213 E0.04001
G1 X222.306 Y99.618 E0.02410
G1 X221.321 Y99.932 E0.03241
G1 X219.892 Y99.958 E0.04481
G1 X219.891 Y101.110 E0.03611
G1 X219.851 Y101.354 E0.00776
G1 X219.914 Y101.480 E0.00441
G1 X220.227 Y102.507 E0.03367
G1 X220.248 Y103.863 E0.04251
G1 X221.471 Y103.872 E0.03837
G1 X222.327 Y104.072 E0.02756
G1 X223.217 Y104.541 E0.03152
G1 X224.020 Y105.291 E0.03446
G1 X224.537 Y106.070 E0.02931
G1 X224.905 Y107.355 E0.04190
G1 X224.871 Y136.882 E0.92580
G1 X224.644 Y137.696 E0.02649
G1 X224.239 Y138.439 E0.02655
G1 X223.322 Y139.387 E0.04135
G1 X222.667 Y139.793 E0.02416
G1 X221.682 Y140.107 E0.03242
G1 X220.250 Y140.133 E0.04491
G1 X220.236 Y141.431 E0.04069
G1 X220.070 Y142.145 E0.02299
G1 X219.958 Y142.398 E0.00868
G1 X220.090 Y142.930 E0.01717
G1 X220.090 Y144.094 E0.03652
G1 X221.306 Y144.104 E0.03813
G1 X222.162 Y144.303 E0.02756
G1 X223.051 Y144.772 E0.03152
G1 X223.854 Y145.523 E0.03446
G1 X224.372 Y146.302 E0.02931
G1 X224.740 Y147.586 E0.04188
G1 X224.740 Y176.822 E0.91670
G1 X224.581 Y177.648 E0.02635
G1 X224.244 Y178.417 E0.02635
G1 X223.161 Y179.612 E0.05056
G1 X222.423 Y180.059 E0.02707
G1 X221.446 Y180.350 E0.03193
G1 X220.086 Y180.363 E0.04265
G1 X220.076 Y181.595 E0.03864
G1 X219.877 Y182.451 E0.02756
G1 X219.408 Y183.341 E0.03152
G1 X218.658 Y184.144 E0.03446
G1 X217.879 Y184.661 E0.02931
G1 X216.594 Y185.029 E0.04192
G1 X187.095 Y185.001 E0.92491
G1 X186.216 Y184.749 E0.02868
G1 X185.395 Y184.278 E0.02966
G1 X184.549 Y183.429 E0.03759
G1 X184.134 Y182.742 E0.02517
G1 X183.841 Y181.801 E0.03090
G1 X183.816 Y180.379 E0.04458
G1 X182.652 Y180.379 E0.03650
G1 X182.266 Y180.296 E0.01237
G1 X181.914 Y180.370 E0.01128
G1 X180.762 Y180.370 E0.03612
G1 X180.752 Y181.586 E0.03813
G1 X180.553 Y182.442 E0.02756
G1 X180.084 Y183.331 E0.03152
G1 X179.333 Y184.134 E0.03446
G1 X178.555 Y184.652 E0.02931
G1 X177.270 Y185.020 E0.04190
G1 X147.737 Y184.986 E0.92598
G1 X146.924 Y184.756 E0.02650
G1 X146.185 Y184.353 E0.02638
G1 X145.238 Y183.436 E0.04134
G1 X144.832 Y182.781 E0.02416
G1 X144.518 Y181.796 E0.03242
G1 X144.492 Y180.370 E0.04473
G1 X143.325 Y180.370 E0.03659
G1 X142.798 Y180.247 E0.01696
G1 X142.631 Y180.274 E0.00531
G1 X141.481 Y180.274 E0.03603
G1 X141.472 Y181.490 E0.03811
G1 X141.257 Y182.389 E0.02901
G1 X140.804 Y183.235 E0.03007
G1 X140.054 Y184.038 E0.03446
G1 X139.224 Y184.579 E0.03107
G1 X137.991 Y184.924 E0.04015
G1 X108.519 Y184.897 E0.92407
G1 X107.707 Y184.686 E0.02629
G1 X106.965 Y184.300 E0.02624
G1 X105.962 Y183.345 E0.04341
G1 X105.552 Y182.686 E0.02435
G1 X105.238 Y181.700 E0.03243
G1 X105.211 Y180.274 E0.04473
G1 X104.042 Y180.274 E0.03666
G1 X103.594 Y180.171 E0.01443
G1 X103.390 Y180.207 E0.00648
G1 X102.239 Y180.207 E0.03609
G1 X102.230 Y181.422 E0.03811
G1 X102.014 Y182.322 E0.02901
G1 X101.562 Y183.168 E0.03007
G1 X100.811 Y183.970 E0.03446
G1 X99.981 Y184.512 E0.03107
G1 X98.748 Y184.857 E0.04017
G1 X69.249 Y184.828 E0.92490
G1 X68.370 Y184.577 E0.02869
G1 X67.548 Y184.106 E0.02969
G1 X66.702 Y183.256 E0.03759
G1 X66.287 Y182.569 E0.02517
G1 X65.995 Y181.628 E0.03090
G1 X65.969 Y180.202 E0.04474
G1 X65.000 Y180.198 E0.03039
G1 X64.159 Y180.411 E0.02719
G1 X63.001 Y180.411 E0.03632
G1 X62.992 Y181.627 E0.03813
G1 X62.792 Y182.483 E0.02756
G1 X62.324 Y183.372 E0.03152
G1 X61.573 Y184.175 E0.03446
G1 X60.794 Y184.693 E0.02931
G1 X59.510 Y185.061 E0.04188
G1 X30.273 Y185.061 E0.91670
G1 X29.448 Y184.902 E0.02635
G1 X28.678 Y184.565 E0.02635
G1 X27.483 Y183.482 E0.05056
G1 X27.036 Y182.743 E0.02707
G1 X26.746 Y181.767 E0.03193
G1 X26.733 Y180.407 E0.04265
G1 X25.500 Y180.397 E0.03864
G1 X24.644 Y180.198 E0.02756
G1 X23.755 Y179.729 E0.03152
G1 X22.952 Y178.978 E0.03446
G1 X22.434 Y178.200 E0.02931
G1 X22.066 Y176.915 E0.04191
G1 X22.088 Y147.466 E0.92333
G1 X22.329 Y146.579 E0.02883
G1 X22.818 Y145.715 E0.03112
G1 X23.633 Y144.896 E0.03623
G1 X24.354 Y144.455 E0.02652
G1 X25.295 Y144.162 E0.03088
G1 X26.716 Y144.137 E0.04458
G1 X26.716 Y143.033 E0.03460
G1 X26.742 Y142.857 E0.00558
G1 X26.420 Y141.732 E0.03670
G1 X26.406 Y140.470 E0.03955
G1 X25.190 Y140.461 E0.03813
G1 X24.334 Y140.262 E0.02756
G1 X23.445 Y139.793 E0.03152
G1 X22.642 Y139.042 E0.03446
G1 X22.124 Y138.263 E0.02931
G1 X21.756 Y136.979 E0.04190
G1 X21.790 Y107.452 E0.92580
G1 X22.018 Y106.638 E0.02649
G1 X22.423 Y105.894 E0.02655
G1 X23.340 Y104.947 E0.04135
G1 X23.995 Y104.541 E0.02416
G1 X24.980 Y104.227 E0.03242
G1 X26.414 Y104.200 E0.04495
G1 X26.430 Y102.862 E0.04197
G1 X26.582 Y102.215 E0.02083
G1 X26.703 Y101.941 E0.00939
G1 X26.621 Y101.583 E0.01150
G1 X26.621 Y100.419 E0.03651
G1 X25.405 Y100.409 E0.03813
G1 X24.549 Y100.210 E0.02756
G1 X23.659 Y99.741 E0.03152
G1 X22.856 Y98.990 E0.03446
G1 X22.339 Y98.212 E0.02931
G1 X21.971 Y96.927 E0.04191
G1 X21.992 Y67.478 E0.92333
G1 X22.233 Y66.591 E0.02883
G1 X22.722 Y65.728 E0.03111
G1 X23.571 Y64.882 E0.03757
G1 X24.258 Y64.467 E0.02517
G1 X25.199 Y64.174 E0.03090
G1 X26.621 Y64.149 E0.04458
G1 X26.621 Y63.044 E0.03463
G1 X26.661 Y62.790 E0.00807
G1 X26.522 Y62.476 E0.01076
G1 X26.371 Y61.831 E0.02077
G1 X26.355 Y60.503 E0.04163
G1 X25.131 Y60.494 E0.03836
G1 X24.275 Y60.294 E0.02756
G1 X23.386 Y59.826 E0.03152
G1 X22.583 Y59.075 E0.03446
G1 X22.065 Y58.296 E0.02931
G1 X21.697 Y57.012 E0.04188
G1 X21.697 Y27.775 E0.91670
G1 X21.856 Y26.950 E0.02635
G1 X22.193 Y26.180 E0.02635
G1 X23.276 Y24.985 E0.05056
G1 X24.015 Y24.538 E0.02707
G1 X24.991 Y24.248 E0.03193
G1 X26.351 Y24.235 E0.04265
G1 X26.361 Y23.002 E0.03864
G1 X26.560 Y22.146 E0.02756
G1 X27.029 Y21.257 E0.03152
G1 X27.780 Y20.454 E0.03446
G1 X28.558 Y19.937 E0.02931
G1 X29.844 Y19.568 E0.04192
G1 X59.346 Y19.597 E0.92502
G1 X60.224 Y19.850 E0.02864
G1 X61.042 Y20.320 E0.02960
G1 X61.918 Y21.208 E0.03912
G1 X62.323 Y21.899 E0.02510
G1 X62.587 Y22.740 E0.02764
G1 X62.619 Y24.189 E0.04546
G1 X62.968 Y24.002 E0.01241
G1 X63.960 Y23.691 E0.03260
G1 X65.361 Y23.662 E0.04393
G1 X65.370 Y22.440 E0.03833
G1 X65.570 Y21.584 E0.02756
G1 X66.039 Y20.694 E0.03152
G1 X66.789 Y19.892 E0.03446
G1 X67.568 Y19.374 E0.02931
G1 X68.853 Y19.006 E0.04192
G1 X98.353 Y19.035 E0.92495
G1 X99.232 Y19.286 E0.02866
G1 X100.052 Y19.757 E0.02965
G1 X100.928 Y20.645 E0.03912
G1 X101.333 Y21.336 E0.02510
G1 X101.596 Y22.177 E0.02764
G1 X101.630 Y23.668 E0.04676
G1 X102.156 Y23.352 E0.01924
G1 X102.991 Y23.053 E0.02782
G1 X104.609 Y23.002 E0.05074
G1 X104.618 Y21.763 E0.03885
G1 X104.818 Y20.907 E0.02755
G1 X105.289 Y20.014 E0.03166
G1 X106.192 Y19.089 E0.04054
G1 X107.003 Y18.612 E0.02951
G1 X107.874 Y18.362 E0.02839
G1 X137.633 Y18.363 E0.93308
G1 X138.447 Y18.593 E0.02650
G1 X139.185 Y18.996 E0.02638
G1 X140.133 Y19.913 E0.04134
G1 X140.538 Y20.568 E0.02416
G1 X140.852 Y21.553 E0.03242
G1 X140.878 Y22.936 E0.04338
G1 X140.505 Y23.368 F10200.000
G1 F1800
G1 X142.331 Y23.400 E0.05724
G1 X142.914 Y23.576 E0.01909
G1 X143.501 Y23.873 E0.02062
G1 X143.728 Y24.059 E0.00922
G1 X144.025 Y24.059 E0.00931
G1 X144.032 Y22.527 E0.04801
G1 X144.205 Y21.759 E0.02470
G1 X144.688 Y20.863 E0.03191
G1 X145.343 Y20.185 E0.02955
G1 X146.040 Y19.728 E0.02614
G1 X147.168 Y19.406 E0.03679
G1 X176.653 Y19.441 E0.92447
G1 X177.336 Y19.639 E0.02231
G1 X178.079 Y20.055 E0.02668
G1 X178.872 Y20.838 E0.03495
G1 X179.228 Y21.406 E0.02103
G1 X179.526 Y22.340 E0.03073
G1 X179.547 Y24.058 E0.05388
G1 X181.134 Y24.068 E0.04977
G1 X181.737 Y24.196 E0.01934
G1 X182.055 Y24.331 E0.01082
G1 X183.695 Y24.315 E0.05142
G1 X183.708 Y22.749 E0.04913
G1 X183.891 Y21.979 E0.02482
G1 X184.292 Y21.218 E0.02697
G1 X185.009 Y20.450 E0.03295
G1 X185.711 Y19.989 E0.02631
G1 X186.839 Y19.667 E0.03677
G1 X216.035 Y19.667 E0.91544
G1 X216.882 Y19.850 E0.02716
G1 X217.635 Y20.233 E0.02648
G1 X218.565 Y21.128 E0.04047
G1 X218.919 Y21.709 E0.02135
G1 X219.188 Y22.544 E0.02748
G1 X219.217 Y24.325 E0.05585
G1 X220.834 Y24.332 E0.05069
G1 X221.568 Y24.515 E0.02372
G1 X222.462 Y25.012 E0.03206
G1 X223.076 Y25.612 E0.02694
G1 X223.411 Y26.051 E0.01730
G1 X223.879 Y27.445 E0.04612
G1 X223.864 Y56.806 E0.92058
G1 X223.658 Y57.598 E0.02568
G1 X223.226 Y58.378 E0.02797
G1 X222.444 Y59.168 E0.03482
G1 X221.879 Y59.522 E0.02094
G1 X220.945 Y59.820 E0.03072
G1 X219.229 Y59.840 E0.05381
G1 X219.229 Y61.295 E0.04560
G1 X219.210 Y61.439 E0.00458
G1 X219.518 Y62.549 E0.03610
G1 X219.518 Y64.062 E0.04745
G1 X221.086 Y64.075 E0.04918
G1 X221.856 Y64.258 E0.02482
G1 X222.617 Y64.658 E0.02697
G1 X223.385 Y65.376 E0.03295
G1 X223.845 Y66.078 E0.02631
G1 X224.168 Y67.205 E0.03677
G1 X224.154 Y96.551 E0.92011
G1 X223.916 Y97.420 E0.02825
G1 X223.535 Y98.092 E0.02423
G1 X222.739 Y98.907 E0.03569
G1 X222.168 Y99.266 E0.02117
G1 X221.234 Y99.564 E0.03074
G1 X219.515 Y99.585 E0.05388
G1 X219.514 Y101.092 E0.04726
G1 X219.455 Y101.423 E0.01054
G1 X219.560 Y101.613 E0.00682
G1 X219.858 Y102.591 E0.03205
G1 X219.873 Y104.237 E0.05162
G1 X221.447 Y104.249 E0.04935
G1 X222.217 Y104.433 E0.02482
G1 X222.978 Y104.833 E0.02697
G1 X223.745 Y105.551 E0.03295
G1 X224.206 Y106.253 E0.02631
G1 X224.528 Y107.381 E0.03679
G1 X224.501 Y136.807 E0.92265
G1 X224.302 Y137.535 E0.02366
G1 X223.920 Y138.236 E0.02504
G1 X223.101 Y139.080 E0.03687
G1 X222.529 Y139.441 E0.02122
G1 X221.594 Y139.739 E0.03075
G1 X219.874 Y139.759 E0.05394
G1 X219.864 Y141.366 E0.05037
G1 X219.707 Y142.039 E0.02166
G1 X219.558 Y142.362 E0.01117
G1 X219.713 Y142.955 E0.01920
G1 X219.713 Y144.469 E0.04746
G1 X221.281 Y144.481 E0.04918
G1 X222.051 Y144.664 E0.02482
G1 X222.812 Y145.065 E0.02697
G1 X223.580 Y145.783 E0.03295
G1 X224.041 Y146.484 E0.02631
G1 X224.363 Y147.612 E0.03677
G1 X224.363 Y176.804 E0.91529
G1 X224.216 Y177.553 E0.02395
G1 X223.912 Y178.235 E0.02340
G1 X222.903 Y179.336 E0.04683
G1 X222.251 Y179.723 E0.02378
G1 X221.416 Y179.973 E0.02732
G1 X219.712 Y179.989 E0.05343
G1 X219.700 Y181.571 E0.04958
G1 X219.516 Y182.341 E0.02482
G1 X219.116 Y183.102 E0.02697
G1 X218.398 Y183.869 E0.03295
G1 X217.696 Y184.330 E0.02631
G1 X216.568 Y184.652 E0.03680
G1 X187.122 Y184.624 E0.92325
G1 X186.384 Y184.411 E0.02408
G1 X185.605 Y183.964 E0.02816
G1 X184.858 Y183.213 E0.03320
G1 X184.487 Y182.607 E0.02229
G1 X184.210 Y181.715 E0.02926
G1 X184.190 Y180.002 E0.05373
G1 X182.674 Y180.002 E0.04751
G1 X182.267 Y179.909 E0.01310
G1 X181.892 Y179.993 E0.01205
G1 X180.388 Y179.993 E0.04716
G1 X180.375 Y181.561 E0.04918
G1 X180.192 Y182.331 E0.02482
G1 X179.791 Y183.092 E0.02697
G1 X179.074 Y183.860 E0.03295
G1 X178.372 Y184.321 E0.02631
G1 X177.244 Y184.643 E0.03679
G1 X147.813 Y184.616 E0.92280
G1 X147.085 Y184.414 E0.02368
G1 X146.388 Y184.035 E0.02487
G1 X145.545 Y183.216 E0.03686
G1 X145.184 Y182.643 E0.02122
G1 X144.886 Y181.709 E0.03075
G1 X144.865 Y179.993 E0.05381
G1 X143.348 Y179.993 E0.04757
G1 X142.808 Y179.861 E0.01743
G1 X142.612 Y179.897 E0.00627
G1 X141.107 Y179.897 E0.04716
G1 X141.095 Y181.465 E0.04918
G1 X140.912 Y182.235 E0.02482
G1 X140.511 Y182.996 E0.02697
G1 X139.793 Y183.764 E0.03295
G1 X139.092 Y184.225 E0.02631
G1 X137.964 Y184.547 E0.03678
G1 X108.588 Y184.526 E0.92106
G1 X107.861 Y184.342 E0.02351
G1 X107.163 Y183.978 E0.02470
G1 X106.268 Y183.124 E0.03878
G1 X105.904 Y182.547 E0.02138
G1 X105.606 Y181.613 E0.03075
G1 X105.585 Y179.897 E0.05381
G1 X104.066 Y179.897 E0.04764
G1 X103.602 Y179.784 E0.01497
G1 X103.370 Y179.830 E0.00739
G1 X101.865 Y179.830 E0.04719
G1 X101.853 Y181.398 E0.04918
