; G-Code generated by Simplify3D(R) Version 4.0.0
; Mar 27, 2018 at 8:17:33 PM
; Settings Summary
;   processName,Process1
;   applyToModels,bottom_plates
;   profileName,Original Prusa i3 MK3 v2 (modified)
;   profileVersion,2018-01-03 19:13:25
;   baseProfile,Prusa Mendel (modified)
;   printMaterial,PLA
;   printQuality,FAST 0.2mm
;   printExtruders,
;   extruderName,Primary Extruder
;   extruderToolheadNumber,0
;   extruderDiameter,0.4
;   extruderAutoWidth,0
;   extruderWidth,0.45
;   extrusionMultiplier,1
;   extruderUseRetract,1
;   extruderRetractionDistance,0.8
;   extruderExtraRestartDistance,0
;   extruderRetractionZLift,0.6
;   extruderRetractionSpeed,2100
;   extruderUseCoasting,1
;   extruderCoastingDistance,0.2
;   extruderUseWipe,1
;   extruderWipeDistance,2
;   primaryExtruder,0
;   layerHeight,0.2
;   topSolidLayers,5
;   bottomSolidLayers,4
;   perimeterOutlines,2
;   printPerimetersInsideOut,1
;   startPointOption,2
;   startPointOriginX,0
;   startPointOriginY,0
;   sequentialIslands,0
;   spiralVaseMode,0
;   firstLayerHeightPercentage,75
;   firstLayerWidthPercentage,95
;   firstLayerUnderspeed,0.2
;   useRaft,0
;   raftExtruder,0
;   raftTopLayers,3
;   raftBaseLayers,2
;   raftOffset,3
;   raftSeparationDistance,0.2
;   raftTopInfill,100
;   aboveRaftSpeedMultiplier,0.3
;   useSkirt,1
;   skirtExtruder,0
;   skirtLayers,2
;   skirtOutlines,2
;   skirtOffset,2
;   usePrimePillar,0
;   primePillarExtruder,999
;   primePillarWidth,12
;   primePillarLocation,7
;   primePillarSpeedMultiplier,1
;   useOozeShield,0
;   oozeShieldExtruder,999
;   oozeShieldOffset,2
;   oozeShieldOutlines,1
;   oozeShieldSidewallShape,1
;   oozeShieldSidewallAngle,30
;   oozeShieldSpeedMultiplier,1
;   infillExtruder,0
;   internalInfillPattern,Grid
;   externalInfillPattern,Rectilinear
;   infillPercentage,20
;   outlineOverlapPercentage,25
;   infillExtrusionWidthPercentage,100
;   minInfillLength,2
;   infillLayerInterval,1
;   internalInfillAngles,45,-45
;   overlapInternalInfillAngles,1
;   externalInfillAngles,45,-45
;   generateSupport,0
;   supportExtruder,0
;   supportInfillPercentage,30
;   supportExtraInflation,1.4
;   supportBaseLayers,0
;   denseSupportExtruder,0
;   denseSupportLayers,3
;   denseSupportInfillPercentage,70
;   supportLayerInterval,1
;   supportHorizontalPartOffset,0.2
;   supportUpperSeparationLayers,1
;   supportLowerSeparationLayers,1
;   supportType,0
;   supportGridSpacing,1
;   maxOverhangAngle,55
;   supportAngles,0
;   temperatureName,Primary Extruder,Heated Bed
;   temperatureNumber,0,1
;   temperatureSetpointCount,1,1
;   temperatureSetpointLayers,1,1
;   temperatureSetpointTemperatures,215,60
;   temperatureStabilizeAtStartup,1,1
;   temperatureHeatedBed,0,1
;   temperatureRelayBetweenLayers,0,0
;   temperatureRelayBetweenLoops,0,0
;   fanLayers,1,2
;   fanSpeeds,0,100
;   blipFanToFullPower,1
;   adjustSpeedForCooling,1
;   minSpeedLayerTime,20
;   minCoolingSpeedSlowdown,10
;   increaseFanForCooling,0
;   minFanLayerTime,45
;   maxCoolingFanSpeed,100
;   increaseFanForBridging,1
;   bridgingFanSpeed,80
;   use5D,1
;   relativeEdistances,1
;   allowEaxisZeroing,1
;   independentExtruderAxes,0
;   includeM10123,0
;   stickySupport,1
;   applyToolheadOffsets,0
;   gcodeXoffset,0
;   gcodeYoffset,0
;   gcodeZoffset,0
;   overrideMachineDefinition,1
;   machineTypeOverride,0
;   strokeXoverride,250
;   strokeYoverride,210
;   strokeZoverride,210
;   originOffsetXoverride,0
;   originOffsetYoverride,0
;   originOffsetZoverride,0
;   homeXdirOverride,-1
;   homeYdirOverride,-1
;   homeZdirOverride,-1
;   flipXoverride,1
;   flipYoverride,-1
;   flipZoverride,1
;   toolheadOffsets,0,0|0,0|0,0|0,0|0,0|0,0
;   overrideFirmwareConfiguration,0
;   firmwareTypeOverride,RepRap (Marlin/Repetier/Sprinter)
;   GPXconfigOverride,r2
;   baudRateOverride,250000
;   overridePrinterModels,1
;   printerModelsOverride
;   startingGcode,G28 W ; home all without mesh bed level,G80 ; mesh bed leveling,G1 Y-3.0 F1000.0 ; go outside print area,G92 E0.0,G1 X60.0 E9.0  F1000.0 ; intro line,G1 X100.0 E12.5  F1000.0 ; intro line,G92 E0.0,M900 K30
;   layerChangeGcode,
;   retractionGcode,
;   toolChangeGcode,
;   endingGcode,M104 S0 ; turn off temperature,M140 S0 ; turn off heatbed,M107 ; turn off fan,G1 X0 Y210; home X axis,M84 ; disable motors
;   exportFileFormat,gcode
;   celebration,0
;   celebrationSong,Random Song
;   postProcessing,{REPLACE "; outer perimeter\n" "; outer perimeter\nM204 P800\n"},{REPLACE "; inner perimeter\n" "; inner perimeter\nM204 P1000\n"},{REPLACE "; solid layer\n" "; solid layer\nM204 P1000\n"},{REPLACE "; infill\n" "; infill\nM204 P3500\n"}
;   defaultSpeed,10000
;   outlineUnderspeed,0.18
;   solidInfillUnderspeed,1
;   supportUnderspeed,0.5
;   rapidXYspeed,10000
;   rapidZspeed,10000
;   minBridgingArea,50
;   bridgingExtraInflation,1
;   bridgingExtrusionMultiplier,0.8
;   bridgingSpeedMultiplier,1.2
;   useFixedBridgingAngle,0
;   fixedBridgingAngle,0
;   applyBridgingToPerimeters,0
;   filamentDiameters,1.75|1.75|1.75|1.75|1.75|1.75
;   filamentPricesPerKg,600|215|215|215|215|215
;   filamentDensities,1.25|1.25|1.25|1.25|1.25|1.25
;   useMinPrintHeight,0
;   minPrintHeight,0
;   useMaxPrintHeight,0
;   maxPrintHeight,0
;   useDiaphragm,0
;   diaphragmLayerInterval,20
;   robustSlicing,1
;   mergeAllIntoSolid,0
;   onlyRetractWhenCrossingOutline,1
;   retractBetweenLayers,1
;   useRetractionMinTravel,1
;   retractionMinTravel,3
;   retractWhileWiping,1
;   onlyWipeOutlines,1
;   avoidCrossingOutline,1
;   maxMovementDetourFactor,5
;   toolChangeRetractionDistance,12
;   toolChangeExtraRestartDistance,-0.5
;   toolChangeRetractionSpeed,600
;   externalThinWallType,0
;   internalThinWallType,2
;   thinWallAllowedOverlapPercentage,15
;   singleExtrusionMinLength,1
;   singleExtrusionMinPrintingWidthPercentage,50
;   singleExtrusionMaxPrintingWidthPercentage,200
;   singleExtrusionEndpointExtension,0.2
;   horizontalSizeCompensation,0
G90
M83
M106 S255
G4 P500
M106 S0
M140 S60
M190 S60
M104 S215 T0
M109 S215 T0
G28 W ; home all without mesh bed level
G80 ; mesh bed leveling
G1 Y-3.0 F1000.0 ; go outside print area
G92 E0.0
G1 X60.0 E9.0  F1000.0 ; intro line
G1 X100.0 E12.5  F1000.0 ; intro line
G92 E0.0
M900 K30
G1 E-0.8000 F2100
G1 Z0.750 F10000
; process Process1
; layer 1, Z = 0.150
T0
; tool H0.200 W0.428
; skirt
G1 X72.063 Y68.181 F10000
G1 Z0.150 F10000
G1 E0.8000 F630
G1 X72.083 Y68.164 E0.0010 F2000
G1 X72.535 Y67.813 E0.0203
G1 X72.552 Y67.801 E0.0007
G1 X72.669 Y67.720 E0.0050
G1 X72.686 Y67.709 E0.0007
G1 X73.164 Y67.424 E0.0198
G1 X73.181 Y67.415 E0.0007
G1 X73.299 Y67.353 E0.0047
G1 X73.316 Y67.344 E0.0007
G1 X73.829 Y67.113 E0.0200
G1 X73.845 Y67.106 E0.0006
G1 X73.959 Y67.061 E0.0044
G1 X73.976 Y67.055 E0.0006
G1 X74.519 Y66.876 E0.0203
G1 X74.534 Y66.872 E0.0006
G1 X74.640 Y66.842 E0.0039
G1 X74.655 Y66.838 E0.0006
G1 X75.215 Y66.710 E0.0204
G1 X75.229 Y66.707 E0.0005
G1 X75.324 Y66.689 E0.0035
G1 X75.338 Y66.687 E0.0005
G1 X75.944 Y66.601 E0.0217
G1 X75.959 Y66.599 E0.0006
G1 X76.066 Y66.588 E0.0038
G1 X76.082 Y66.587 E0.0006
G1 X76.989 Y66.542 E0.0323
G1 X76.998 Y66.542 E0.0003
G1 X77.056 Y66.540 E0.0021
G1 X77.064 Y66.540 E0.0003
G1 X89.123 Y66.540 E0.4287
G1 X89.129 Y66.540 E0.0002
G1 X89.165 Y66.541 E0.0013
G1 X89.171 Y66.541 E0.0002
G1 X89.789 Y66.560 E0.0220
G1 X89.804 Y66.561 E0.0005
G1 X89.907 Y66.569 E0.0037
G1 X89.922 Y66.570 E0.0005
G1 X90.829 Y66.679 E0.0325
G1 X90.850 Y66.683 E0.0008
G1 X90.997 Y66.710 E0.0053
G1 X91.018 Y66.714 E0.0008
G1 X91.864 Y66.928 E0.0310
G1 X91.889 Y66.935 E0.0009
G1 X92.055 Y66.991 E0.0062
G1 X92.078 Y66.999 E0.0009
G1 X92.858 Y67.327 E0.0301
G1 X92.884 Y67.339 E0.0010
G1 X93.062 Y67.432 E0.0071
G1 X93.087 Y67.446 E0.0010
G1 X93.772 Y67.884 E0.0289
G1 X93.794 Y67.899 E0.0009
G1 X93.938 Y68.007 E0.0064
G1 X93.958 Y68.024 E0.0009
G1 X94.385 Y68.401 E0.0203
G1 X94.401 Y68.415 E0.0008
G1 X94.505 Y68.519 E0.0052
G1 X94.519 Y68.535 E0.0008
G1 X94.885 Y68.949 E0.0196
G1 X94.898 Y68.965 E0.0007
G1 X94.987 Y69.079 E0.0051
G1 X94.999 Y69.096 E0.0007
G1 X95.311 Y69.554 E0.0197
G1 X95.322 Y69.571 E0.0007
G1 X95.392 Y69.689 E0.0049
G1 X95.402 Y69.706 E0.0007
G1 X95.656 Y70.193 E0.0195
G1 X95.664 Y70.209 E0.0007
G1 X95.717 Y70.325 E0.0045
G1 X95.724 Y70.342 E0.0007
G1 X95.933 Y70.878 E0.0205
G1 X95.939 Y70.894 E0.0006
G1 X95.977 Y71.007 E0.0042
G1 X95.982 Y71.023 E0.0006
G1 X96.136 Y71.581 E0.0206
G1 X96.140 Y71.595 E0.0005
G1 X96.163 Y71.697 E0.0037
G1 X96.167 Y71.712 E0.0005
G1 X96.172 Y71.740 E0.0010
G1 X120.415 Y71.740 E0.8618
G1 X120.588 Y71.056 E0.0251
G1 X120.595 Y71.031 E0.0009
G1 X120.651 Y70.865 E0.0062
G1 X120.659 Y70.842 E0.0009
G1 X120.986 Y70.062 E0.0300
G1 X120.999 Y70.036 E0.0010
G1 X121.091 Y69.859 E0.0071
G1 X121.106 Y69.835 E0.0010
G1 X121.548 Y69.141 E0.0292
G1 X121.566 Y69.116 E0.0011
G1 X121.698 Y68.945 E0.0077
G1 X121.718 Y68.921 E0.0011
G1 X122.277 Y68.325 E0.0291
G1 X122.296 Y68.306 E0.0010
G1 X122.433 Y68.181 E0.0066
G1 X122.453 Y68.164 E0.0010
G1 X122.905 Y67.813 E0.0203
G1 X122.922 Y67.801 E0.0007
G1 X123.039 Y67.720 E0.0050
G1 X123.056 Y67.709 E0.0007
G1 X123.534 Y67.424 E0.0198
G1 X123.551 Y67.415 E0.0007
G1 X123.669 Y67.353 E0.0048
G1 X123.686 Y67.344 E0.0007
G1 X124.199 Y67.113 E0.0200
G1 X124.215 Y67.106 E0.0006
G1 X124.330 Y67.061 E0.0044
G1 X124.346 Y67.055 E0.0006
G1 X124.889 Y66.876 E0.0203
G1 X124.904 Y66.872 E0.0006
G1 X125.010 Y66.842 E0.0039
G1 X125.025 Y66.838 E0.0006
G1 X125.585 Y66.710 E0.0204
G1 X125.599 Y66.707 E0.0005
G1 X125.694 Y66.689 E0.0035
G1 X125.708 Y66.687 E0.0005
G1 X126.314 Y66.601 E0.0217
G1 X126.329 Y66.599 E0.0006
G1 X126.436 Y66.588 E0.0038
G1 X126.452 Y66.587 E0.0006
G1 X127.359 Y66.542 E0.0323
G1 X127.368 Y66.542 E0.0003
G1 X127.426 Y66.540 E0.0021
G1 X127.434 Y66.540 E0.0003
G1 X139.493 Y66.540 E0.4287
G1 X139.499 Y66.540 E0.0002
G1 X139.535 Y66.541 E0.0013
G1 X139.541 Y66.541 E0.0002
G1 X140.159 Y66.560 E0.0220
G1 X140.174 Y66.561 E0.0005
G1 X140.277 Y66.569 E0.0037
G1 X140.292 Y66.570 E0.0005
G1 X141.199 Y66.679 E0.0325
G1 X141.220 Y66.683 E0.0008
G1 X141.367 Y66.710 E0.0053
G1 X141.388 Y66.714 E0.0008
G1 X142.234 Y66.928 E0.0310
G1 X142.259 Y66.935 E0.0009
G1 X142.425 Y66.991 E0.0062
G1 X142.448 Y66.999 E0.0009
G1 X143.228 Y67.327 E0.0301
G1 X143.255 Y67.339 E0.0010
G1 X143.432 Y67.432 E0.0071
G1 X143.457 Y67.446 E0.0010
G1 X144.142 Y67.884 E0.0289
G1 X144.164 Y67.899 E0.0009
G1 X144.308 Y68.007 E0.0064
G1 X144.328 Y68.024 E0.0009
G1 X144.755 Y68.401 E0.0203
G1 X144.771 Y68.415 E0.0008
G1 X144.875 Y68.519 E0.0052
G1 X144.889 Y68.535 E0.0008
G1 X145.255 Y68.949 E0.0196
G1 X145.268 Y68.965 E0.0007
G1 X145.357 Y69.079 E0.0051
G1 X145.369 Y69.096 E0.0007
G1 X145.681 Y69.554 E0.0197
G1 X145.692 Y69.571 E0.0007
G1 X145.762 Y69.689 E0.0049
G1 X145.772 Y69.706 E0.0007
G1 X146.026 Y70.193 E0.0195
G1 X146.034 Y70.209 E0.0007
G1 X146.087 Y70.325 E0.0045
G1 X146.094 Y70.342 E0.0007
G1 X146.303 Y70.878 E0.0205
G1 X146.309 Y70.894 E0.0006
G1 X146.347 Y71.007 E0.0042
G1 X146.352 Y71.023 E0.0006
G1 X146.506 Y71.581 E0.0206
G1 X146.510 Y71.595 E0.0005
G1 X146.533 Y71.697 E0.0037
G1 X146.537 Y71.712 E0.0005
G1 X146.542 Y71.740 E0.0010
G1 X173.558 Y71.740 E0.9603
G1 X173.806 Y71.843 E0.0095
G1 X175.167 Y73.204 E0.0684
G1 X175.270 Y73.452 E0.0095
G1 X175.270 Y84.807 E0.4036
G1 X175.417 Y84.954 E0.0074
G1 X175.520 Y85.202 E0.0095
G1 X175.520 Y88.140 E0.1044
G1 X178.458 Y88.140 E0.1044
G1 X178.706 Y88.243 E0.0095
G1 X180.067 Y89.604 E0.0684
G1 X180.170 Y89.852 E0.0095
G1 X180.170 Y120.148 E1.0769
G1 X180.067 Y120.396 E0.0095
G1 X178.706 Y121.757 E0.0684
G1 X178.458 Y121.860 E0.0095
G1 X175.520 Y121.860 E0.1044
G1 X175.520 Y124.798 E0.1044
G1 X175.417 Y125.046 E0.0095
G1 X175.270 Y125.193 E0.0074
G1 X175.270 Y136.548 E0.4036
G1 X175.167 Y136.796 E0.0095
G1 X173.806 Y138.157 E0.0684
G1 X173.558 Y138.260 E0.0095
G1 X146.535 Y138.260 E0.9606
G1 X146.362 Y138.944 E0.0251
G1 X146.355 Y138.968 E0.0009
G1 X146.299 Y139.135 E0.0062
G1 X146.291 Y139.158 E0.0009
G1 X145.963 Y139.938 E0.0301
G1 X145.951 Y139.965 E0.0010
G1 X145.858 Y140.142 E0.0071
G1 X145.844 Y140.167 E0.0010
G1 X145.406 Y140.852 E0.0289
G1 X145.391 Y140.874 E0.0009
G1 X145.283 Y141.018 E0.0064
G1 X145.266 Y141.038 E0.0009
G1 X144.889 Y141.465 E0.0203
G1 X144.875 Y141.481 E0.0008
G1 X144.771 Y141.585 E0.0052
G1 X144.755 Y141.599 E0.0008
G1 X144.341 Y141.964 E0.0196
G1 X144.325 Y141.978 E0.0007
G1 X144.211 Y142.067 E0.0051
G1 X144.194 Y142.079 E0.0007
G1 X143.736 Y142.391 E0.0197
G1 X143.719 Y142.402 E0.0007
G1 X143.600 Y142.473 E0.0049
G1 X143.583 Y142.483 E0.0007
G1 X143.088 Y142.741 E0.0199
G1 X143.071 Y142.749 E0.0007
G1 X142.954 Y142.802 E0.0046
G1 X142.937 Y142.809 E0.0007
G1 X142.409 Y143.014 E0.0201
G1 X142.393 Y143.020 E0.0006
G1 X142.282 Y143.057 E0.0042
G1 X142.266 Y143.062 E0.0006
G1 X141.709 Y143.216 E0.0205
G1 X141.694 Y143.220 E0.0005
G1 X141.593 Y143.243 E0.0037
G1 X141.578 Y143.246 E0.0005
G1 X140.984 Y143.355 E0.0215
G1 X140.967 Y143.358 E0.0006
G1 X140.854 Y143.373 E0.0041
G1 X140.838 Y143.375 E0.0006
G1 X139.933 Y143.450 E0.0323
G1 X139.919 Y143.451 E0.0005
G1 X139.820 Y143.455 E0.0035
G1 X139.806 Y143.456 E0.0005
G1 X126.843 Y143.442 E0.4608
G1 X126.822 Y143.442 E0.0007
G1 X126.683 Y143.433 E0.0050
G1 X126.663 Y143.431 E0.0007
G1 X125.749 Y143.320 E0.0327
G1 X125.728 Y143.317 E0.0008
G1 X125.582 Y143.290 E0.0053
G1 X125.561 Y143.285 E0.0008
G1 X124.716 Y143.072 E0.0310
G1 X124.691 Y143.065 E0.0009
G1 X124.525 Y143.009 E0.0062
G1 X124.502 Y143.000 E0.0009
G1 X123.722 Y142.673 E0.0301
G1 X123.695 Y142.661 E0.0010
G1 X123.518 Y142.568 E0.0071
G1 X123.493 Y142.554 E0.0010
G1 X122.808 Y142.116 E0.0289
G1 X122.786 Y142.101 E0.0009
G1 X122.642 Y141.993 E0.0064
G1 X122.622 Y141.976 E0.0009
G1 X122.195 Y141.599 E0.0203
G1 X122.179 Y141.585 E0.0008
G1 X122.075 Y141.481 E0.0052
G1 X122.061 Y141.465 E0.0008
G1 X121.696 Y141.051 E0.0196
G1 X121.682 Y141.035 E0.0007
G1 X121.593 Y140.921 E0.0051
G1 X121.581 Y140.904 E0.0007
G1 X121.269 Y140.446 E0.0197
G1 X121.258 Y140.429 E0.0007
G1 X121.187 Y140.310 E0.0049
G1 X121.177 Y140.293 E0.0007
G1 X120.919 Y139.797 E0.0199
G1 X120.911 Y139.781 E0.0007
G1 X120.858 Y139.664 E0.0046
G1 X120.851 Y139.647 E0.0007
G1 X120.646 Y139.119 E0.0201
G1 X120.640 Y139.103 E0.0006
G1 X120.603 Y138.992 E0.0042
G1 X120.598 Y138.976 E0.0006
G1 X120.444 Y138.419 E0.0205
G1 X120.440 Y138.405 E0.0005
G1 X120.417 Y138.303 E0.0037
G1 X120.413 Y138.288 E0.0005
G1 X120.408 Y138.260 E0.0010
G1 X96.165 Y138.260 E0.8618
G1 X95.992 Y138.944 E0.0251
G1 X95.985 Y138.969 E0.0009
G1 X95.929 Y139.135 E0.0062
G1 X95.921 Y139.158 E0.0009
G1 X95.593 Y139.938 E0.0301
G1 X95.581 Y139.964 E0.0010
G1 X95.488 Y140.142 E0.0071
G1 X95.474 Y140.167 E0.0010
G1 X95.036 Y140.852 E0.0289
G1 X95.021 Y140.874 E0.0009
G1 X94.913 Y141.018 E0.0064
G1 X94.896 Y141.038 E0.0009
G1 X94.519 Y141.465 E0.0203
G1 X94.505 Y141.481 E0.0008
G1 X94.401 Y141.585 E0.0052
G1 X94.385 Y141.599 E0.0008
G1 X93.971 Y141.964 E0.0196
G1 X93.955 Y141.978 E0.0007
G1 X93.841 Y142.067 E0.0051
G1 X93.824 Y142.079 E0.0007
G1 X93.366 Y142.391 E0.0197
G1 X93.349 Y142.402 E0.0007
G1 X93.230 Y142.473 E0.0049
G1 X93.213 Y142.483 E0.0007
G1 X92.718 Y142.741 E0.0199
G1 X92.701 Y142.749 E0.0007
G1 X92.584 Y142.802 E0.0046
G1 X92.567 Y142.809 E0.0007
G1 X92.039 Y143.014 E0.0201
G1 X92.023 Y143.020 E0.0006
G1 X91.912 Y143.057 E0.0042
G1 X91.896 Y143.062 E0.0006
G1 X91.339 Y143.216 E0.0205
G1 X91.324 Y143.220 E0.0005
G1 X91.223 Y143.243 E0.0037
G1 X91.208 Y143.246 E0.0005
G1 X90.614 Y143.355 E0.0215
G1 X90.597 Y143.358 E0.0006
G1 X90.484 Y143.373 E0.0041
G1 X90.468 Y143.375 E0.0006
G1 X89.563 Y143.450 E0.0323
G1 X89.549 Y143.451 E0.0005
G1 X89.450 Y143.455 E0.0035
G1 X89.436 Y143.456 E0.0005
G1 X76.473 Y143.442 E0.4608
G1 X76.452 Y143.442 E0.0007
G1 X76.313 Y143.433 E0.0050
G1 X76.293 Y143.431 E0.0007
G1 X75.379 Y143.320 E0.0327
G1 X75.358 Y143.317 E0.0008
G1 X75.212 Y143.290 E0.0053
G1 X75.191 Y143.285 E0.0008
G1 X74.346 Y143.072 E0.0310
