; G-Code generated by Simplify3D(R) Version 4.0.0
; Mar 28, 2018 at 2:45:08 PM
; Settings Summary
;   processName,mk2
;   applyToModels,bottom_plates
;   profileName,Original Prusa i3 MK2 RC4 (modified)
;   profileVersion,2018-03-09 10:42:50
;   baseProfile,Prusa Mendel (modified)
;   printMaterial,PLA
;   printQuality,FAST 0.3mm
;   printExtruders,
;   extruderName,Primary Extruder
;   extruderToolheadNumber,0
;   extruderDiameter,0.4
;   extruderAutoWidth,0
;   extruderWidth,0.45
;   extrusionMultiplier,1
;   extruderUseRetract,1
;   extruderRetractionDistance,0.8
;   extruderExtraRestartDistance,0
;   extruderRetractionZLift,0
;   extruderRetractionSpeed,1800
;   extruderUseCoasting,1
;   extruderCoastingDistance,0.2
;   extruderUseWipe,1
;   extruderWipeDistance,2
;   primaryExtruder,0
;   layerHeight,0.3
;   topSolidLayers,3
;   bottomSolidLayers,3
;   perimeterOutlines,2
;   printPerimetersInsideOut,1
;   startPointOption,2
;   startPointOriginX,0
;   startPointOriginY,0
;   sequentialIslands,0
;   spiralVaseMode,0
;   firstLayerHeightPercentage,66
;   firstLayerWidthPercentage,95
;   firstLayerUnderspeed,0.6
;   useRaft,0
;   raftExtruder,0
;   raftTopLayers,3
;   raftBaseLayers,2
;   raftOffset,3
;   raftSeparationDistance,0.14
;   raftTopInfill,100
;   aboveRaftSpeedMultiplier,0.3
;   useSkirt,1
;   skirtExtruder,0
;   skirtLayers,1
;   skirtOutlines,1
;   skirtOffset,1.8
;   usePrimePillar,0
;   primePillarExtruder,999
;   primePillarWidth,12
;   primePillarLocation,7
;   primePillarSpeedMultiplier,1
;   useOozeShield,0
;   oozeShieldExtruder,999
;   oozeShieldOffset,2
;   oozeShieldOutlines,1
;   oozeShieldSidewallShape,1
;   oozeShieldSidewallAngle,30
;   oozeShieldSpeedMultiplier,1
;   infillExtruder,0
;   internalInfillPattern,Grid
;   externalInfillPattern,Rectilinear
;   infillPercentage,20
;   outlineOverlapPercentage,21
;   infillExtrusionWidthPercentage,100
;   minInfillLength,2
;   infillLayerInterval,1
;   internalInfillAngles,45,-45
;   overlapInternalInfillAngles,1
;   externalInfillAngles,45,-45
;   generateSupport,0
;   supportExtruder,0
;   supportInfillPercentage,30
;   supportExtraInflation,1.4
;   supportBaseLayers,0
;   denseSupportExtruder,0
;   denseSupportLayers,0
;   denseSupportInfillPercentage,70
;   supportLayerInterval,1
;   supportHorizontalPartOffset,0.2
;   supportUpperSeparationLayers,1
;   supportLowerSeparationLayers,1
;   supportType,0
;   supportGridSpacing,4
;   maxOverhangAngle,45
;   supportAngles,0
;   temperatureName,Primary Extruder,Heated Bed
;   temperatureNumber,0,1
;   temperatureSetpointCount,2,1
;   temperatureSetpointLayers,1,2,1
;   temperatureSetpointTemperatures,215,200,55
;   temperatureStabilizeAtStartup,1,1
;   temperatureHeatedBed,0,1
;   temperatureRelayBetweenLayers,0,0
;   temperatureRelayBetweenLoops,0,0
;   fanLayers,1,2
;   fanSpeeds,0,100
;   blipFanToFullPower,1
;   adjustSpeedForCooling,1
;   minSpeedLayerTime,15
;   minCoolingSpeedSlowdown,5
;   increaseFanForCooling,0
;   minFanLayerTime,45
;   maxCoolingFanSpeed,100
;   increaseFanForBridging,1
;   bridgingFanSpeed,100
;   use5D,1
;   relativeEdistances,1
;   allowEaxisZeroing,1
;   independentExtruderAxes,0
;   includeM10123,0
;   stickySupport,1
;   applyToolheadOffsets,0
;   gcodeXoffset,0
;   gcodeYoffset,0
;   gcodeZoffset,0
;   overrideMachineDefinition,1
;   machineTypeOverride,0
;   strokeXoverride,250
;   strokeYoverride,210
;   strokeZoverride,200
;   originOffsetXoverride,0
;   originOffsetYoverride,0
;   originOffsetZoverride,0
;   homeXdirOverride,-1
;   homeYdirOverride,-1
;   homeZdirOverride,-1
;   flipXoverride,1
;   flipYoverride,-1
;   flipZoverride,1
;   toolheadOffsets,0,0|0,0|0,0|0,0|0,0|0,0
;   overrideFirmwareConfiguration,0
;   firmwareTypeOverride,RepRap (Marlin/Repetier/Sprinter)
;   GPXconfigOverride,r2
;   baudRateOverride,250000
;   overridePrinterModels,1
;   printerModelsOverride
;   startingGcode,M115 U3.0.7 ; tell the printer latest firmware varsion available,G28 W ; home all without mesh bed level,G80 ; mesh bed leveling,G1 Y-3.0 F1000.0 ; go outside printing area,G1 X60.0 E9.0  F1000.0 ; intro line,G1 X100.0 E12.5  F1000.0 ; intro line
;   layerChangeGcode,
;   retractionGcode,
;   toolChangeGcode,
;   endingGcode,M104 S0 ; turn off temperature,M140 S0 ; turn off heatbed,M107 ; turn off fan,G1 X0 Y200; home X axis,M84 ; disable motors
;   exportFileFormat,gcode
;   celebration,0
;   celebrationSong,Random Song
;   postProcessing,{REPLACE "; outer perimeter\n" "; outer perimeter\nM204 S600\n"},{REPLACE "; inner perimeter\n" "; inner perimeter\nM204 S1200\n"},{REPLACE "; solid layer\n" "; solid layer\nM204 S1500\n"},{REPLACE "; infill\n" "; infill\nM204 S2000\n"}
;   defaultSpeed,2400
;   outlineUnderspeed,1
;   solidInfillUnderspeed,0.8
;   supportUnderspeed,0.8
;   rapidXYspeed,4800
;   rapidZspeed,1000
;   minBridgingArea,50
;   bridgingExtraInflation,1
;   bridgingExtrusionMultiplier,1
;   bridgingSpeedMultiplier,1
;   useFixedBridgingAngle,0
;   fixedBridgingAngle,0
;   applyBridgingToPerimeters,0
;   filamentDiameters,1.75|1.75|1.75|1.75|1.75|1.75
;   filamentPricesPerKg,215|215|215|215|215|215
;   filamentDensities,1.25|1.25|1.25|1.25|1.25|1.25
;   useMinPrintHeight,0
;   minPrintHeight,0
;   useMaxPrintHeight,0
;   maxPrintHeight,0
;   useDiaphragm,0
;   diaphragmLayerInterval,20
;   robustSlicing,1
;   mergeAllIntoSolid,0
;   onlyRetractWhenCrossingOutline,0
;   retractBetweenLayers,1
;   useRetractionMinTravel,1
;   retractionMinTravel,3
;   retractWhileWiping,1
;   onlyWipeOutlines,1
;   avoidCrossingOutline,0
;   maxMovementDetourFactor,3
;   toolChangeRetractionDistance,12
;   toolChangeExtraRestartDistance,-0.5
;   toolChangeRetractionSpeed,600
;   externalThinWallType,0
;   internalThinWallType,2
;   thinWallAllowedOverlapPercentage,25
;   singleExtrusionMinLength,1
;   singleExtrusionMinPrintingWidthPercentage,50
;   singleExtrusionMaxPrintingWidthPercentage,200
;   singleExtrusionEndpointExtension,0.2
;   horizontalSizeCompensation,0
G90
M83
M106 S255
G4 P500
M106 S0
M140 S55
M190 S55
M104 S215 T0
M109 S215 T0
M115 U3.0.7 ; tell the printer latest firmware varsion available
G28 W ; home all without mesh bed level
G80 ; mesh bed leveling
G1 Y-3.0 F1000.0 ; go outside printing area
G1 X60.0 E9.0  F1000.0 ; intro line
G1 X100.0 E12.5  F1000.0 ; intro line
G1 E-0.8000 F1800
G1 Z0.198 F1000
; process mk2
; layer 1, Z = 0.198
T0
; tool H0.300 W0.428
; skirt
G1 X71.864 Y69.319 F4800
G1 E0.8000 F540
G1 X72.571 Y68.607 E0.0535 F1440
G1 X72.579 Y68.599 E0.0006
G1 X72.717 Y68.485 E0.0095
G1 X72.725 Y68.478 E0.0006
G1 X73.185 Y68.162 E0.0298
G1 X73.191 Y68.159 E0.0004
G1 X73.288 Y68.100 E0.0060
G1 X73.294 Y68.097 E0.0004
G1 X73.778 Y67.843 E0.0292
G1 X73.785 Y67.839 E0.0004
G1 X73.904 Y67.787 E0.0069
G1 X73.911 Y67.784 E0.0004
G1 X74.659 Y67.513 E0.0424
G1 X74.665 Y67.511 E0.0004
G1 X74.776 Y67.478 E0.0061
G1 X74.782 Y67.477 E0.0004
G1 X75.345 Y67.347 E0.0308
G1 X75.350 Y67.346 E0.0003
G1 X75.429 Y67.331 E0.0043
G1 X75.434 Y67.330 E0.0003
G1 X76.022 Y67.246 E0.0316
G1 X76.027 Y67.245 E0.0003
G1 X76.114 Y67.237 E0.0047
G1 X76.120 Y67.236 E0.0003
G1 X77.012 Y67.192 E0.0476
G1 X77.015 Y67.191 E0.0001
G1 X77.063 Y67.190 E0.0026
G1 X77.066 Y67.190 E0.0002
G1 X89.120 Y67.190 E0.6427
G1 X89.122 Y67.190 E0.0001
G1 X89.152 Y67.190 E0.0016
G1 X89.153 Y67.191 E0.0001
G1 X89.764 Y67.210 E0.0326
G1 X89.770 Y67.210 E0.0003
G1 X89.872 Y67.219 E0.0054
G1 X89.878 Y67.219 E0.0003
G1 X91.013 Y67.377 E0.0611
G1 X91.022 Y67.379 E0.0005
G1 X91.166 Y67.410 E0.0079
G1 X91.174 Y67.412 E0.0005
G1 X91.967 Y67.651 E0.0441
G1 X91.974 Y67.653 E0.0004
G1 X92.090 Y67.696 E0.0066
G1 X92.096 Y67.699 E0.0004
G1 X92.599 Y67.924 E0.0294
G1 X92.605 Y67.927 E0.0003
G1 X92.702 Y67.977 E0.0058
G1 X92.707 Y67.980 E0.0003
G1 X93.177 Y68.259 E0.0291
G1 X93.184 Y68.264 E0.0005
G1 X93.304 Y68.347 E0.0078
G1 X93.310 Y68.352 E0.0005
G1 X93.897 Y68.834 E0.0405
G1 X93.904 Y68.840 E0.0005
G1 X94.012 Y68.945 E0.0080
G1 X94.018 Y68.951 E0.0005
G1 X94.377 Y69.355 E0.0288
G1 X94.381 Y69.361 E0.0004
G1 X94.454 Y69.454 E0.0063
G1 X94.459 Y69.460 E0.0004
G1 X94.758 Y69.895 E0.0282
G1 X94.761 Y69.901 E0.0004
G1 X94.820 Y69.998 E0.0060
G1 X94.823 Y70.004 E0.0004
G1 X95.071 Y70.477 E0.0285
G1 X95.074 Y70.482 E0.0003
G1 X95.118 Y70.578 E0.0056
G1 X95.120 Y70.584 E0.0003
G1 X95.319 Y71.090 E0.0290
G1 X95.321 Y71.095 E0.0003
G1 X95.351 Y71.186 E0.0051
G1 X95.353 Y71.192 E0.0003
G1 X95.503 Y71.728 E0.0297
G1 X95.504 Y71.733 E0.0003
G1 X95.524 Y71.817 E0.0046
G1 X95.525 Y71.822 E0.0003
G1 X95.630 Y72.390 E0.0308
G1 X120.958 Y72.390 E1.3505
G1 X120.981 Y72.198 E0.0103
G1 X120.982 Y72.191 E0.0004
G1 X121.003 Y72.072 E0.0064
G1 X121.005 Y72.065 E0.0004
G1 X121.209 Y71.247 E0.0450
G1 X121.212 Y71.239 E0.0004
G1 X121.257 Y71.103 E0.0076
G1 X121.259 Y71.095 E0.0004
G1 X121.571 Y70.346 E0.0433
G1 X121.576 Y70.337 E0.0005
G1 X121.651 Y70.192 E0.0087
G1 X121.656 Y70.183 E0.0005
G1 X122.081 Y69.513 E0.0423
G1 X122.087 Y69.504 E0.0006
G1 X122.195 Y69.364 E0.0095
G1 X122.202 Y69.356 E0.0006
G1 X122.749 Y68.770 E0.0428
G1 X122.758 Y68.761 E0.0007
G1 X122.916 Y68.625 E0.0111
G1 X122.926 Y68.617 E0.0007
G1 X123.772 Y68.036 E0.0547
G1 X123.782 Y68.030 E0.0006
G1 X123.951 Y67.938 E0.0103
G1 X123.961 Y67.933 E0.0006
G1 X124.711 Y67.615 E0.0434
G1 X124.718 Y67.613 E0.0004
G1 X124.833 Y67.573 E0.0065
G1 X124.839 Y67.571 E0.0004
G1 X125.398 Y67.414 E0.0309
G1 X125.404 Y67.413 E0.0003
G1 X125.507 Y67.390 E0.0056
G1 X125.513 Y67.389 E0.0003
G1 X126.361 Y67.250 E0.0458
G1 X126.367 Y67.249 E0.0003
G1 X126.474 Y67.237 E0.0057
G1 X126.480 Y67.237 E0.0003
G1 X127.382 Y67.192 E0.0482
G1 X127.385 Y67.191 E0.0001
G1 X127.433 Y67.190 E0.0026
G1 X127.436 Y67.190 E0.0002
G1 X139.490 Y67.190 E0.6427
G1 X139.492 Y67.190 E0.0001
G1 X139.522 Y67.190 E0.0016
G1 X139.523 Y67.191 E0.0001
G1 X140.134 Y67.210 E0.0326
G1 X140.140 Y67.210 E0.0003
G1 X140.242 Y67.219 E0.0054
G1 X140.248 Y67.219 E0.0003
G1 X141.383 Y67.377 E0.0611
G1 X141.392 Y67.379 E0.0005
G1 X141.536 Y67.410 E0.0079
G1 X141.544 Y67.412 E0.0005
G1 X142.350 Y67.654 E0.0448
G1 X142.358 Y67.657 E0.0005
G1 X142.498 Y67.712 E0.0080
G1 X142.506 Y67.715 E0.0005
G1 X143.218 Y68.058 E0.0421
G1 X143.225 Y68.062 E0.0004
G1 X143.346 Y68.132 E0.0075
G1 X143.353 Y68.136 E0.0004
G1 X143.802 Y68.440 E0.0289
G1 X143.808 Y68.444 E0.0004
G1 X143.902 Y68.517 E0.0063
G1 X143.907 Y68.521 E0.0004
G1 X144.303 Y68.867 E0.0280
G1 X144.308 Y68.872 E0.0004
G1 X144.393 Y68.957 E0.0064
G1 X144.398 Y68.962 E0.0004
G1 X144.747 Y69.355 E0.0280
G1 X144.751 Y69.361 E0.0004
G1 X144.824 Y69.454 E0.0063
G1 X144.829 Y69.460 E0.0004
G1 X145.128 Y69.895 E0.0282
G1 X145.131 Y69.901 E0.0004
G1 X145.190 Y69.998 E0.0060
G1 X145.193 Y70.004 E0.0004
G1 X145.441 Y70.477 E0.0285
G1 X145.444 Y70.482 E0.0003
G1 X145.488 Y70.578 E0.0056
G1 X145.490 Y70.584 E0.0003
G1 X145.689 Y71.090 E0.0290
G1 X145.691 Y71.095 E0.0003
G1 X145.721 Y71.186 E0.0051
G1 X145.723 Y71.192 E0.0003
G1 X145.873 Y71.728 E0.0297
G1 X145.874 Y71.733 E0.0003
G1 X145.894 Y71.817 E0.0046
G1 X145.895 Y71.822 E0.0003
G1 X146.000 Y72.390 E0.0308
G1 X173.385 Y72.390 E1.4602
G1 X173.468 Y72.424 E0.0048
G1 X174.586 Y73.542 E0.0843
G1 X174.620 Y73.625 E0.0048
G1 X174.620 Y85.076 E0.6106
G1 X174.836 Y85.292 E0.0163
G1 X174.870 Y85.375 E0.0048
G1 X174.870 Y88.790 E0.1821
G1 X178.285 Y88.790 E0.1821
G1 X178.368 Y88.824 E0.0048
G1 X179.486 Y89.942 E0.0843
G1 X179.520 Y90.025 E0.0048
G1 X179.520 Y119.975 E1.5970
G1 X179.486 Y120.058 E0.0048
G1 X178.368 Y121.176 E0.0843
G1 X178.285 Y121.210 E0.0048
G1 X174.870 Y121.210 E0.1821
G1 X174.870 Y124.625 E0.1821
G1 X174.836 Y124.708 E0.0048
G1 X174.620 Y124.924 E0.0163
G1 X174.620 Y136.375 E0.6106
G1 X174.586 Y136.458 E0.0048
G1 X173.468 Y137.576 E0.0843
G1 X173.385 Y137.610 E0.0048
G1 X145.992 Y137.610 E1.4606
G1 X145.970 Y137.802 E0.0103
G1 X145.968 Y137.809 E0.0004
G1 X145.947 Y137.928 E0.0064
G1 X145.945 Y137.935 E0.0004
G1 X145.741 Y138.753 E0.0450
G1 X145.738 Y138.761 E0.0004
G1 X145.693 Y138.897 E0.0076
G1 X145.690 Y138.905 E0.0004
G1 X145.379 Y139.654 E0.0433
G1 X145.374 Y139.663 E0.0005
G1 X145.299 Y139.808 E0.0087
G1 X145.294 Y139.816 E0.0005
G1 X144.877 Y140.474 E0.0415
G1 X144.872 Y140.481 E0.0005
G1 X144.784 Y140.599 E0.0079
G1 X144.778 Y140.606 E0.0005
G1 X144.423 Y141.013 E0.0288
G1 X144.418 Y141.018 E0.0004
G1 X144.333 Y141.103 E0.0064
G1 X144.328 Y141.108 E0.0004
G1 X143.935 Y141.457 E0.0280
G1 X143.929 Y141.461 E0.0004
G1 X143.836 Y141.534 E0.0063
G1 X143.830 Y141.539 E0.0004
G1 X143.395 Y141.838 E0.0282
G1 X143.389 Y141.841 E0.0004
G1 X143.292 Y141.900 E0.0060
G1 X143.286 Y141.903 E0.0004
G1 X142.813 Y142.151 E0.0285
G1 X142.808 Y142.154 E0.0003
G1 X142.712 Y142.198 E0.0056
G1 X142.706 Y142.200 E0.0003
G1 X142.200 Y142.399 E0.0290
G1 X142.195 Y142.401 E0.0003
G1 X142.104 Y142.431 E0.0051
G1 X142.098 Y142.433 E0.0003
G1 X141.562 Y142.583 E0.0297
G1 X141.557 Y142.584 E0.0003
G1 X141.473 Y142.604 E0.0046
G1 X141.468 Y142.605 E0.0003
G1 X140.894 Y142.711 E0.0311
G1 X140.889 Y142.712 E0.0003
G1 X140.796 Y142.725 E0.0050
G1 X140.791 Y142.725 E0.0003
G1 X139.906 Y142.801 E0.0474
G1 X139.901 Y142.801 E0.0003
G1 X139.818 Y142.805 E0.0044
G1 X139.814 Y142.805 E0.0003
G1 X126.872 Y142.793 E0.6901
G1 X126.865 Y142.793 E0.0004
G1 X126.753 Y142.786 E0.0060
G1 X126.746 Y142.785 E0.0004
G1 X125.858 Y142.679 E0.0477
G1 X125.851 Y142.678 E0.0004
G1 X125.732 Y142.657 E0.0064
G1 X125.725 Y142.655 E0.0004
G1 X124.907 Y142.451 E0.0450
G1 X124.899 Y142.448 E0.0004
G1 X124.763 Y142.403 E0.0076
G1 X124.755 Y142.401 E0.0004
G1 X124.006 Y142.089 E0.0433
G1 X123.997 Y142.084 E0.0005
G1 X123.852 Y142.009 E0.0087
G1 X123.843 Y142.004 E0.0005
G1 X123.186 Y141.587 E0.0415
G1 X123.179 Y141.582 E0.0005
G1 X123.061 Y141.494 E0.0079
G1 X123.054 Y141.488 E0.0005
G1 X122.647 Y141.133 E0.0288
G1 X122.642 Y141.128 E0.0004
G1 X122.557 Y141.043 E0.0064
G1 X122.552 Y141.038 E0.0004
G1 X122.203 Y140.645 E0.0280
G1 X122.199 Y140.639 E0.0004
G1 X122.126 Y140.546 E0.0063
G1 X122.121 Y140.540 E0.0004
G1 X121.822 Y140.105 E0.0282
G1 X121.819 Y140.099 E0.0004
G1 X121.760 Y140.002 E0.0060
G1 X121.757 Y139.996 E0.0004
G1 X121.508 Y139.523 E0.0285
G1 X121.506 Y139.518 E0.0003
G1 X121.462 Y139.422 E0.0056
G1 X121.460 Y139.416 E0.0003
G1 X121.261 Y138.910 E0.0290
G1 X121.259 Y138.905 E0.0003
G1 X121.229 Y138.814 E0.0051
G1 X121.227 Y138.808 E0.0003
G1 X121.077 Y138.272 E0.0297
G1 X121.076 Y138.267 E0.0003
G1 X121.056 Y138.183 E0.0046
G1 X121.055 Y138.178 E0.0003
G1 X120.950 Y137.613 E0.0307
G1 X120.950 Y137.610 E0.0002
G1 X95.622 Y137.610 E1.3505
G1 X95.600 Y137.802 E0.0103
G1 X95.598 Y137.809 E0.0004
G1 X95.577 Y137.928 E0.0064
G1 X95.575 Y137.935 E0.0004
G1 X95.371 Y138.753 E0.0450
G1 X95.368 Y138.761 E0.0004
G1 X95.323 Y138.897 E0.0076
G1 X95.321 Y138.905 E0.0004
G1 X95.009 Y139.654 E0.0433
G1 X95.004 Y139.663 E0.0005
G1 X94.929 Y139.808 E0.0087
G1 X94.924 Y139.816 E0.0005
G1 X94.507 Y140.474 E0.0415
G1 X94.502 Y140.481 E0.0005
G1 X94.414 Y140.599 E0.0079
G1 X94.408 Y140.606 E0.0005
G1 X94.053 Y141.013 E0.0288
G1 X94.048 Y141.018 E0.0004
G1 X93.963 Y141.103 E0.0064
G1 X93.958 Y141.108 E0.0004
G1 X93.565 Y141.457 E0.0280
G1 X93.559 Y141.461 E0.0004
G1 X93.466 Y141.534 E0.0063
G1 X93.460 Y141.539 E0.0004
G1 X93.025 Y141.838 E0.0282
G1 X93.019 Y141.841 E0.0004
G1 X92.922 Y141.900 E0.0060
G1 X92.916 Y141.903 E0.0004
G1 X92.443 Y142.151 E0.0285
G1 X92.438 Y142.154 E0.0003
G1 X92.342 Y142.198 E0.0056
G1 X92.336 Y142.200 E0.0003
G1 X91.830 Y142.399 E0.0290
G1 X91.825 Y142.401 E0.0003
G1 X91.734 Y142.431 E0.0051
G1 X91.728 Y142.433 E0.0003
G1 X91.192 Y142.583 E0.0297
G1 X91.187 Y142.584 E0.0003
G1 X91.103 Y142.604 E0.0046
G1 X91.098 Y142.605 E0.0003
G1 X90.524 Y142.711 E0.0311
G1 X90.519 Y142.712 E0.0003
G1 X90.426 Y142.725 E0.0050
G1 X90.420 Y142.725 E0.0003
G1 X89.536 Y142.801 E0.0473
G1 X89.531 Y142.801 E0.0003
G1 X89.448 Y142.805 E0.0044
G1 X89.444 Y142.805 E0.0003
G1 X76.502 Y142.793 E0.6901
G1 X76.495 Y142.793 E0.0004
G1 X76.383 Y142.786 E0.0060
