; generated by Slic3r Prusa Edition 1.39.1-prusa3d on 2018-03-31 at 11:24:13

; 

; external perimeters extrusion width = 0.45mm
; perimeters extrusion width = 0.45mm
; infill extrusion width = 0.45mm
; solid infill extrusion width = 0.45mm
; top infill extrusion width = 0.40mm
; first layer extrusion width = 0.42mm

M107
M115 U3.1.1-RC5 ; tell printer latest fw version
M201 X1000 Y1000 Z200 E5000 ; sets maximum accelerations, mm/sec^2
M203 X200 Y200 Z12 E120 ; sets maximum feedrates, mm/sec
M204 S1250 T1250 ; sets acceleration (S) and retract acceleration (T)
M205 X10 Y10 Z0.4 E2.5 ; sets the jerk limits, mm/sec
M205 S0 T0 ; sets the minimum extruding and travel feed rate, mm/sec
M83  ; extruder relative mode
M104 S215 ; set extruder temp
M140 S60 ; set bed temp
M190 S60 ; wait for bed temp
M109 S215 ; wait for extruder temp
G28 W ; home all without mesh bed level
G80 ; mesh bed leveling
G1 Y-3.0 F1000.0 ; go outside print area
G92 E0.0
G1 X60.0 E9.0  F1000.0 ; intro line
G1 X100.0 E12.5  F1000.0 ; intro line
G92 E0.0
M221 S95
M900 K30; Filament gcode
G21 ; set units to millimeters
G90 ; use absolute coordinates
M83 ; use relative distances for extrusion
;BEFORE_LAYER_CHANGE
;0.2


G1 E-0.80000 F2100.00000
G1 Z0.600 F10200.000
;AFTER_LAYER_CHANGE
;0.2
G1 X23.810 Y77.691 F10200.000
G1 Z0.200 F10200.000
G1 E0.80000 F2100.00000
M204 S1000
G1 F1800
G1 X24.670 Y76.854 E0.03764
G1 X25.398 Y76.378 E0.02727
G1 X26.188 Y76.028 E0.02709
G1 X27.030 Y75.807 E0.02727
G1 X27.890 Y75.726 E0.02709
G1 X106.372 Y75.725 E2.46076
G1 X184.880 Y77.118 E2.46195
G1 X185.705 Y77.207 E0.02602
G1 X186.512 Y77.424 E0.02620
G1 X187.276 Y77.764 E0.02620
G1 X187.977 Y78.217 E0.02620
G1 X188.852 Y79.056 E0.03800
G1 X189.514 Y80.065 E0.03782
G1 X189.936 Y81.201 E0.03800
G1 X190.092 Y82.402 E0.03800
G1 X190.092 Y135.596 E1.66783
G1 X190.009 Y136.438 E0.02656
G1 X189.793 Y137.263 E0.02674
G1 X189.452 Y138.039 E0.02656
G1 X188.990 Y138.755 E0.02674
G1 X188.173 Y139.611 E0.03711
G1 X187.193 Y140.265 E0.03693
G1 X186.089 Y140.691 E0.03711
G1 X184.919 Y140.866 E0.03711
G1 X106.401 Y141.879 E2.46205
G1 X27.829 Y141.878 E2.46358
G1 X26.657 Y141.717 E0.03711
G1 X25.542 Y141.302 E0.03729
G1 X24.547 Y140.652 E0.03729
G1 X23.718 Y139.799 E0.03729
G1 X23.248 Y139.081 E0.02691
G1 X22.898 Y138.297 E0.02691
G1 X22.677 Y137.467 E0.02691
G1 X22.590 Y136.608 E0.02709
G1 X22.590 Y81.022 E1.74284
G1 X22.743 Y79.826 E0.03782
G1 X23.157 Y78.699 E0.03764
G1 X23.777 Y77.742 E0.03576
G1 F8160
G1 X24.670 Y76.854 E-0.30784
G1 F8160
G1 X25.398 Y76.378 E-0.21266
G1 F8160
G1 X26.188 Y76.028 E-0.21126
G1 F8160
G1 X26.300 Y75.999 E-0.02824
G1 E-0.04000 F2100.00000
G1 Z0.800 F10200.000
G1 X109.381 Y78.533 F10200.000
G1 Z0.200 F10200.000
G1 E0.80000 F2100.00000
G1 F1800
G1 X185.125 Y78.533 E2.37492
G1 X186.101 Y78.747 E0.03132
G1 X187.000 Y79.224 E0.03192
G1 X188.069 Y80.323 E0.04807
G1 X188.411 Y80.986 E0.02339
G1 X188.675 Y82.030 E0.03376
G1 X188.675 Y135.901 E1.68910
G1 X188.462 Y136.877 E0.03132
G1 X187.984 Y137.776 E0.03192
G1 X186.885 Y138.846 E0.04807
G1 X186.222 Y139.187 E0.02339
G1 X185.178 Y139.452 E0.03376
G1 X108.997 Y139.452 E2.38861
G1 X108.626 Y139.790 E0.01576
G1 X108.056 Y140.122 E0.02065
G1 X106.830 Y140.462 E0.03990
G1 X27.564 Y140.462 E2.48533
G1 X26.739 Y140.303 E0.02635
G1 X25.968 Y139.965 E0.02639
G1 X24.620 Y138.684 E0.05830
G1 X24.272 Y138.008 E0.02383
G1 X24.007 Y136.965 E0.03376
G1 X24.007 Y80.700 E1.76415
G1 X24.166 Y79.875 E0.02635
G1 X24.504 Y79.104 E0.02639
G1 X25.785 Y77.756 E0.05830
G1 X26.460 Y77.408 E0.02383
G1 X27.504 Y77.143 E0.03377
G1 X106.821 Y77.147 E2.48691
G1 X107.705 Y77.340 E0.02838
G1 X108.530 Y77.749 E0.02888
G1 X109.336 Y78.492 E0.03438
G1 X109.231 Y78.910 F10200.000
G1 F1800
G1 X185.104 Y78.910 E2.37895
G1 X185.992 Y79.109 E0.02854
G1 X186.795 Y79.542 E0.02860
G1 X187.748 Y80.522 E0.04287
G1 X188.052 Y81.103 E0.02054
G1 X188.298 Y82.055 E0.03082
G1 X188.298 Y135.880 E1.68767
G1 X188.100 Y136.769 E0.02854
G1 X187.666 Y137.571 E0.02860
G1 X186.686 Y138.525 E0.04287
G1 X186.106 Y138.828 E0.02054
G1 X185.154 Y139.075 E0.03082
G1 X108.847 Y139.075 E2.39253
G1 X108.417 Y139.476 E0.01844
G1 X107.888 Y139.783 E0.01920
G1 X106.804 Y140.085 E0.03525
G1 X27.583 Y140.085 E2.48394
G1 X26.833 Y139.937 E0.02395
G1 X26.151 Y139.634 E0.02340
G1 X24.940 Y138.481 E0.05243
G1 X24.631 Y137.892 E0.02086
G1 X24.384 Y136.940 E0.03083
G1 X24.384 Y80.718 E1.76279
G1 X24.532 Y79.969 E0.02395
G1 X24.835 Y79.287 E0.02340
G1 X25.988 Y78.075 E0.05243
G1 X26.577 Y77.767 E0.02086
G1 X27.529 Y77.520 E0.03083
G1 X106.799 Y77.524 E2.48548
G1 X107.599 Y77.703 E0.02569
G1 X108.336 Y78.073 E0.02585
G1 X109.187 Y78.869 E0.03655
G1 X108.928 Y79.143 F10200.000
G1 F1800
G1 X109.041 Y79.287 E0.00575
G1 X185.084 Y79.287 E2.38426
G1 X185.840 Y79.454 E0.02427
G1 X186.547 Y79.828 E0.02510
G1 X187.429 Y80.724 E0.03941
G1 X187.693 Y81.222 E0.01767
G1 X187.921 Y82.080 E0.02783
G1 X187.921 Y135.860 E1.68625
G1 X187.754 Y136.616 E0.02427
G1 X187.380 Y137.324 E0.02510
G1 X186.484 Y138.205 E0.03941
G1 X185.987 Y138.469 E0.01767
G1 X185.129 Y138.698 E0.02783
G1 X108.696 Y138.698 E2.39650
G1 X108.208 Y139.161 E0.02111
G1 X107.719 Y139.445 E0.01773
G1 X106.779 Y139.708 E0.03060
G1 X27.601 Y139.708 E2.48257
G1 X26.967 Y139.584 E0.02025
G1 X26.334 Y139.303 E0.02171
G1 X25.258 Y138.277 E0.04661
G1 X24.990 Y137.773 E0.01790
G1 X24.761 Y136.915 E0.02783
G1 X24.761 Y80.736 E1.76144
G1 X24.885 Y80.102 E0.02025
G1 X25.166 Y79.470 E0.02171
G1 X26.192 Y78.394 E0.04661
G1 X26.696 Y78.125 E0.01790
G1 X27.554 Y77.897 E0.02783
G1 X106.778 Y77.901 E2.48401
G1 X107.491 Y78.064 E0.02294
G1 X108.139 Y78.396 E0.02282
G1 X108.884 Y79.102 E0.03219
G1 X108.834 Y79.664 F10200.000
G1 F1800
G1 X185.064 Y79.664 E2.39013
G1 X185.690 Y79.801 E0.02010
G1 X186.302 Y80.116 E0.02158
G1 X187.111 Y80.929 E0.03595
G1 X187.336 Y81.344 E0.01480
G1 X187.544 Y82.106 E0.02477
G1 X187.544 Y135.840 E1.68481
G1 X187.408 Y136.467 E0.02010
G1 X187.093 Y137.078 E0.02158
G1 X186.280 Y137.887 E0.03595
G1 X185.865 Y138.112 E0.01480
G1 X185.103 Y138.321 E0.02477
G1 X108.545 Y138.321 E2.40041
G1 X107.965 Y138.871 E0.02508
G1 X107.553 Y139.106 E0.01488
G1 X106.753 Y139.330 E0.02606
G1 X27.620 Y139.330 E2.48116
G1 X27.063 Y139.219 E0.01781
G1 X26.519 Y138.973 E0.01871
G1 X25.575 Y138.071 E0.04094
G1 X25.347 Y137.651 E0.01497
G1 X25.138 Y136.889 E0.02477
G1 X25.138 Y80.756 E1.76003
G1 X25.250 Y80.199 E0.01781
G1 X25.496 Y79.655 E0.01871
G1 X26.398 Y78.710 E0.04094
G1 X26.818 Y78.483 E0.01497
G1 X27.580 Y78.274 E0.02477
G1 X106.755 Y78.278 E2.48249
G1 X107.380 Y78.426 E0.02014
G1 X107.940 Y78.717 E0.01978
G1 X108.665 Y79.413 E0.03153
G1 X108.800 Y79.615 E0.00759
G1 X108.625 Y80.041 F10200.000
G1 F1800
G1 X185.042 Y80.041 E2.39602
G1 X185.582 Y80.163 E0.01734
G1 X186.100 Y80.436 E0.01837
G1 X186.794 Y81.135 E0.03089
G1 X186.979 Y81.469 E0.01197
G1 X187.167 Y82.132 E0.02162
G1 X187.167 Y135.819 E1.68329
G1 X187.046 Y136.358 E0.01734
G1 X186.773 Y136.877 E0.01837
G1 X186.074 Y137.571 E0.03089
G1 X185.740 Y137.756 E0.01197
G1 X185.076 Y137.943 E0.02162
G1 X108.395 Y137.943 E2.40428
G1 X107.724 Y138.581 E0.02902
G1 X107.390 Y138.766 E0.01196
G1 X106.727 Y138.953 E0.02162
G1 X27.640 Y138.953 E2.47971
G1 X27.162 Y138.854 E0.01531
G1 X26.706 Y138.644 E0.01573
G1 X25.890 Y137.863 E0.03543
G1 X25.703 Y137.526 E0.01207
G1 X25.516 Y136.862 E0.02162
G1 X25.516 Y80.775 E1.75856
G1 X25.614 Y80.297 E0.01531
G1 X25.825 Y79.842 E0.01573
G1 X26.606 Y79.026 E0.03543
G1 X26.943 Y78.839 E0.01207
G1 X27.607 Y78.651 E0.02163
G1 X106.733 Y78.655 E2.48097
G1 X107.227 Y78.771 E0.01589
G1 X107.740 Y79.038 E0.01815
G1 X108.385 Y79.666 E0.02821
G1 X108.592 Y79.991 E0.01208
G1 X108.353 Y80.418 F10200.000
G1 F1800
G1 X185.022 Y80.418 E2.40391
G1 X185.429 Y80.508 E0.01307
G1 X185.899 Y80.756 E0.01665
G1 X186.479 Y81.344 E0.02590
G1 X186.625 Y81.598 E0.00919
G1 X186.790 Y82.160 E0.01838
G1 X186.790 Y135.798 E1.68178
G1 X186.700 Y136.205 E0.01307
G1 X186.453 Y136.675 E0.01665
G1 X185.865 Y137.256 E0.02590
G1 X185.610 Y137.401 E0.00919
G1 X185.048 Y137.566 E0.01838
G1 X108.406 Y137.566 E2.40306
G1 X108.196 Y137.530 E0.00668
G1 X108.069 Y137.733 E0.00751
G1 X107.515 Y138.266 E0.02408
G1 X107.261 Y138.411 E0.00919
G1 X106.698 Y138.576 E0.01838
G1 X27.660 Y138.576 E2.47818
G1 X27.264 Y138.491 E0.01273
G1 X26.896 Y138.317 E0.01276
G1 X26.203 Y137.652 E0.03010
G1 X26.058 Y137.397 E0.00921
G1 X25.893 Y136.834 E0.01838
G1 X25.893 Y80.796 E1.75703
G1 X25.978 Y80.399 E0.01273
G1 X26.152 Y80.031 E0.01276
G1 X26.817 Y79.339 E0.03010
G1 X27.072 Y79.194 E0.00921
G1 X27.635 Y79.028 E0.01838
G1 X106.712 Y79.032 E2.47942
G1 X107.074 Y79.116 E0.01165
G1 X107.540 Y79.359 E0.01649
G1 X108.102 Y79.917 E0.02481
G1 X108.257 Y80.166 E0.00920
G1 X108.331 Y80.362 E0.00658
G1 X108.111 Y80.874 F10200.000
G1 F1800
G1 X108.410 Y80.796 E0.00969
G1 X185.002 Y80.796 E2.40150
G1 X185.282 Y80.856 E0.00898
G1 X185.655 Y81.045 E0.01312
G1 X186.168 Y81.557 E0.02273
G1 X186.272 Y81.733 E0.00639
G1 X186.413 Y82.190 E0.01500
G1 X186.413 Y135.779 E1.68023
G1 X186.352 Y136.058 E0.00898
G1 X186.163 Y136.432 E0.01312
G1 X185.651 Y136.945 E0.02273
G1 X185.476 Y137.048 E0.00639
G1 X185.018 Y137.189 E0.01500
G1 X108.430 Y137.189 E2.40139
G1 X107.994 Y137.096 E0.01399
G1 X107.781 Y137.488 E0.01399
G1 X107.303 Y137.954 E0.02093
G1 X107.126 Y138.058 E0.00643
G1 X106.669 Y138.199 E0.01500
G1 X27.680 Y138.199 E2.47664
G1 X27.405 Y138.140 E0.00882
G1 X27.085 Y137.989 E0.01109
G1 X26.514 Y137.437 E0.02489
G1 X26.411 Y137.262 E0.00640
G1 X26.270 Y136.805 E0.01500
G1 X26.270 Y80.816 E1.75549
G1 X26.328 Y80.541 E0.00882
G1 X26.480 Y80.221 E0.01109
G1 X27.031 Y79.650 E0.02489
G1 X27.207 Y79.547 E0.00640
G1 X27.664 Y79.405 E0.01500
G1 X106.691 Y79.409 E2.47782
G1 X106.927 Y79.464 E0.00760
G1 X107.297 Y79.649 E0.01298
G1 X107.818 Y80.166 E0.02302
G1 X107.921 Y80.340 E0.00632
G1 X108.091 Y80.818 E0.01591
G1 X107.694 Y81.540 F10200.000
G1 F1800
G1 X108.099 Y81.286 E0.01500
G1 X108.445 Y81.173 E0.01142
G1 X184.983 Y81.173 E2.39980
G1 X185.135 Y81.204 E0.00484
G1 X185.457 Y81.368 E0.01134
G1 X185.860 Y81.775 E0.01795
G1 X185.922 Y81.875 E0.00371
G1 X186.036 Y82.222 E0.01144
G1 X186.036 Y135.760 E1.67865
G1 X186.004 Y135.911 E0.00484
G1 X185.841 Y136.234 E0.01134
G1 X185.434 Y136.636 E0.01795
G1 X185.333 Y136.698 E0.00371
G1 X184.987 Y136.812 E0.01144
G1 X108.449 Y136.812 E2.39980
G1 X108.297 Y136.780 E0.00486
G1 X107.738 Y136.502 E0.01957
G1 X107.654 Y136.922 E0.01342
G1 X107.491 Y137.244 E0.01132
G1 X107.084 Y137.646 E0.01795
G1 X106.984 Y137.708 E0.00371
G1 X106.637 Y137.822 E0.01144
G1 X27.699 Y137.822 E2.47505
G1 X27.546 Y137.790 E0.00492
G1 X27.275 Y137.662 E0.00938
G1 X26.822 Y137.219 E0.01988
G1 X26.761 Y137.120 E0.00366
G1 X26.647 Y136.773 E0.01144
G1 X26.647 Y80.835 E1.75390
G1 X26.679 Y80.681 E0.00492
G1 X26.807 Y80.411 E0.00938
G1 X27.250 Y79.958 E0.01988
G1 X27.349 Y79.896 E0.00366
G1 X27.696 Y79.783 E0.01144
G1 X106.668 Y79.786 E2.47613
G1 X106.785 Y79.814 E0.00377
G1 X107.058 Y79.943 E0.00946
G1 X107.511 Y80.386 E0.01988
G1 X107.574 Y80.487 E0.00374
G1 X107.676 Y80.772 E0.00949
G1 X107.693 Y81.480 E0.02221
G1 X107.780 Y82.211 F10200.000
G1 F1800
G1 X107.883 Y81.992 E0.00757
G1 X108.226 Y81.649 E0.01522
G1 X108.480 Y81.550 E0.00856
G1 X184.966 Y81.550 E2.39814
G1 X185.216 Y81.659 E0.00856
G1 X185.559 Y82.002 E0.01522
G1 X185.659 Y82.257 E0.00856
G1 X185.659 Y135.742 E1.67700
G1 X185.549 Y135.992 E0.00856
G1 X185.206 Y136.336 E0.01522
G1 X184.952 Y136.435 E0.00856
G1 X108.466 Y136.435 E2.39814
G1 X108.216 Y136.326 E0.00856
G1 X107.873 Y135.982 E0.01522
G1 X107.773 Y135.728 E0.00856
G1 X107.773 Y82.270 E1.67613
G1 X108.179 Y82.229 F10200.000
G1 F1800
G1 X108.453 Y81.956 E0.01215
G1 X108.522 Y81.927 E0.00235
G1 X184.910 Y81.927 E2.39507
G1 X184.979 Y81.956 E0.00235
G1 X185.253 Y82.229 E0.01215
G1 X185.282 Y82.299 E0.00235
G1 X185.282 Y135.686 E1.67392
G1 X185.253 Y135.755 E0.00235
G1 X184.979 Y136.029 E0.01215
G1 X184.910 Y136.058 E0.00235
G1 X108.522 Y136.058 E2.39507
G1 X108.453 Y136.029 E0.00235
G1 X108.179 Y135.755 E0.01215
G1 X108.150 Y135.686 E0.00235
G1 X108.156 Y82.285 E1.67436
G1 X108.528 Y82.414 F10200.000
G1 F1800
G1 X108.638 Y82.304 E0.00490
G1 X184.794 Y82.304 E2.38782
G1 X184.905 Y82.414 E0.00490
G1 X184.905 Y135.571 E1.66668
G1 X184.794 Y135.681 E0.00490
G1 X108.638 Y135.681 E2.38782
G1 X108.528 Y135.571 E0.00490
G1 X108.528 Y82.474 E1.66479
G1 F8160
G1 X108.638 Y82.304 E-0.04965
G1 F8160
G1 X111.543 Y82.304 E-0.71034
G1 E-0.04000 F2100.00000
G1 Z0.800 F10200.000
G1 X106.648 Y80.166 F10200.000
G1 Z0.200 F10200.000
G1 E0.80000 F2100.00000
G1 F1800
G1 X106.867 Y80.269 E0.00757
G1 X107.210 Y80.612 E0.01522
G1 X107.309 Y80.867 E0.00856
G1 X107.309 Y136.752 E1.75225
G1 X107.200 Y137.002 E0.00856
G1 X106.857 Y137.346 E0.01522
G1 X106.602 Y137.445 E0.00856
G1 X27.717 Y137.445 E2.47340
G1 X27.467 Y137.336 E0.00856
G1 X27.123 Y136.992 E0.01522
G1 X27.024 Y136.738 E0.00856
G1 X27.024 Y80.853 E1.75225
G1 X27.133 Y80.602 E0.00856
G1 X27.477 Y80.259 E0.01522
G1 X27.731 Y80.160 E0.00856
G1 X106.589 Y80.160 E2.47253
G1 X106.630 Y80.565 F10200.000
G1 F1800
G1 X106.903 Y80.839 E0.01215
G1 X106.932 Y80.909 E0.00235
G1 X106.932 Y136.696 E1.74917
G1 X106.903 Y136.765 E0.00235
G1 X106.630 Y137.039 E0.01215
G1 X106.560 Y137.068 E0.00235
G1 X27.773 Y137.068 E2.47032
G1 X27.704 Y137.039 E0.00235
G1 X27.430 Y136.765 E0.01215
G1 X27.401 Y136.696 E0.00235
G1 X27.401 Y80.909 E1.74917
G1 X27.430 Y80.839 E0.00235
G1 X27.704 Y80.565 E0.01215
G1 X27.773 Y80.537 E0.00235
G1 X106.574 Y80.542 E2.47076
G1 X106.445 Y80.914 F10200.000
G1 F1800
G1 X106.555 Y81.024 E0.00490
G1 X106.555 Y136.580 E1.74193
G1 X106.445 Y136.691 E0.00490
G1 X27.888 Y136.691 E2.46307
G1 X27.778 Y136.580 E0.00490
G1 X27.778 Y81.024 E1.74193
G1 X27.888 Y80.914 E0.00490
G1 X106.385 Y80.914 E2.46119
G1 F8160
G1 X106.555 Y81.024 E-0.04965
G1 F8160
G1 X106.555 Y83.930 E-0.71035
G1 E-0.04000 F2100.00000
G1 Z0.800 F10200.000
G1 X108.926 Y82.702 F10200.000
G1 Z0.200 F10200.000
G1 E0.80000 F2100.00000
G1 F1800
G1 X184.506 Y82.702 E2.36976
G1 X184.506 Y135.282 E1.64861
G1 X108.926 Y135.282 E2.36976
G1 X108.926 Y82.762 E1.64673
G1 X109.318 Y82.783 F10200.000
G1 X109.303 Y83.080 F10200.000
G1 F1800
G1 X184.129 Y83.080 E2.34611
G1 X184.129 Y134.905 E1.62496
G1 X109.303 Y134.905 E2.34611
G1 X109.303 Y83.140 E1.62308
G1 F8160
G1 X112.412 Y83.137 E-0.76000
G1 E-0.04000 F2100.00000
G1 Z0.800 F10200.000
G1 X110.181 Y134.792 F10200.000
G1 Z0.200 F10200.000
G1 E0.80000 F2100.00000
G1 F1800
G1 X109.586 Y134.197 E0.02648
G1 X109.586 Y133.662 E0.01683
G1 X110.546 Y134.623 E0.04274
G1 X111.082 Y134.623 E0.01683
G1 X109.586 Y133.127 E0.06654
G1 X109.586 Y132.592 E0.01683
G1 X111.617 Y134.623 E0.09035
G1 X112.152 Y134.623 E0.01683
G1 X109.586 Y132.057 E0.11415
G1 X109.586 Y131.522 E0.01683
G1 X112.687 Y134.623 E0.13796
G1 X113.222 Y134.623 E0.01683
G1 X109.586 Y130.987 E0.16176
G1 X109.586 Y130.452 E0.01683
G1 X113.757 Y134.623 E0.18557
G1 X114.292 Y134.623 E0.01683
G1 X109.586 Y129.917 E0.20937
G1 X109.586 Y129.382 E0.01683
G1 X114.827 Y134.623 E0.23318
G1 X115.362 Y134.623 E0.01683
G1 X109.586 Y128.846 E0.25698
G1 X109.586 Y128.311 E0.01683
G1 X115.897 Y134.623 E0.28079
G1 X116.432 Y134.623 E0.01683
G1 X109.586 Y127.776 E0.30459
G1 X109.586 Y127.241 E0.01683
G1 X116.967 Y134.623 E0.32840
G1 X117.502 Y134.623 E0.01683
G1 X109.586 Y126.706 E0.35220
G1 X109.586 Y126.171 E0.01683
G1 X118.037 Y134.623 E0.37601
G1 X118.572 Y134.623 E0.01683
G1 X109.586 Y125.636 E0.39981
G1 X109.586 Y125.101 E0.01683
G1 X119.107 Y134.623 E0.42362
G1 X119.643 Y134.623 E0.01683
G1 X109.586 Y124.566 E0.44742
G1 X109.586 Y124.031 E0.01683
G1 X120.178 Y134.623 E0.47123
G1 X120.713 Y134.623 E0.01683
G1 X109.586 Y123.496 E0.49504
G1 X109.586 Y122.961 E0.01683
G1 X121.248 Y134.623 E0.51884
G1 X121.783 Y134.623 E0.01683
G1 X109.586 Y122.426 E0.54265
G1 X109.586 Y121.891 E0.01683
G1 X122.318 Y134.623 E0.56645
G1 X122.853 Y134.623 E0.01683
G1 X109.586 Y121.356 E0.59026
G1 X109.586 Y120.821 E0.01683
