; generated by Slic3r Prusa Edition 1.39.1-prusa3d on 2018-03-31 at 08:23:08

; 

; external perimeters extrusion width = 0.45mm
; perimeters extrusion width = 0.45mm
; infill extrusion width = 0.45mm
; solid infill extrusion width = 0.45mm
; top infill extrusion width = 0.40mm
; first layer extrusion width = 0.42mm

M107
M115 U3.1.1-RC5 ; tell printer latest fw version
M201 X1000 Y1000 Z200 E5000 ; sets maximum accelerations, mm/sec^2
M203 X200 Y200 Z12 E120 ; sets maximum feedrates, mm/sec
M204 S1250 T1250 ; sets acceleration (S) and retract acceleration (T)
M205 X10 Y10 Z0.4 E2.5 ; sets the jerk limits, mm/sec
M205 S0 T0 ; sets the minimum extruding and travel feed rate, mm/sec
M83  ; extruder relative mode
M104 S215 ; set extruder temp
M140 S60 ; set bed temp
M190 S60 ; wait for bed temp
M109 S215 ; wait for extruder temp
G28 W ; home all without mesh bed level
G80 ; mesh bed leveling
G1 Y-3.0 F1000.0 ; go outside print area
G92 E0.0
G1 X60.0 E9.0  F1000.0 ; intro line
G1 X100.0 E12.5  F1000.0 ; intro line
G92 E0.0
M221 S95
M900 K30; Filament gcode
G21 ; set units to millimeters
G90 ; use absolute coordinates
M83 ; use relative distances for extrusion
;BEFORE_LAYER_CHANGE
;0.2


G1 E-0.80000 F2100.00000
G1 Z0.600 F10200.000
;AFTER_LAYER_CHANGE
;0.2
G1 X81.693 Y73.939 F10200.000
G1 Z0.200 F10200.000
G1 E0.80000 F2100.00000
M204 S1000
G1 F1800
G1 X82.554 Y73.102 E0.03764
G1 X83.282 Y72.626 E0.02727
G1 X84.072 Y72.275 E0.02709
G1 X84.913 Y72.055 E0.02727
G1 X85.773 Y71.973 E0.02709
G1 X164.156 Y71.973 E2.45762
G1 X165.169 Y72.070 E0.03192
G1 X166.146 Y72.357 E0.03192
G1 X167.052 Y72.823 E0.03192
G1 X167.857 Y73.455 E0.03210
G1 X168.525 Y74.224 E0.03192
G1 X169.036 Y75.105 E0.03192
G1 X169.371 Y76.066 E0.03192
G1 X169.520 Y77.079 E0.03210
G1 X169.524 Y132.839 E1.74832
G1 X169.355 Y133.999 E0.03675
G1 X168.937 Y135.100 E0.03693
G1 X168.288 Y136.083 E0.03693
G1 X167.442 Y136.902 E0.03693
G1 X166.718 Y137.374 E0.02709
G1 X165.928 Y137.725 E0.02709
G1 X165.087 Y137.945 E0.02727
G1 X164.227 Y138.027 E0.02709
G1 X85.793 Y138.027 E2.45924
G1 X84.590 Y137.877 E0.03800
G1 X83.456 Y137.465 E0.03782
G1 X82.443 Y136.810 E0.03782
G1 X81.598 Y135.942 E0.03800
G1 X81.129 Y135.223 E0.02691
G1 X80.779 Y134.439 E0.02691
G1 X80.559 Y133.609 E0.02691
G1 X80.474 Y132.755 E0.02691
G1 X80.474 Y77.270 E1.73970
G1 X80.627 Y76.073 E0.03782
G1 X81.040 Y74.946 E0.03764
G1 X81.661 Y73.989 E0.03576
G1 F8160
G1 X82.554 Y73.102 E-0.30784
G1 F8160
G1 X83.282 Y72.626 E-0.21266
G1 F8160
G1 X84.072 Y72.275 E-0.21126
G1 F8160
G1 X84.184 Y72.246 E-0.02824
G1 E-0.04000 F2100.00000
G1 Z0.800 F10200.000
G1 X82.387 Y75.351 F10200.000
G1 Z0.200 F10200.000
G1 E0.80000 F2100.00000
G1 F1800
G1 X83.668 Y74.004 E0.05830
G1 X84.344 Y73.655 E0.02383
G1 X85.388 Y73.391 E0.03377
G1 X164.598 Y73.394 E2.48359
G1 X165.396 Y73.555 E0.02550
G1 X166.138 Y73.883 E0.02545
G1 X167.180 Y74.776 E0.04302
G1 X167.813 Y75.760 E0.03669
G1 X168.109 Y76.888 E0.03655
G1 X168.109 Y133.053 E1.76102
G1 X167.951 Y133.878 E0.02635
G1 X167.613 Y134.649 E0.02639
G1 X166.332 Y135.996 E0.05830
G1 X165.656 Y136.345 E0.02383
G1 X164.612 Y136.609 E0.03376
G1 X85.447 Y136.609 E2.48216
G1 X84.622 Y136.451 E0.02635
G1 X83.851 Y136.113 E0.02639
G1 X82.504 Y134.832 E0.05830
G1 X82.155 Y134.156 E0.02383
G1 X81.891 Y133.112 E0.03376
G1 X81.891 Y76.947 E1.76101
G1 X82.049 Y76.122 E0.02635
G1 X82.363 Y75.406 E0.02451
G1 X82.707 Y75.559 F10200.000
G1 F1800
G1 X83.871 Y74.323 E0.05324
G1 X84.460 Y74.015 E0.02086
G1 X85.412 Y73.768 E0.03083
G1 X164.579 Y73.771 E2.48221
G1 X165.298 Y73.920 E0.02304
G1 X165.958 Y74.215 E0.02266
G1 X166.912 Y75.042 E0.03960
G1 X167.456 Y75.887 E0.03149
G1 X167.732 Y76.913 E0.03331
G1 X167.732 Y133.034 E1.75964
G1 X167.585 Y133.784 E0.02395
G1 X167.282 Y134.466 E0.02340
G1 X166.129 Y135.677 E0.05243
G1 X165.540 Y135.985 E0.02086
G1 X164.588 Y136.232 E0.03083
G1 X85.466 Y136.232 E2.48081
G1 X84.717 Y136.085 E0.02395
G1 X84.035 Y135.782 E0.02340
G1 X82.823 Y134.629 E0.05243
G1 X82.515 Y134.040 E0.02086
G1 X82.268 Y133.088 E0.03083
G1 X82.268 Y76.966 E1.75966
G1 X82.415 Y76.216 E0.02395
G1 X82.683 Y75.614 E0.02067
G1 X83.027 Y75.767 F10200.000
G1 F1800
G1 X83.050 Y75.717 E0.00171
G1 X84.075 Y74.641 E0.04661
G1 X84.579 Y74.373 E0.01790
G1 X85.437 Y74.145 E0.02783
G1 X164.560 Y74.148 E2.48082
G1 X165.163 Y74.273 E0.01933
G1 X165.778 Y74.547 E0.02110
G1 X166.642 Y75.307 E0.03609
G1 X167.122 Y76.064 E0.02809
G1 X167.355 Y76.937 E0.02835
G1 X167.355 Y133.016 E1.75831
G1 X167.232 Y133.650 E0.02025
G1 X166.950 Y134.283 E0.02171
G1 X165.925 Y135.359 E0.04661
G1 X165.421 Y135.627 E0.01790
G1 X164.563 Y135.855 E0.02783
G1 X85.484 Y135.855 E2.47945
G1 X84.850 Y135.732 E0.02025
G1 X84.217 Y135.450 E0.02171
G1 X83.141 Y134.425 E0.04661
G1 X82.873 Y133.921 E0.01790
G1 X82.645 Y133.063 E0.02783
G1 X82.645 Y76.984 E1.75831
G1 X82.768 Y76.350 E0.02025
G1 X83.003 Y75.822 E0.01812
G1 X83.380 Y75.902 F10200.000
G1 F1800
G1 X84.281 Y74.958 E0.04094
G1 X84.701 Y74.730 E0.01497
G1 X85.463 Y74.522 E0.02477
G1 X164.539 Y74.526 E2.47937
G1 X165.064 Y74.637 E0.01681
G1 X165.595 Y74.878 E0.01829
G1 X166.372 Y75.571 E0.03263
G1 X166.766 Y76.191 E0.02306
G1 X166.978 Y76.963 E0.02510
G1 X166.978 Y132.997 E1.75689
G1 X166.867 Y133.554 E0.01781
G1 X166.620 Y134.098 E0.01871
G1 X165.719 Y135.042 E0.04094
G1 X165.299 Y135.270 E0.01497
G1 X164.537 Y135.478 E0.02477
G1 X85.503 Y135.478 E2.47804
G1 X84.946 Y135.367 E0.01781
G1 X84.402 Y135.120 E0.01871
G1 X83.458 Y134.219 E0.04094
G1 X83.230 Y133.799 E0.01497
G1 X83.022 Y133.037 E0.02477
G1 X83.022 Y77.003 E1.75689
G1 X83.133 Y76.446 E0.01781
G1 X83.355 Y75.957 E0.01683
G1 X83.697 Y76.115 F10200.000
G1 F1800
G1 X84.490 Y75.274 E0.03625
G1 X84.826 Y75.087 E0.01207
G1 X85.490 Y74.899 E0.02163
G1 X164.518 Y74.903 E2.47786
G1 X164.961 Y75.000 E0.01424
G1 X165.409 Y75.208 E0.01548
G1 X166.100 Y75.833 E0.02920
G1 X166.412 Y76.321 E0.01818
G1 X166.601 Y76.990 E0.02179
G1 X166.601 Y132.977 E1.75543
G1 X166.502 Y133.455 E0.01531
G1 X166.292 Y133.910 E0.01573
G1 X165.510 Y134.726 E0.03543
G1 X165.174 Y134.913 E0.01207
G1 X164.510 Y135.101 E0.02162
G1 X85.523 Y135.101 E2.47658
G1 X85.045 Y135.002 E0.01531
G1 X84.590 Y134.792 E0.01573
G1 X83.774 Y134.010 E0.03543
G1 X83.587 Y133.674 E0.01207
G1 X83.399 Y133.010 E0.02162
G1 X83.399 Y77.023 E1.75543
G1 X83.498 Y76.545 E0.01531
G1 X83.671 Y76.169 E0.01297
G1 X84.035 Y76.279 F10200.000
G1 F1800
G1 X84.701 Y75.587 E0.03010
G1 X84.956 Y75.441 E0.00921
G1 X85.518 Y75.276 E0.01838
G1 X164.496 Y75.280 E2.47629
G1 X164.855 Y75.363 E0.01157
G1 X165.221 Y75.535 E0.01268
G1 X165.826 Y76.093 E0.02580
G1 X166.058 Y76.455 E0.01347
G1 X166.224 Y77.018 E0.01841
G1 X166.224 Y132.956 E1.75390
G1 X166.138 Y133.353 E0.01273
G1 X165.965 Y133.721 E0.01276
G1 X165.299 Y134.413 E0.03010
G1 X165.044 Y134.559 E0.00921
G1 X164.482 Y134.724 E0.01838
G1 X85.544 Y134.724 E2.47505
G1 X85.147 Y134.638 E0.01273
G1 X84.779 Y134.465 E0.01276
G1 X84.087 Y133.799 E0.03010
G1 X83.941 Y133.544 E0.00921
G1 X83.776 Y132.982 E0.01838
G1 X83.776 Y77.044 E1.75390
G1 X83.862 Y76.647 E0.01273
G1 X84.010 Y76.333 E0.01088
G1 X84.351 Y76.494 F10200.000
G1 F1800
G1 X84.915 Y75.898 E0.02575
G1 X85.091 Y75.794 E0.00640
G1 X85.548 Y75.653 E0.01500
G1 X164.474 Y75.657 E2.47468
G1 X164.712 Y75.712 E0.00767
G1 X165.032 Y75.863 E0.01109
G1 X165.551 Y76.351 E0.02233
G1 X165.706 Y76.592 E0.00898
G1 X165.847 Y77.048 E0.01495
G1 X165.847 Y132.936 E1.75236
G1 X165.788 Y133.212 E0.00882
G1 X165.637 Y133.532 E0.01109
G1 X165.085 Y134.102 E0.02489
G1 X164.909 Y134.206 E0.00640
G1 X164.452 Y134.347 E0.01500
G1 X85.564 Y134.347 E2.47350
G1 X85.288 Y134.288 E0.00882
G1 X84.968 Y134.137 E0.01109
G1 X84.398 Y133.585 E0.02489
G1 X84.294 Y133.409 E0.00640
G1 X84.153 Y132.952 E0.01500
G1 X84.153 Y77.064 E1.75236
G1 X84.212 Y76.788 E0.00882
G1 X84.325 Y76.549 E0.00831
G1 X85.233 Y76.144 F10200.000
G1 F1800
G1 X85.579 Y76.030 E0.01144
G1 X164.452 Y76.034 E2.47299
G1 X164.569 Y76.061 E0.00377
G1 X164.842 Y76.190 E0.00947
G1 X165.273 Y76.607 E0.01880
G1 X165.357 Y76.735 E0.00479
G1 X165.470 Y77.079 E0.01136
G1 X165.470 Y132.917 E1.75076
G1 X165.438 Y133.071 E0.00492
G1 X165.310 Y133.341 E0.00938
G1 X164.866 Y133.795 E0.01988
G1 X164.767 Y133.856 E0.00366
G1 X164.421 Y133.970 E0.01144
G1 X85.583 Y133.970 E2.47191
G1 X85.429 Y133.938 E0.00492
G1 X85.159 Y133.810 E0.00938
G1 X84.705 Y133.366 E0.01988
G1 X84.644 Y133.267 E0.00366
G1 X84.530 Y132.921 E0.01144
G1 X84.530 Y77.083 E1.75076
G1 X84.562 Y76.929 E0.00492
G1 X84.690 Y76.659 E0.00938
G1 X85.182 Y76.176 E0.02161
G1 X84.914 Y77.068 F10200.000
G1 F1800
G1 X85.017 Y76.850 E0.00757
G1 X85.360 Y76.507 E0.01522
G1 X85.614 Y76.407 E0.00856
G1 X164.400 Y76.407 E2.47026
G1 X164.650 Y76.517 E0.00856
G1 X164.993 Y76.860 E0.01522
G1 X165.093 Y77.114 E0.00856
G1 X165.093 Y132.900 E1.74911
G1 X164.983 Y133.150 E0.00856
G1 X164.640 Y133.493 E0.01522
G1 X164.386 Y133.593 E0.00856
G1 X85.600 Y133.593 E2.47026
G1 X85.350 Y133.483 E0.00856
G1 X85.007 Y133.140 E0.01522
G1 X84.907 Y132.886 E0.00856
G1 X84.907 Y77.128 E1.74825
G1 X85.313 Y77.087 F10200.000
G1 F1800
G1 X85.587 Y76.813 E0.01215
G1 X85.656 Y76.784 E0.00235
G1 X164.344 Y76.784 E2.46719
G1 X164.413 Y76.813 E0.00235
G1 X164.687 Y77.087 E0.01215
G1 X164.716 Y77.156 E0.00235
G1 X164.716 Y132.844 E1.74604
G1 X164.687 Y132.913 E0.00235
G1 X164.413 Y133.187 E0.01215
G1 X164.344 Y133.216 E0.00235
G1 X85.656 Y133.216 E2.46719
G1 X85.587 Y133.187 E0.00235
G1 X85.313 Y132.913 E0.01215
G1 X85.284 Y132.844 E0.00235
G1 X85.290 Y77.142 E1.74647
G1 X85.661 Y77.272 F10200.000
G1 F1800
G1 X85.772 Y77.161 E0.00490
G1 X164.228 Y77.161 E2.45994
G1 X164.339 Y77.272 E0.00490
G1 X164.339 Y132.728 E1.73879
G1 X164.228 Y132.839 E0.00490
G1 X85.772 Y132.839 E2.45994
G1 X85.661 Y132.728 E0.00490
G1 X85.661 Y77.332 E1.73691
G1 X86.060 Y77.560 F10200.000
G1 F1800
G1 X163.940 Y77.560 E2.44187
G1 X163.940 Y132.440 E1.72072
G1 X86.060 Y132.440 E2.44187
G1 X86.060 Y77.620 E1.71884
G1 X86.452 Y77.641 F10200.000
G1 X86.437 Y77.937 F10200.000
G1 F1800
G1 X163.563 Y77.937 E2.41823
G1 X163.563 Y132.063 E1.69708
G1 X86.437 Y132.063 E2.41823
G1 X86.437 Y77.997 E1.69520
G1 F8160
G1 X89.546 Y77.995 E-0.76000
G1 E-0.04000 F2100.00000
G1 Z0.800 F10200.000
G1 X86.550 Y131.186 F10200.000
G1 Z0.200 F10200.000
G1 E0.80000 F2100.00000
G1 F1800
G1 X87.144 Y131.780 E0.02639
G1 X87.679 Y131.780 E0.01678
G1 X86.720 Y130.821 E0.04258
G1 X86.720 Y130.287 E0.01678
G1 X88.213 Y131.780 E0.06631
G1 X88.747 Y131.780 E0.01678
G1 X86.720 Y129.753 E0.09003
G1 X86.720 Y129.219 E0.01678
G1 X89.281 Y131.780 E0.11376
G1 X89.815 Y131.780 E0.01678
G1 X86.720 Y128.685 E0.13749
G1 X86.720 Y128.151 E0.01678
G1 X90.349 Y131.780 E0.16122
G1 X90.884 Y131.780 E0.01678
G1 X86.720 Y127.616 E0.18494
G1 X86.720 Y127.082 E0.01678
G1 X91.418 Y131.780 E0.20867
G1 X91.952 Y131.780 E0.01678
G1 X86.720 Y126.548 E0.23240
G1 X86.720 Y126.014 E0.01678
G1 X92.486 Y131.780 E0.25612
G1 X93.020 Y131.780 E0.01678
G1 X86.720 Y125.480 E0.27985
G1 X86.720 Y124.945 E0.01678
G1 X93.555 Y131.780 E0.30358
G1 X94.089 Y131.780 E0.01678
G1 X86.720 Y124.411 E0.32730
G1 X86.720 Y123.877 E0.01678
G1 X94.623 Y131.780 E0.35103
G1 X95.157 Y131.780 E0.01678
G1 X86.720 Y123.343 E0.37476
G1 X86.720 Y122.809 E0.01678
G1 X95.691 Y131.780 E0.39848
G1 X96.225 Y131.780 E0.01678
G1 X86.720 Y122.275 E0.42221
G1 X86.720 Y121.740 E0.01678
G1 X96.760 Y131.780 E0.44594
G1 X97.294 Y131.780 E0.01678
G1 X86.720 Y121.206 E0.46966
G1 X86.720 Y120.672 E0.01678
G1 X97.828 Y131.780 E0.49339
G1 X98.362 Y131.780 E0.01678
G1 X86.720 Y120.138 E0.51712
G1 X86.720 Y119.604 E0.01678
G1 X98.896 Y131.780 E0.54085
G1 X99.431 Y131.780 E0.01678
G1 X86.720 Y119.070 E0.56457
G1 X86.720 Y118.535 E0.01678
G1 X99.965 Y131.780 E0.58830
G1 X100.499 Y131.780 E0.01678
G1 X86.720 Y118.001 E0.61203
G1 X86.720 Y117.467 E0.01678
G1 X101.033 Y131.780 E0.63575
G1 X101.567 Y131.780 E0.01678
G1 X86.720 Y116.933 E0.65948
G1 X86.720 Y116.399 E0.01678
G1 X102.101 Y131.780 E0.68321
G1 X102.636 Y131.780 E0.01678
G1 X86.720 Y115.864 E0.70693
G1 X86.720 Y115.330 E0.01678
G1 X103.170 Y131.780 E0.73066
G1 X103.704 Y131.780 E0.01678
G1 X86.720 Y114.796 E0.75439
G1 X86.720 Y114.262 E0.01678
G1 X104.238 Y131.780 E0.77811
G1 X104.772 Y131.780 E0.01678
G1 X86.720 Y113.728 E0.80184
G1 X86.720 Y113.194 E0.01678
G1 X105.306 Y131.780 E0.82557
G1 X105.841 Y131.780 E0.01678
G1 X86.720 Y112.659 E0.84930
G1 X86.720 Y112.125 E0.01678
G1 X106.375 Y131.780 E0.87302
G1 X106.909 Y131.780 E0.01678
G1 X86.720 Y111.591 E0.89675
G1 X86.720 Y111.057 E0.01678
G1 X107.443 Y131.780 E0.92048
G1 X107.977 Y131.780 E0.01678
G1 X86.720 Y110.523 E0.94420
G1 X86.720 Y109.988 E0.01678
G1 X108.512 Y131.780 E0.96793
G1 X109.046 Y131.780 E0.01678
G1 X86.720 Y109.454 E0.99166
G1 X86.720 Y108.920 E0.01678
G1 X109.580 Y131.780 E1.01538
G1 X110.114 Y131.780 E0.01678
G1 X86.720 Y108.386 E1.03911
G1 X86.720 Y107.852 E0.01678
G1 X110.648 Y131.780 E1.06284
G1 X111.182 Y131.780 E0.01678
G1 X86.720 Y107.318 E1.08656
G1 X86.720 Y106.783 E0.01678
G1 X111.717 Y131.780 E1.11029
G1 X112.251 Y131.780 E0.01678
G1 X86.720 Y106.249 E1.13402
G1 X86.720 Y105.715 E0.01678
G1 X112.785 Y131.780 E1.15774
G1 X113.319 Y131.780 E0.01678
G1 X86.720 Y105.181 E1.18147
G1 X86.720 Y104.647 E0.01678
G1 X113.853 Y131.780 E1.20520
G1 X114.388 Y131.780 E0.01678
G1 X86.720 Y104.112 E1.22893
G1 X86.720 Y103.578 E0.01678
G1 X114.922 Y131.780 E1.25265
G1 X115.456 Y131.780 E0.01678
G1 X86.720 Y103.044 E1.27638
G1 X86.720 Y102.510 E0.01678
G1 X115.990 Y131.780 E1.30011
G1 X116.524 Y131.780 E0.01678
G1 X86.720 Y101.976 E1.32383
G1 X86.720 Y101.442 E0.01678
G1 X117.058 Y131.780 E1.34756
G1 X117.593 Y131.780 E0.01678
G1 X86.720 Y100.907 E1.37129
G1 X86.720 Y100.373 E0.01678
G1 X118.127 Y131.780 E1.39501
G1 X118.661 Y131.780 E0.01678
G1 X86.720 Y99.839 E1.41874
G1 X86.720 Y99.305 E0.01678
G1 X119.195 Y131.780 E1.44247
G1 X119.729 Y131.780 E0.01678
G1 X86.720 Y98.771 E1.46619
G1 X86.720 Y98.236 E0.01678
G1 X120.264 Y131.780 E1.48992
G1 X120.798 Y131.780 E0.01678
G1 X86.720 Y97.702 E1.51365
G1 X86.720 Y97.168 E0.01678
G1 X121.332 Y131.780 E1.53738
G1 X121.866 Y131.780 E0.01678
G1 X86.720 Y96.634 E1.56110
G1 X86.720 Y96.100 E0.01678
G1 X122.400 Y131.780 E1.58483
G1 X122.934 Y131.780 E0.01678
G1 X86.720 Y95.566 E1.60856
G1 X86.720 Y95.031 E0.01678
G1 X123.469 Y131.780 E1.63228
G1 X124.003 Y131.780 E0.01678
G1 X86.720 Y94.497 E1.65601
G1 X86.720 Y93.963 E0.01678
G1 X124.537 Y131.780 E1.67974
G1 X125.071 Y131.780 E0.01678
G1 X86.720 Y93.429 E1.70346
G1 X86.720 Y92.895 E0.01678
G1 X125.605 Y131.780 E1.72719
G1 X126.140 Y131.780 E0.01678
G1 X86.720 Y92.360 E1.75092
G1 X86.720 Y91.826 E0.01678
G1 X126.674 Y131.780 E1.77464
G1 X127.208 Y131.780 E0.01678
G1 X86.720 Y91.292 E1.79837
G1 X86.720 Y90.758 E0.01678
G1 X127.742 Y131.780 E1.82210
G1 X128.276 Y131.780 E0.01678
G1 X86.720 Y90.224 E1.84582
G1 X86.720 Y89.690 E0.01678
G1 X128.810 Y131.780 E1.86955
G1 X129.345 Y131.780 E0.01678
G1 X86.720 Y89.155 E1.89328
G1 X86.720 Y88.621 E0.01678
G1 X129.879 Y131.780 E1.91701
G1 X130.413 Y131.780 E0.01678
G1 X86.720 Y88.087 E1.94073
G1 X86.720 Y87.553 E0.01678
G1 X130.947 Y131.780 E1.96446
G1 X131.481 Y131.780 E0.01678
G1 X86.720 Y87.019 E1.98819
G1 X86.720 Y86.484 E0.01678
G1 X132.016 Y131.780 E2.01191
G1 X132.550 Y131.780 E0.01678
G1 X86.720 Y85.950 E2.03564
G1 X86.720 Y85.416 E0.01678
G1 X133.084 Y131.780 E2.05937
G1 X133.618 Y131.780 E0.01678
G1 X86.720 Y84.882 E2.08309
G1 X86.720 Y84.348 E0.01678
G1 X134.152 Y131.780 E2.10682
G1 X134.686 Y131.780 E0.01678
G1 X86.720 Y83.814 E2.13055
G1 X86.720 Y83.279 E0.01678
G1 X135.221 Y131.780 E2.15427
G1 X135.755 Y131.780 E0.01678
G1 X86.720 Y82.745 E2.17800
G1 X86.720 Y82.211 E0.01678
G1 X136.289 Y131.780 E2.20173
G1 X136.823 Y131.780 E0.01678
G1 X86.720 Y81.677 E2.22545
G1 X86.720 Y81.143 E0.01678
G1 X137.357 Y131.780 E2.24918
G1 X137.892 Y131.780 E0.01678
G1 X86.720 Y80.608 E2.27291
G1 X86.720 Y80.074 E0.01678
G1 X138.426 Y131.780 E2.29664
G1 X138.960 Y131.780 E0.01678
G1 X86.720 Y79.540 E2.32036
