; generated by Slic3r Prusa Edition 1.39.1-prusa3d on 2018-03-30 at 16:01:32

; 

; external perimeters extrusion width = 0.45mm
; perimeters extrusion width = 0.45mm
; infill extrusion width = 0.45mm
; solid infill extrusion width = 0.45mm
; top infill extrusion width = 0.40mm
; first layer extrusion width = 0.42mm

M107
M115 U3.1.1-RC5 ; tell printer latest fw version
M201 X1000 Y1000 Z200 E5000 ; sets maximum accelerations, mm/sec^2
M203 X200 Y200 Z12 E120 ; sets maximum feedrates, mm/sec
M204 S1250 T1250 ; sets acceleration (S) and retract acceleration (T)
M205 X10 Y10 Z0.4 E2.5 ; sets the jerk limits, mm/sec
M205 S0 T0 ; sets the minimum extruding and travel feed rate, mm/sec
M83  ; extruder relative mode
M104 S215 ; set extruder temp
M140 S60 ; set bed temp
M190 S60 ; wait for bed temp
M109 S215 ; wait for extruder temp
G28 W ; home all without mesh bed level
G80 ; mesh bed leveling
G1 Y-3.0 F1000.0 ; go outside print area
G92 E0.0
G1 X60.0 E9.0  F1000.0 ; intro line
G1 X100.0 E12.5  F1000.0 ; intro line
G92 E0.0
M221 S95
M900 K30; Filament gcode
G21 ; set units to millimeters
G90 ; use absolute coordinates
M83 ; use relative distances for extrusion
;BEFORE_LAYER_CHANGE
;0.2


G1 E-0.80000 F2100.00000
G1 Z0.600 F10200.000
;AFTER_LAYER_CHANGE
;0.2
G1 X82.854 Y75.076 F10200.000
G1 Z0.200 F10200.000
G1 E0.80000 F2100.00000
M204 S1000
G1 F1800
G1 X83.726 Y74.234 E0.03800
G1 X84.447 Y73.768 E0.02691
G1 X85.233 Y73.422 E0.02691
G1 X86.063 Y73.205 E0.02691
G1 X86.923 Y73.123 E0.02709
G1 X163.006 Y73.123 E2.38551
G1 X164.019 Y73.220 E0.03192
G1 X164.996 Y73.507 E0.03192
G1 X165.902 Y73.973 E0.03192
G1 X166.703 Y74.601 E0.03192
G1 X167.372 Y75.369 E0.03192
G1 X167.883 Y76.249 E0.03192
G1 X168.220 Y77.210 E0.03192
G1 X168.370 Y78.217 E0.03192
G1 X168.374 Y131.695 E1.67675
G1 X168.201 Y132.866 E0.03711
G1 X167.779 Y133.965 E0.03693
G1 X167.127 Y134.946 E0.03693
G1 X166.274 Y135.766 E0.03711
G1 X165.553 Y136.232 E0.02691
G1 X164.767 Y136.578 E0.02691
G1 X163.937 Y136.795 E0.02691
G1 X163.077 Y136.877 E0.02709
G1 X86.937 Y136.877 E2.38730
G1 X85.734 Y136.726 E0.03800
G1 X84.596 Y136.310 E0.03800
G1 X83.580 Y135.649 E0.03800
G1 X82.734 Y134.774 E0.03818
G1 X82.270 Y134.058 E0.02674
G1 X81.925 Y133.278 E0.02674
G1 X81.708 Y132.454 E0.02674
G1 X81.624 Y131.605 E0.02674
G1 X81.624 Y78.414 E1.66777
G1 X81.778 Y77.218 E0.03782
G1 X82.195 Y76.086 E0.03782
G1 X82.821 Y75.126 E0.03594
G1 F8160
G1 X83.726 Y74.234 E-0.31061
G1 F8160
G1 X84.447 Y73.768 E-0.20987
G1 F8160
G1 X85.233 Y73.422 E-0.20987
G1 F8160
G1 X85.350 Y73.391 E-0.02965
G1 E-0.04000 F2100.00000
G1 Z0.800 F10200.000
G1 X83.537 Y76.501 F10200.000
G1 Z0.200 F10200.000
G1 E0.80000 F2100.00000
G1 F1800
G1 X84.818 Y75.154 E0.05830
G1 X85.494 Y74.805 E0.02383
G1 X86.538 Y74.541 E0.03377
G1 X163.448 Y74.544 E2.41148
G1 X164.246 Y74.705 E0.02550
G1 X164.988 Y75.033 E0.02545
G1 X166.030 Y75.926 E0.04302
G1 X166.663 Y76.910 E0.03669
G1 X166.959 Y78.038 E0.03655
G1 X166.959 Y131.903 E1.68890
G1 X166.801 Y132.728 E0.02635
G1 X166.463 Y133.499 E0.02639
G1 X165.182 Y134.846 E0.05830
G1 X164.506 Y135.195 E0.02383
G1 X163.462 Y135.459 E0.03376
G1 X86.597 Y135.459 E2.41005
G1 X85.772 Y135.301 E0.02635
G1 X85.001 Y134.963 E0.02639
G1 X83.654 Y133.682 E0.05830
G1 X83.305 Y133.006 E0.02383
G1 X83.041 Y131.962 E0.03376
G1 X83.041 Y78.097 E1.68890
G1 X83.199 Y77.272 E0.02635
G1 X83.513 Y76.556 E0.02451
G1 X83.857 Y76.709 F10200.000
G1 F1800
G1 X85.021 Y75.473 E0.05324
G1 X85.610 Y75.165 E0.02086
G1 X86.562 Y74.918 E0.03083
G1 X163.429 Y74.921 E2.41009
G1 X164.148 Y75.070 E0.02304
G1 X164.808 Y75.365 E0.02266
G1 X165.762 Y76.192 E0.03960
G1 X166.306 Y77.037 E0.03149
G1 X166.582 Y78.063 E0.03331
G1 X166.582 Y131.884 E1.68752
G1 X166.435 Y132.634 E0.02395
G1 X166.132 Y133.315 E0.02340
G1 X164.979 Y134.527 E0.05243
G1 X164.390 Y134.835 E0.02086
G1 X163.438 Y135.082 E0.03083
G1 X86.616 Y135.082 E2.40869
G1 X85.866 Y134.935 E0.02395
G1 X85.184 Y134.632 E0.02340
G1 X83.973 Y133.479 E0.05243
G1 X83.665 Y132.890 E0.02086
G1 X83.418 Y131.938 E0.03083
G1 X83.418 Y78.116 E1.68754
G1 X83.565 Y77.366 E0.02395
G1 X83.833 Y76.764 E0.02067
G1 X84.177 Y76.917 F10200.000
G1 F1800
G1 X84.200 Y76.867 E0.00171
G1 X85.225 Y75.791 E0.04661
G1 X85.729 Y75.523 E0.01790
G1 X86.587 Y75.295 E0.02783
G1 X163.410 Y75.298 E2.40871
G1 X164.013 Y75.423 E0.01933
G1 X164.628 Y75.697 E0.02110
G1 X165.492 Y76.457 E0.03609
G1 X165.972 Y77.214 E0.02809
G1 X166.205 Y78.087 E0.02835
G1 X166.205 Y131.866 E1.68619
G1 X166.082 Y132.500 E0.02025
G1 X165.800 Y133.133 E0.02171
G1 X164.775 Y134.209 E0.04661
G1 X164.271 Y134.477 E0.01790
G1 X163.413 Y134.705 E0.02783
G1 X86.634 Y134.705 E2.40734
G1 X86.000 Y134.582 E0.02025
G1 X85.367 Y134.300 E0.02171
G1 X84.291 Y133.275 E0.04661
G1 X84.023 Y132.771 E0.01790
G1 X83.795 Y131.913 E0.02783
G1 X83.795 Y78.134 E1.68619
G1 X83.918 Y77.500 E0.02025
G1 X84.153 Y76.972 E0.01812
G1 X84.530 Y77.052 F10200.000
G1 F1800
G1 X85.431 Y76.108 E0.04094
G1 X85.851 Y75.880 E0.01497
G1 X86.613 Y75.672 E0.02477
G1 X163.389 Y75.676 E2.40726
G1 X163.914 Y75.787 E0.01681
G1 X164.445 Y76.028 E0.01829
G1 X165.222 Y76.721 E0.03263
G1 X165.616 Y77.341 E0.02306
G1 X165.828 Y78.113 E0.02510
G1 X165.828 Y131.847 E1.68478
G1 X165.717 Y132.404 E0.01781
G1 X165.470 Y132.948 E0.01871
G1 X164.569 Y133.892 E0.04094
G1 X164.149 Y134.120 E0.01497
G1 X163.387 Y134.328 E0.02477
G1 X86.653 Y134.328 E2.40593
G1 X86.096 Y134.217 E0.01781
G1 X85.552 Y133.970 E0.01871
G1 X84.608 Y133.069 E0.04094
G1 X84.380 Y132.649 E0.01497
G1 X84.172 Y131.887 E0.02477
G1 X84.172 Y78.153 E1.68478
G1 X84.283 Y77.596 E0.01781
G1 X84.505 Y77.107 E0.01683
G1 X84.847 Y77.265 F10200.000
G1 F1800
G1 X85.640 Y76.424 E0.03625
G1 X85.976 Y76.237 E0.01207
G1 X86.640 Y76.049 E0.02163
G1 X163.368 Y76.053 E2.40575
G1 X163.811 Y76.150 E0.01424
G1 X164.259 Y76.358 E0.01548
G1 X164.950 Y76.983 E0.02920
G1 X165.262 Y77.471 E0.01818
G1 X165.451 Y78.140 E0.02179
G1 X165.451 Y131.827 E1.68331
G1 X165.352 Y132.305 E0.01531
G1 X165.142 Y132.760 E0.01573
G1 X164.360 Y133.576 E0.03543
G1 X164.024 Y133.763 E0.01207
G1 X163.360 Y133.951 E0.02162
G1 X86.673 Y133.951 E2.40446
G1 X86.195 Y133.852 E0.01531
G1 X85.740 Y133.642 E0.01573
G1 X84.924 Y132.860 E0.03543
G1 X84.737 Y132.524 E0.01207
G1 X84.549 Y131.860 E0.02162
G1 X84.549 Y78.173 E1.68331
G1 X84.648 Y77.695 E0.01531
G1 X84.821 Y77.319 E0.01297
G1 X85.185 Y77.429 F10200.000
G1 F1800
G1 X85.851 Y76.737 E0.03010
G1 X86.106 Y76.591 E0.00921
G1 X86.668 Y76.426 E0.01838
G1 X163.346 Y76.430 E2.40417
G1 X163.705 Y76.513 E0.01157
G1 X164.071 Y76.685 E0.01268
G1 X164.676 Y77.243 E0.02580
G1 X164.908 Y77.605 E0.01347
G1 X165.074 Y78.168 E0.01841
G1 X165.074 Y131.806 E1.68178
G1 X164.988 Y132.203 E0.01273
G1 X164.815 Y132.571 E0.01276
G1 X164.149 Y133.263 E0.03010
G1 X163.894 Y133.409 E0.00921
G1 X163.332 Y133.574 E0.01838
G1 X86.694 Y133.574 E2.40293
G1 X86.297 Y133.488 E0.01273
G1 X85.929 Y133.315 E0.01276
G1 X85.237 Y132.649 E0.03010
G1 X85.091 Y132.394 E0.00921
G1 X84.926 Y131.832 E0.01838
G1 X84.926 Y78.194 E1.68178
G1 X85.012 Y77.797 E0.01273
G1 X85.160 Y77.483 E0.01088
G1 X85.501 Y77.644 F10200.000
G1 F1800
G1 X86.065 Y77.048 E0.02575
G1 X86.241 Y76.944 E0.00640
G1 X86.698 Y76.803 E0.01500
G1 X163.324 Y76.807 E2.40256
G1 X163.562 Y76.862 E0.00767
G1 X163.882 Y77.013 E0.01109
G1 X164.401 Y77.501 E0.02233
G1 X164.556 Y77.742 E0.00898
G1 X164.697 Y78.198 E0.01495
G1 X164.697 Y131.786 E1.68024
G1 X164.638 Y132.062 E0.00882
G1 X164.487 Y132.382 E0.01109
G1 X163.935 Y132.952 E0.02489
G1 X163.759 Y133.056 E0.00640
G1 X163.302 Y133.197 E0.01500
G1 X86.714 Y133.197 E2.40139
G1 X86.438 Y133.138 E0.00882
G1 X86.118 Y132.987 E0.01109
G1 X85.548 Y132.435 E0.02489
G1 X85.444 Y132.259 E0.00640
G1 X85.303 Y131.802 E0.01500
G1 X85.303 Y78.214 E1.68024
G1 X85.362 Y77.938 E0.00882
G1 X85.475 Y77.699 E0.00831
G1 X86.383 Y77.294 F10200.000
G1 F1800
G1 X86.729 Y77.180 E0.01144
G1 X163.302 Y77.184 E2.40088
G1 X163.419 Y77.211 E0.00377
G1 X163.692 Y77.340 E0.00947
G1 X164.123 Y77.757 E0.01880
G1 X164.207 Y77.885 E0.00479
G1 X164.320 Y78.229 E0.01136
G1 X164.320 Y131.767 E1.67865
G1 X164.288 Y131.921 E0.00492
G1 X164.160 Y132.191 E0.00938
G1 X163.716 Y132.645 E0.01988
G1 X163.617 Y132.706 E0.00366
G1 X163.271 Y132.820 E0.01144
G1 X86.733 Y132.820 E2.39980
G1 X86.579 Y132.788 E0.00492
G1 X86.309 Y132.660 E0.00938
G1 X85.855 Y132.216 E0.01988
G1 X85.794 Y132.117 E0.00366
G1 X85.680 Y131.771 E0.01144
G1 X85.680 Y78.233 E1.67865
G1 X85.712 Y78.079 E0.00492
G1 X85.840 Y77.809 E0.00938
G1 X86.332 Y77.326 E0.02161
G1 X86.064 Y78.218 F10200.000
G1 F1800
G1 X86.167 Y78.000 E0.00757
G1 X86.510 Y77.657 E0.01522
G1 X86.764 Y77.557 E0.00856
G1 X163.250 Y77.557 E2.39814
G1 X163.500 Y77.667 E0.00856
G1 X163.843 Y78.010 E0.01522
G1 X163.943 Y78.264 E0.00856
G1 X163.943 Y131.750 E1.67700
G1 X163.833 Y132.000 E0.00856
G1 X163.490 Y132.343 E0.01522
G1 X163.236 Y132.443 E0.00856
G1 X86.750 Y132.443 E2.39814
G1 X86.500 Y132.333 E0.00856
G1 X86.157 Y131.990 E0.01522
G1 X86.057 Y131.736 E0.00856
G1 X86.057 Y78.278 E1.67613
G1 X86.463 Y78.237 F10200.000
G1 F1800
G1 X86.737 Y77.963 E0.01215
G1 X86.806 Y77.934 E0.00235
G1 X163.194 Y77.934 E2.39507
G1 X163.263 Y77.963 E0.00235
G1 X163.537 Y78.237 E0.01215
G1 X163.566 Y78.306 E0.00235
G1 X163.566 Y131.694 E1.67392
G1 X163.537 Y131.763 E0.00235
G1 X163.263 Y132.037 E0.01215
G1 X163.194 Y132.066 E0.00235
G1 X86.806 Y132.066 E2.39507
G1 X86.737 Y132.037 E0.00235
G1 X86.463 Y131.763 E0.01215
G1 X86.434 Y131.694 E0.00235
G1 X86.440 Y78.292 E1.67436
G1 X86.811 Y78.422 F10200.000
G1 F1800
G1 X86.922 Y78.311 E0.00490
G1 X163.078 Y78.311 E2.38782
G1 X163.189 Y78.422 E0.00490
G1 X163.189 Y131.578 E1.66668
G1 X163.078 Y131.689 E0.00490
G1 X86.922 Y131.689 E2.38782
G1 X86.811 Y131.578 E0.00490
G1 X86.811 Y78.482 E1.66479
G1 X87.210 Y78.710 F10200.000
G1 F1800
G1 X162.790 Y78.710 E2.36976
G1 X162.790 Y131.290 E1.64861
G1 X87.210 Y131.290 E2.36976
G1 X87.210 Y78.770 E1.64673
G1 X87.602 Y78.790 F10200.000
G1 X87.587 Y79.087 F10200.000
G1 F1800
G1 X162.413 Y79.087 E2.34611
G1 X162.413 Y130.913 E1.62496
G1 X87.587 Y130.913 E2.34611
G1 X87.587 Y79.147 E1.62308
G1 F8160
G1 X90.696 Y79.145 E-0.76000
G1 E-0.04000 F2100.00000
G1 Z0.800 F10200.000
G1 X88.465 Y130.800 F10200.000
G1 Z0.200 F10200.000
G1 E0.80000 F2100.00000
G1 F1800
G1 X87.870 Y130.205 E0.02648
G1 X87.870 Y129.670 E0.01683
G1 X88.830 Y130.630 E0.04274
G1 X89.365 Y130.630 E0.01683
G1 X87.870 Y129.135 E0.06654
G1 X87.870 Y128.599 E0.01683
G1 X89.901 Y130.630 E0.09035
G1 X90.436 Y130.630 E0.01683
G1 X87.870 Y128.064 E0.11415
G1 X87.870 Y127.529 E0.01683
G1 X90.971 Y130.630 E0.13796
G1 X91.506 Y130.630 E0.01683
G1 X87.870 Y126.994 E0.16176
G1 X87.870 Y126.459 E0.01683
G1 X92.041 Y130.630 E0.18557
G1 X92.576 Y130.630 E0.01683
G1 X87.870 Y125.924 E0.20937
G1 X87.870 Y125.389 E0.01683
G1 X93.111 Y130.630 E0.23318
G1 X93.646 Y130.630 E0.01683
G1 X87.870 Y124.854 E0.25698
G1 X87.870 Y124.319 E0.01683
G1 X94.181 Y130.630 E0.28079
G1 X94.716 Y130.630 E0.01683
G1 X87.870 Y123.784 E0.30459
G1 X87.870 Y123.249 E0.01683
G1 X95.251 Y130.630 E0.32840
G1 X95.786 Y130.630 E0.01683
G1 X87.870 Y122.714 E0.35220
G1 X87.870 Y122.179 E0.01683
G1 X96.321 Y130.630 E0.37601
G1 X96.856 Y130.630 E0.01683
G1 X87.870 Y121.644 E0.39981
G1 X87.870 Y121.109 E0.01683
G1 X97.391 Y130.630 E0.42362
G1 X97.926 Y130.630 E0.01683
G1 X87.870 Y120.574 E0.44742
G1 X87.870 Y120.038 E0.01683
G1 X98.462 Y130.630 E0.47123
G1 X98.997 Y130.630 E0.01683
G1 X87.870 Y119.503 E0.49504
G1 X87.870 Y118.968 E0.01683
G1 X99.532 Y130.630 E0.51884
G1 X100.067 Y130.630 E0.01683
G1 X87.870 Y118.433 E0.54265
G1 X87.870 Y117.898 E0.01683
G1 X100.602 Y130.630 E0.56645
G1 X101.137 Y130.630 E0.01683
G1 X87.870 Y117.363 E0.59026
G1 X87.870 Y116.828 E0.01683
G1 X101.672 Y130.630 E0.61406
G1 X102.207 Y130.630 E0.01683
G1 X87.870 Y116.293 E0.63787
G1 X87.870 Y115.758 E0.01683
G1 X102.742 Y130.630 E0.66167
G1 X103.277 Y130.630 E0.01683
G1 X87.870 Y115.223 E0.68548
G1 X87.870 Y114.688 E0.01683
G1 X103.812 Y130.630 E0.70928
G1 X104.347 Y130.630 E0.01683
G1 X87.870 Y114.153 E0.73309
G1 X87.870 Y113.618 E0.01683
G1 X104.882 Y130.630 E0.75689
G1 X105.417 Y130.630 E0.01683
G1 X87.870 Y113.083 E0.78070
G1 X87.870 Y112.548 E0.01683
G1 X105.952 Y130.630 E0.80450
G1 X106.487 Y130.630 E0.01683
G1 X87.870 Y112.013 E0.82831
G1 X87.870 Y111.477 E0.01683
G1 X107.023 Y130.630 E0.85211
G1 X107.558 Y130.630 E0.01683
G1 X87.870 Y110.942 E0.87592
G1 X87.870 Y110.407 E0.01683
G1 X108.093 Y130.630 E0.89972
G1 X108.628 Y130.630 E0.01683
G1 X87.870 Y109.872 E0.92353
G1 X87.870 Y109.337 E0.01683
G1 X109.163 Y130.630 E0.94733
G1 X109.698 Y130.630 E0.01683
G1 X87.870 Y108.802 E0.97114
G1 X87.870 Y108.267 E0.01683
G1 X110.233 Y130.630 E0.99494
G1 X110.768 Y130.630 E0.01683
G1 X87.870 Y107.732 E1.01875
G1 X87.870 Y107.197 E0.01683
G1 X111.303 Y130.630 E1.04256
G1 X111.838 Y130.630 E0.01683
G1 X87.870 Y106.662 E1.06636
G1 X87.870 Y106.127 E0.01683
G1 X112.373 Y130.630 E1.09017
G1 X112.908 Y130.630 E0.01683
G1 X87.870 Y105.592 E1.11397
G1 X87.870 Y105.057 E0.01683
G1 X113.443 Y130.630 E1.13778
G1 X113.978 Y130.630 E0.01683
G1 X87.870 Y104.522 E1.16158
G1 X87.870 Y103.987 E0.01683
G1 X114.513 Y130.630 E1.18539
G1 X115.048 Y130.630 E0.01683
G1 X87.870 Y103.452 E1.20919
G1 X87.870 Y102.916 E0.01683
G1 X115.584 Y130.630 E1.23300
G1 X116.119 Y130.630 E0.01683
G1 X87.870 Y102.381 E1.25680
G1 X87.870 Y101.846 E0.01683
G1 X116.654 Y130.630 E1.28061
G1 X117.189 Y130.630 E0.01683
G1 X87.870 Y101.311 E1.30441
G1 X87.870 Y100.776 E0.01683
G1 X117.724 Y130.630 E1.32822
G1 X118.259 Y130.630 E0.01683
G1 X87.870 Y100.241 E1.35202
G1 X87.870 Y99.706 E0.01683
G1 X118.794 Y130.630 E1.37583
G1 X119.329 Y130.630 E0.01683
G1 X87.870 Y99.171 E1.39963
G1 X87.870 Y98.636 E0.01683
G1 X119.864 Y130.630 E1.42344
G1 X120.399 Y130.630 E0.01683
G1 X87.870 Y98.101 E1.44724
G1 X87.870 Y97.566 E0.01683
G1 X120.934 Y130.630 E1.47105
G1 X121.469 Y130.630 E0.01683
G1 X87.870 Y97.031 E1.49485
G1 X87.870 Y96.496 E0.01683
G1 X122.004 Y130.630 E1.51866
G1 X122.539 Y130.630 E0.01683
G1 X87.870 Y95.961 E1.54247
G1 X87.870 Y95.426 E0.01683
G1 X123.074 Y130.630 E1.56627
G1 X123.609 Y130.630 E0.01683
G1 X87.870 Y94.891 E1.59008
G1 X87.870 Y94.355 E0.01683
G1 X124.145 Y130.630 E1.61388
G1 X124.680 Y130.630 E0.01683
G1 X87.870 Y93.820 E1.63769
G1 X87.870 Y93.285 E0.01683
G1 X125.215 Y130.630 E1.66149
G1 X125.750 Y130.630 E0.01683
G1 X87.870 Y92.750 E1.68530
G1 X87.870 Y92.215 E0.01683
G1 X126.285 Y130.630 E1.70910
G1 X126.820 Y130.630 E0.01683
G1 X87.870 Y91.680 E1.73291
G1 X87.870 Y91.145 E0.01683
G1 X127.355 Y130.630 E1.75671
G1 X127.890 Y130.630 E0.01683
G1 X87.870 Y90.610 E1.78052
G1 X87.870 Y90.075 E0.01683
G1 X128.425 Y130.630 E1.80432
G1 X128.960 Y130.630 E0.01683
G1 X87.870 Y89.540 E1.82813
G1 X87.870 Y89.005 E0.01683
G1 X129.495 Y130.630 E1.85193
G1 X130.030 Y130.630 E0.01683
G1 X87.870 Y88.470 E1.87574
G1 X87.870 Y87.935 E0.01683
G1 X130.565 Y130.630 E1.89954
G1 X131.100 Y130.630 E0.01683
G1 X87.870 Y87.400 E1.92335
G1 X87.870 Y86.865 E0.01683
G1 X131.635 Y130.630 E1.94715
G1 X132.170 Y130.630 E0.01683
G1 X87.870 Y86.330 E1.97096
G1 X87.870 Y85.794 E0.01683
G1 X132.706 Y130.630 E1.99476
G1 X133.241 Y130.630 E0.01683
G1 X87.870 Y85.259 E2.01857
G1 X87.870 Y84.724 E0.01683
G1 X133.776 Y130.630 E2.04237
G1 X134.311 Y130.630 E0.01683
G1 X87.870 Y84.189 E2.06618
G1 X87.870 Y83.654 E0.01683
G1 X134.846 Y130.630 E2.08999
G1 X135.381 Y130.630 E0.01683
G1 X87.870 Y83.119 E2.11379
G1 X87.870 Y82.584 E0.01683
G1 X135.916 Y130.630 E2.13760
G1 X136.451 Y130.630 E0.01683
G1 X87.870 Y82.049 E2.16140
G1 X87.870 Y81.514 E0.01683
G1 X136.986 Y130.630 E2.18521
G1 X137.521 Y130.630 E0.01683
G1 X87.870 Y80.979 E2.20901
G1 X87.870 Y80.444 E0.01683
G1 X138.056 Y130.630 E2.23282
G1 X138.591 Y130.630 E0.01683
G1 X87.870 Y79.909 E2.25662
G1 X87.870 Y79.374 E0.01683
G1 X139.126 Y130.630 E2.28043
G1 X139.661 Y130.630 E0.01683
G1 X88.401 Y79.370 E2.28060
G1 X88.936 Y79.370 E0.01683
G1 X140.196 Y130.630 E2.28060
